; generated by Slic3r 1.2.9 on 2017-01-23 at 17:14:15

; external perimeters extrusion width = 0.40mm
; perimeters extrusion width = 0.40mm
; infill extrusion width = 0.40mm
; solid infill extrusion width = 0.40mm
; top infill extrusion width = 0.40mm
; support material extrusion width = 0.50mm

M107
M104 S200 ; set temperature
G28 ; home all axes
G1 Z5 F5000 ; lift nozzle

M109 S200 ; wait for temperature to be reached
G21 ; set units to millimeters
G90 ; use absolute coordinates
M82 ; use absolute distances for extrusion
G92 E0
G1 Z0.200 F7800.000
G1 E-3.00000 F2100.00000
G92 E0
G1 X45.878 Y29.598 F7800.000
G1 E3.00000 F2100.00000
M204 S600
G1 X46.518 Y28.740 E3.03176 F2400.000
G1 X47.318 Y27.743 E3.06973
G1 X47.903 Y27.082 E3.09592
G1 X48.703 Y26.328 E3.12857
G1 X49.546 Y25.623 E3.16120
G1 X50.424 Y24.975 E3.19359
G1 X51.196 Y24.477 E3.22087
G1 X51.956 Y24.041 E3.24688
G1 X52.615 Y23.704 E3.26886
G1 X53.333 Y23.375 E3.29232
G1 X53.949 Y23.126 E3.31204
G1 X55.180 Y22.704 E3.35070
G1 X55.884 Y22.510 E3.37238
G1 X57.103 Y22.251 E3.40937
G1 X58.166 Y22.101 E3.44126
G1 X59.174 Y22.018 E3.47129
G1 X59.675 Y21.998 E3.48616
G1 X60.453 Y21.999 E3.50926
G1 X61.304 Y22.045 E3.53457 F2400.000
G1 X62.312 Y22.148 E3.56466
G1 X63.380 Y22.326 E3.59680
G1 X64.116 Y22.491 E3.61919
G1 X104.585 Y32.710 E4.85848
G1 X106.374 Y33.369 E4.91510
G1 X107.376 Y33.892 E4.94865
G1 X107.754 Y34.115 E4.96169
G1 X109.227 Y35.201 E5.01603
G1 X109.564 Y35.507 E5.02954
G1 X110.607 Y36.626 E5.07495
G1 X110.906 Y37.007 E5.08934
G1 X111.805 Y38.396 E5.13845
G1 X112.055 Y38.874 E5.15447
G1 X112.790 Y40.762 E5.21464
G1 X112.960 Y41.402 E5.23429
G1 X113.255 Y43.344 E5.29260
G1 X113.266 Y43.620 E5.30082
G1 X113.235 Y44.855 E5.33749
G1 X113.156 Y45.690 E5.36241
G1 X112.656 Y47.920 E5.43026
G1 X88.811 Y113.944 E7.51453
G1 X88.457 Y114.851 E7.54343
G1 X88.132 Y115.575 E7.56700
G1 X87.394 Y117.048 E7.61591
G1 X87.004 Y117.748 E7.63970
G1 X86.641 Y118.335 E7.66018
G1 X86.077 Y119.147 E7.68955
G1 X84.894 Y120.664 E7.74667
G1 X84.095 Y121.560 E7.78233
G1 X83.003 Y122.621 E7.82754
G1 X82.454 Y123.098 E7.84912
G1 X81.635 Y123.754 E7.88028
G1 X81.026 Y124.202 E7.90273
G1 X80.286 Y124.699 E7.92919
G1 X79.724 Y125.048 E7.94882
G1 X79.038 Y125.441 E7.97231
G1 X77.881 Y126.028 E8.01083
G1 X76.805 Y126.499 E8.04569
G1 X75.738 Y126.898 E8.07952
G1 X74.712 Y127.220 E8.11145
G1 X73.699 Y127.482 E8.14253
G1 X72.772 Y127.677 E8.17066
G1 X71.800 Y127.834 E8.19989
G1 X70.517 Y127.973 E8.23820
G1 X69.504 Y128.038 E8.26834
G1 X66.943 Y127.838 E8.34460
G1 X51.074 Y124.289 E8.82741
G1 X49.457 Y123.765 E8.87789
G1 X49.054 Y123.591 E8.89093
G1 X48.023 Y123.077 E8.92512
G1 X47.042 Y122.512 E8.95873
G1 X46.069 Y121.877 E8.99323
G1 X45.392 Y121.387 E9.01804
G1 X44.510 Y120.686 E9.05149
G1 X43.621 Y119.894 E9.08684
G1 X42.806 Y119.082 E9.12103
G1 X42.199 Y118.418 E9.14773
G1 X41.384 Y117.423 E9.18589
G1 X40.862 Y116.715 E9.21203
G1 X40.177 Y115.678 E9.24892
G1 X39.685 Y114.846 E9.27763
G1 X39.029 Y113.571 E9.32020
G1 X38.602 Y112.604 E9.35159
G1 X38.229 Y111.628 E9.38262
G1 X37.901 Y110.629 E9.41382
G1 X37.598 Y109.512 E9.44818
G1 X37.472 Y108.954 E9.46519
G1 X37.248 Y107.704 E9.50287
G1 X37.146 Y106.928 E9.52611
G1 X37.034 Y105.437 E9.57052
G1 X37.018 Y104.736 E9.59132
G1 X37.034 Y103.726 E9.62133
G1 X37.070 Y103.057 E9.64121
G1 X42.983 Y37.464 E11.59666
G1 X43.079 Y36.737 E11.61842
G1 X43.264 Y35.832 E11.64585
G1 X43.541 Y34.755 E11.67888
G1 X43.899 Y33.545 E11.71634
G1 X44.469 Y32.116 E11.76202
G1 X45.073 Y30.913 E11.80199
G1 X45.847 Y29.649 E11.84600
M204 S1800
G1 E8.84600 F2100.00000
G92 E0
G1 X46.166 Y29.809 F7800.000
G1 E3.00000 F2100.00000
M204 S600
G1 X46.797 Y28.963 E3.03136 F2400.000
G1 X47.596 Y27.967 E3.06927
G1 X48.163 Y27.327 E3.09467
G1 X48.931 Y26.602 E3.12603
G1 X49.775 Y25.897 E3.15866
G1 X50.618 Y25.275 E3.18977
G1 X51.388 Y24.778 E3.21698
G1 X52.118 Y24.359 E3.24197
G1 X52.777 Y24.022 E3.26395
G1 X53.467 Y23.706 E3.28649
G1 X54.083 Y23.456 E3.30621
G1 X55.289 Y23.044 E3.34406
G1 X55.966 Y22.857 E3.36489
G1 X57.158 Y22.604 E3.40109
G1 X58.200 Y22.457 E3.43235
G1 X59.189 Y22.375 E3.46180
G1 X59.690 Y22.355 E3.47668
G1 X60.437 Y22.356 E3.49887
G1 X61.274 Y22.401 E3.52374 F2400.000
G1 X62.260 Y22.501 E3.55319
G1 X63.304 Y22.675 E3.58462
G1 X64.029 Y22.837 E3.60665
G1 X104.497 Y33.056 E4.84593
G1 X106.217 Y33.689 E4.90033
G1 X107.194 Y34.199 E4.93307
G1 X107.572 Y34.423 E4.94611
G1 X108.987 Y35.466 E4.99831
G1 X109.324 Y35.771 E5.01182
G1 X110.326 Y36.846 E5.05545
G1 X110.625 Y37.228 E5.06983
G1 X111.488 Y38.562 E5.11701
G1 X111.739 Y39.039 E5.13303
G1 X112.445 Y40.854 E5.19084
G1 X112.615 Y41.493 E5.21049
G1 X112.898 Y43.359 E5.26650
G1 X112.910 Y43.635 E5.27471
G1 X112.879 Y44.821 E5.30994
G1 X112.800 Y45.657 E5.33486
G1 X112.321 Y47.799 E5.40004
G1 X88.475 Y113.823 E7.48431
G1 X88.125 Y114.719 E7.51289
G1 X87.813 Y115.415 E7.53553
G1 X87.075 Y116.888 E7.58444
G1 X86.700 Y117.560 E7.60729
G1 X86.338 Y118.147 E7.62778
G1 X85.795 Y118.927 E7.65599
G1 X84.613 Y120.445 E7.71311
G1 X83.845 Y121.306 E7.74737
G1 X82.758 Y122.361 E7.79235
G1 X82.231 Y122.819 E7.81308
G1 X81.412 Y123.476 E7.84424
G1 X80.826 Y123.906 E7.86582
G1 X80.087 Y124.403 E7.89227
G1 X79.547 Y124.738 E7.91113
G1 X78.860 Y125.130 E7.93462
G1 X77.724 Y125.707 E7.97247
G1 X76.666 Y126.170 E8.00675
G1 X75.617 Y126.562 E8.03999
G1 X74.609 Y126.878 E8.07137
G1 X73.613 Y127.136 E8.10190
G1 X72.701 Y127.327 E8.12957
G1 X71.747 Y127.481 E8.15827
G1 X70.494 Y127.617 E8.19569
G1 X69.481 Y127.682 E8.22583
G1 X67.021 Y127.490 E8.29908
G1 X51.152 Y123.941 E8.78190
G1 X49.598 Y123.437 E8.83039
G1 X49.195 Y123.263 E8.84343
G1 X48.190 Y122.762 E8.87678
G1 X47.233 Y122.210 E8.90958
G1 X46.269 Y121.581 E8.94376
G1 X45.605 Y121.100 E8.96811
G1 X44.744 Y120.415 E9.00077
G1 X43.863 Y119.631 E9.03579
G1 X43.066 Y118.838 E9.06917
G1 X42.471 Y118.187 E9.09537
G1 X41.664 Y117.202 E9.13315
G1 X41.151 Y116.506 E9.15884
G1 X40.482 Y115.493 E9.19486
G1 X39.999 Y114.676 E9.22305
G1 X39.349 Y113.414 E9.26521
G1 X38.930 Y112.464 E9.29604
G1 X38.564 Y111.504 E9.32654
G1 X38.241 Y110.521 E9.35725
G1 X37.943 Y109.423 E9.39104
G1 X37.822 Y108.886 E9.40738
G1 X37.602 Y107.658 E9.44442
G1 X37.501 Y106.882 E9.46765
G1 X37.390 Y105.415 E9.51134
G1 X37.375 Y104.742 E9.53132
G1 X37.391 Y103.732 E9.56133
G1 X37.425 Y103.089 E9.58042
G1 X43.339 Y37.496 E11.53587
G1 X43.430 Y36.798 E11.55678
G1 X43.610 Y35.921 E11.58337
G1 X43.886 Y34.845 E11.61635
G1 X44.241 Y33.649 E11.65338
G1 X44.789 Y32.276 E11.69727
G1 X45.392 Y31.073 E11.73724
G1 X46.134 Y29.861 E11.77944
M204 S1800
G1 E8.77944 F2100.00000
G92 E0
G1 X46.453 Y30.021 F7800.000
G1 E3.00000 F2100.00000
M204 S600
G1 X47.076 Y29.185 E3.03097 F2400.000
G1 X47.874 Y28.191 E3.06880
G1 X48.424 Y27.571 E3.09341
G1 X49.160 Y26.876 E3.12349
G1 X50.004 Y26.171 E3.15612
G1 X50.812 Y25.574 E3.18595
G1 X51.581 Y25.079 E3.21310
G1 X52.281 Y24.677 E3.23706
G1 X52.940 Y24.340 E3.25905
G1 X53.602 Y24.037 E3.28066
G1 X54.217 Y23.787 E3.30038
G1 X55.398 Y23.384 E3.33742
G1 X56.047 Y23.205 E3.35740
G1 X57.213 Y22.957 E3.39281
G1 X58.235 Y22.812 E3.42344
G1 X59.204 Y22.732 E3.45232
G1 X59.704 Y22.711 E3.46719
G1 X60.421 Y22.713 E3.48847
G1 X61.243 Y22.757 E3.51291 F2400.000
G1 X62.209 Y22.855 E3.54173
G1 X63.228 Y23.024 E3.57243
G1 X63.941 Y23.184 E3.59411
G1 X104.410 Y33.402 E4.83339
G1 X106.059 Y34.009 E4.88556
G1 X107.012 Y34.506 E4.91749
G1 X107.390 Y34.730 E4.93053
G1 X108.747 Y35.730 E4.98059
G1 X109.085 Y36.036 E4.99410
G1 X110.045 Y37.067 E5.03594
G1 X110.344 Y37.448 E5.05033
G1 X111.172 Y38.727 E5.09557
G1 X111.423 Y39.205 E5.11160
G1 X112.100 Y40.945 E5.16703
G1 X112.270 Y41.585 E5.18668
G1 X112.541 Y43.374 E5.24040
G1 X112.553 Y43.650 E5.24861
G1 X112.524 Y44.788 E5.28240
G1 X112.445 Y45.623 E5.30731
G1 X111.985 Y47.677 E5.36982
G1 X88.139 Y113.702 E7.45410
G1 X87.793 Y114.588 E7.48235
G1 X87.494 Y115.255 E7.50406
G1 X86.756 Y116.728 E7.55297
G1 X86.396 Y117.372 E7.57489
G1 X86.034 Y117.960 E7.59537
G1 X85.514 Y118.708 E7.62243
G1 X84.331 Y120.225 E7.67955
G1 X83.594 Y121.051 E7.71240
G1 X82.513 Y122.102 E7.75717
G1 X82.008 Y122.541 E7.77705
G1 X81.189 Y123.197 E7.80821
G1 X80.627 Y123.610 E7.82890
G1 X79.888 Y124.107 E7.85536
G1 X79.370 Y124.428 E7.87344
G1 X78.683 Y124.820 E7.89693
G1 X77.566 Y125.387 E7.93411
G1 X76.527 Y125.841 E7.96780
G1 X75.496 Y126.226 E8.00046
G1 X74.506 Y126.537 E8.03128
G1 X73.528 Y126.789 E8.06126
G1 X72.631 Y126.977 E8.08847
G1 X71.694 Y127.128 E8.11666
G1 X70.471 Y127.260 E8.15318
G1 X69.458 Y127.325 E8.18332
G1 X67.099 Y127.141 E8.25357
G1 X51.230 Y123.593 E8.73639
G1 X49.740 Y123.109 E8.78289
G1 X49.337 Y122.935 E8.79593
G1 X48.357 Y122.446 E8.82845
G1 X47.423 Y121.908 E8.86044
G1 X46.469 Y121.285 E8.89429
G1 X45.817 Y120.813 E8.91818
G1 X44.977 Y120.145 E8.95005
G1 X44.104 Y119.368 E8.98474
G1 X43.327 Y118.594 E9.01731
G1 X42.743 Y117.955 E9.04300
G1 X41.945 Y116.981 E9.08040
G1 X41.441 Y116.296 E9.10564
G1 X40.788 Y115.308 E9.14081
G1 X40.314 Y114.506 E9.16847
G1 X39.669 Y113.256 E9.21022
G1 X39.258 Y112.323 E9.24049
G1 X38.899 Y111.380 E9.27047
G1 X38.582 Y110.413 E9.30068
G1 X38.289 Y109.333 E9.33390
G1 X38.173 Y108.819 E9.34956
G1 X37.956 Y107.612 E9.38596
G1 X37.855 Y106.836 E9.40920
G1 X37.747 Y105.393 E9.45216
G1 X37.732 Y104.748 E9.47132
G1 X37.748 Y103.737 E9.50133
G1 X37.781 Y103.122 E9.51964
G1 X43.695 Y37.528 E11.47509
G1 X43.782 Y36.859 E11.49514
G1 X43.956 Y36.009 E11.52088
G1 X44.232 Y34.935 E11.55382
G1 X44.582 Y33.753 E11.59043
G1 X45.108 Y32.436 E11.63251
G1 X45.711 Y31.233 E11.67249
G1 X46.422 Y30.072 E11.71289
M204 S1800
G1 E8.71289 F2100.00000
G92 E0
G1 X54.379 Y33.438 F7800.000
G1 E3.00000 F2100.00000
M204 S600
G1 X52.052 Y38.080 E3.15418 F2400.000
M204 S1800
G1 X51.990 Y39.799 F7800.000
M204 S600
G1 X55.723 Y32.350 E3.40156 F2400.000
G1 X56.815 Y31.766 E3.43833
G1 X52.170 Y41.033 E3.74611
G1 X52.471 Y42.026 E3.77692
G1 X57.795 Y31.404 E4.12969
G1 X58.697 Y31.198 E4.15717
G1 X52.846 Y42.872 E4.54492
G1 X53.274 Y43.611 E4.57026
G1 X59.543 Y31.103 E4.98567
G1 X60.346 Y31.095 E5.00951
G1 X53.748 Y44.260 E5.44674
G1 X54.259 Y44.833 E5.46955
G1 X61.111 Y31.163 E5.92358
M204 S1800
G1 X65.602 Y33.358 F7800.000
M204 S600
G1 X62.429 Y39.689 E6.13384 F2400.000
G1 X62.298 Y38.358 E6.17355
G1 X65.050 Y32.866 E6.35594
G1 X64.467 Y32.436 E6.37746
G1 X61.868 Y37.622 E6.54968
G1 X61.316 Y37.128 E6.57165
G1 X63.854 Y32.065 E6.73982
G1 X63.213 Y31.751 E6.76103
G1 X60.668 Y36.829 E6.92967
G1 X59.924 Y36.719 E6.95200
G1 X62.542 Y31.494 E7.12551
G1 X61.842 Y31.297 E7.14710
G1 X59.043 Y36.882 E7.33259
M204 S1800
G1 E4.33259 F2100.00000
G92 E0
G1 X57.602 Y39.758 F7800.000
G1 E3.00000 F2100.00000
M204 S600
G1 X54.805 Y45.338 E3.18535 F2400.000
G1 X55.382 Y45.780 E3.20694
G1 X58.000 Y40.557 E3.38041
G1 X58.534 Y41.085 E3.40271
G1 X55.989 Y46.163 E3.57137
G1 X56.625 Y46.489 E3.59257
G1 X59.163 Y41.424 E3.76078
G1 X59.887 Y41.574 E3.78273
G1 X56.906 Y47.522 E3.98029
G1 X57.019 Y48.891 E4.02106
G1 X60.724 Y41.498 E4.26660
G1 X61.539 Y41.466 E4.29081
G1 X56.834 Y50.854 E4.60260
G1 X57.067 Y51.982 E4.63681
G1 X62.246 Y41.649 E4.98002
M204 S1800
G1 X62.846 Y42.046 F7800.000
M204 S600
G1 X56.834 Y54.042 E5.37841 F2400.000
M204 S1800
G1 X57.612 Y55.676 F7800.000
M204 S600
G1 X63.621 Y43.687 E5.77661 F2400.000
G1 X63.636 Y45.250 E5.82302
G1 X57.163 Y58.165 E6.25197
G1 X56.834 Y57.229 E6.28143
G1 X57.670 Y55.560 E6.33688
G1 X57.115 Y55.074 E6.35879
G1 X63.329 Y42.676 E6.77054
M204 S1800
G1 E3.77054 F2100.00000
G92 E0
G1 X63.633 Y42.069 F7800.000
G1 E3.00000 F2100.00000
M204 S600
G1 X67.042 Y35.267 E3.22592 F2400.000
G1 X67.776 Y35.396 E3.24804
G1 X64.301 Y42.331 E3.47835
G1 X65.029 Y42.472 E3.50037
G1 X68.510 Y35.526 E3.73107
G1 X69.244 Y35.655 E3.75319
G1 X65.763 Y42.602 E3.98389
G1 X66.497 Y42.731 E4.00602
G1 X69.978 Y35.785 E4.23672
G1 X70.712 Y35.914 E4.25885
G1 X67.231 Y42.860 E4.48955
G1 X67.965 Y42.990 E4.51168
G1 X71.446 Y36.044 E4.74238
G1 X72.180 Y36.173 E4.76450
G1 X68.699 Y43.119 E4.99520
G1 X69.433 Y43.249 E5.01733
G1 X72.914 Y36.302 E5.24803
G1 X73.648 Y36.432 E5.27016
G1 X70.150 Y43.411 E5.50196
G1 X70.760 Y43.787 E5.52325
G1 X74.382 Y36.561 E5.76324
G1 X75.116 Y36.691 E5.78537
G1 X71.494 Y43.917 E6.02537
G1 X72.228 Y44.046 E6.04750
G1 X75.850 Y36.820 E6.28749
G1 X76.584 Y36.949 E6.30962
G1 X72.962 Y44.176 E6.54961
G1 X73.696 Y44.305 E6.57174
G1 X77.318 Y37.079 E6.81174
G1 X78.052 Y37.208 E6.83386
G1 X74.430 Y44.434 E7.07386
G1 X75.164 Y44.564 E7.09599
G1 X78.786 Y37.338 E7.33598
G1 X79.520 Y37.467 E7.35811
G1 X75.898 Y44.693 E7.59811
G1 X76.632 Y44.823 E7.62024
G1 X80.254 Y37.597 E7.86023
G1 X80.988 Y37.726 E7.88236
G1 X77.366 Y44.952 E8.12235
G1 X78.100 Y45.082 E8.14448
G1 X81.722 Y37.855 E8.38448
G1 X82.456 Y37.985 E8.40660
G1 X78.834 Y45.211 E8.64660
G1 X79.568 Y45.340 E8.66873
G1 X83.190 Y38.114 E8.90872
G1 X83.924 Y38.244 E8.93085
G1 X80.255 Y45.563 E9.17394
G1 X80.989 Y45.693 E9.19607
G1 X84.658 Y38.373 E9.43917
G1 X85.392 Y38.502 E9.46129
G1 X81.723 Y45.822 E9.70439
G1 X82.364 Y46.138 E9.72559
G1 X86.126 Y38.632 E9.97488
G1 X86.860 Y38.761 E9.99701
G1 X83.098 Y46.267 E10.24630
G1 X83.832 Y46.397 E10.26843
G1 X87.594 Y38.891 E10.51772
G1 X88.328 Y39.020 E10.53985
G1 X84.519 Y46.619 E10.79224
G1 X85.253 Y46.749 E10.81437
G1 X89.062 Y39.150 E11.06676
G1 X89.795 Y39.279 E11.08888
G1 X85.907 Y47.038 E11.34656
G1 X85.907 Y48.631 E11.39389
G1 X90.529 Y39.408 E11.70020
G1 X91.263 Y39.538 E11.72233
G1 X86.887 Y48.270 E12.01235
M204 S1800
G1 E9.01235 F2100.00000
G92 E0
G1 X87.876 Y47.889 F7800.000
G1 E3.00000 F2100.00000
M204 S600
G1 X91.997 Y39.667 E3.27307 F2400.000
G1 X92.731 Y39.797 E3.29520
G1 X88.538 Y48.164 E3.57309
G1 X89.217 Y48.402 E3.59447
G1 X93.465 Y39.926 E3.87596
M204 S1800
G1 X95.667 Y40.314 F7800.000
M204 S600
G1 X71.674 Y88.186 E5.46586 F2400.000
M204 S1800
G1 X71.142 Y87.654 F7800.000
M204 S600
G1 X77.773 Y74.424 E5.90526 F2400.000
M204 S1800
G1 X83.813 Y76.717 F7800.000
M204 S600
G1 X82.786 Y78.766 E5.97329 F2400.000
M204 S1800
G1 E2.97329 F2100.00000
G92 E0
G1 X84.202 Y75.941 F7800.000
G1 E3.00000 F2100.00000
M204 S600
G1 X85.093 Y74.162 E3.05906 F2400.000
M204 S1800
G1 E0.05906 F2100.00000
G92 E0
G1 X85.626 Y73.100 F7800.000
G1 E3.00000 F2100.00000
M204 S600
G1 X86.346 Y71.663 E3.04772 F2400.000
M204 S1800
G1 E0.04772 F2100.00000
G92 E0
G1 X87.106 Y70.146 F7800.000
G1 E3.00000 F2100.00000
M204 S600
G1 X87.568 Y69.224 E3.03062 F2400.000
M204 S1800
G1 X81.990 Y66.010 F7800.000
M204 S600
G1 X94.933 Y40.185 E3.88831 F2400.000
G1 X94.199 Y40.056 E3.91044
G1 X89.476 Y49.480 E4.22343
M204 S1800
G1 X93.949 Y54.900 F7800.000
M204 S600
G1 X81.590 Y79.559 E5.04239 F2400.000
G1 X80.471 Y80.198 E5.08065
G1 X100.071 Y41.091 E6.37946
G1 X99.337 Y40.961 E6.40159
G1 X79.488 Y80.565 E7.71690
G1 X78.511 Y80.921 E7.74777
G1 X98.603 Y40.832 E9.07919
G1 X97.869 Y40.703 E9.10132
G1 X77.534 Y81.276 E10.44885
G1 X76.556 Y81.632 E10.47972
G1 X97.135 Y40.573 E11.84336
G1 X96.401 Y40.444 E11.86549
G1 X72.206 Y88.718 E13.46876
G1 X72.738 Y89.250 E13.49111
G1 X75.639 Y83.463 E13.68332
G1 X76.171 Y83.995 E13.70566
G1 X73.268 Y89.787 E13.89802
G1 X73.771 Y90.377 E13.92105
G1 X76.703 Y84.527 E14.11535
G1 X77.235 Y85.059 E14.13769
G1 X74.220 Y91.075 E14.33749
G1 X74.599 Y91.914 E14.36481
G1 X77.761 Y85.604 E14.57437
G1 X78.270 Y86.182 E14.59725
G1 X66.540 Y109.585 E15.37451
M204 S1800
G1 X66.442 Y109.782 F7800.000
M204 S600
G1 X66.206 Y110.251 E15.39008 F2400.000
M204 S1800
G1 E12.39008 F2100.00000
G92 E0
G1 X66.405 Y111.450 F7800.000
G1 E3.00000 F2100.00000
M204 S600
G1 X78.754 Y86.811 E3.81831 F2400.000
G1 X79.210 Y87.494 E3.84271
G1 X66.603 Y112.648 E4.67811
M204 S1800
G1 X66.536 Y112.782 F7800.000
M204 S600
G1 X66.269 Y113.314 E4.69576 F2400.000
M204 S1800
G1 E1.69576 F2100.00000
G92 E0
G1 X66.034 Y113.782 F7800.000
G1 E3.00000 F2100.00000
M204 S600
G1 X65.935 Y113.980 E3.00657 F2400.000
M204 S1800
G1 X66.467 Y114.512 F7800.000
M204 S600
G1 X79.635 Y88.241 E3.87909 F2400.000
G1 X80.023 Y89.060 E3.90601
G1 X66.332 Y116.377 E4.81325
