; generated by Slic3r 1.2.9 on 2017-04-28 at 17:09:27

; external perimeters extrusion width = 0.40mm
; perimeters extrusion width = 0.40mm
; infill extrusion width = 0.40mm
; solid infill extrusion width = 0.40mm
; top infill extrusion width = 0.40mm

; external perimeters extrusion width = 0.40mm
; perimeters extrusion width = 0.40mm
; infill extrusion width = 0.40mm
; solid infill extrusion width = 0.40mm
; top infill extrusion width = 0.40mm

M107
M190 S75 ; set bed temperature
M104 S235 ; set temperature
G28 ; home all axes
G1 Z5 F5000 ; lift nozzle

M109 S235 ; wait for temperature to be reached
G21 ; set units to millimeters
G90 ; use absolute coordinates
M82 ; use absolute distances for extrusion
G92 E0
G1 Z0.250 F7800.000
G1 E-3.00000 F2100.00000
G92 E0
G1 X41.722 Y34.280 F7800.000
G1 E3.00000 F2100.00000
M204 S600
G1 X43.532 Y32.373 E3.09466 F2400.000
G1 X45.829 Y31.094 E3.18932
G1 X48.860 Y30.548 E3.30018
G1 X109.860 Y30.548 E5.49611
G1 X112.459 Y30.946 E5.59077
G1 X114.821 Y32.103 E5.68543 F2400.000
G1 X116.728 Y33.913 E5.78009
G1 X118.007 Y36.210 E5.87474
G1 X118.553 Y39.241 E5.98561
G1 X118.553 Y123.241 E9.00951
G1 X118.155 Y125.840 E9.10417
G1 X116.998 Y128.202 E9.19883
G1 X115.188 Y130.109 E9.29349
G1 X112.891 Y131.388 E9.38815
G1 X109.860 Y131.934 E9.49901
G1 X48.860 Y131.934 E11.69494
G1 X46.261 Y131.536 E11.78960
G1 X43.899 Y130.379 E11.88426
G1 X41.992 Y128.570 E11.97892
G1 X40.713 Y126.272 E12.07357
G1 X40.167 Y123.241 E12.18444
G1 X40.167 Y39.241 E15.20834
G1 X40.565 Y36.642 E15.30300
G1 X41.695 Y34.334 E15.39550
M204 S1500
G1 X42.042 Y34.441 F7800.000
M204 S600
G1 X42.066 Y34.393 E15.39744 F2400.000
G1 X43.868 Y32.552 E15.49019
G1 X46.146 Y31.348 E15.58293
G1 X48.860 Y30.895 E15.68198
G1 X109.860 Y30.895 E17.87791
G1 X112.405 Y31.292 E17.97065
G1 X114.708 Y32.447 E18.06339 F2400.000
G1 X116.549 Y34.250 E18.15613
G1 X117.753 Y36.527 E18.24887
G1 X118.206 Y39.241 E18.34792
G1 X118.206 Y123.241 E21.37183
G1 X117.809 Y125.786 E21.46457
G1 X116.654 Y128.089 E21.55731
G1 X114.852 Y129.930 E21.65005
G1 X112.574 Y131.134 E21.74279
G1 X109.860 Y131.587 E21.84184
G1 X48.860 Y131.587 E24.03777
G1 X46.315 Y131.190 E24.13052
G1 X44.012 Y130.035 E24.22326
G1 X42.171 Y128.233 E24.31600
G1 X40.967 Y125.955 E24.40874
G1 X40.514 Y123.241 E24.50779
G1 X40.514 Y39.241 E27.53169
G1 X40.911 Y36.696 E27.62444
G1 X42.015 Y34.495 E27.71308
M204 S1500
G1 E24.71308 F2100.00000
G92 E0
G1 X62.314 Y96.187 F7800.000
G1 E3.00000 F2100.00000
M204 S600
G1 X62.314 Y96.967 E3.02808 F2400.000
G1 X63.595 Y98.249 E3.09333
G1 X49.406 Y98.249 E3.60412
G1 X49.406 Y96.187 E3.67834
G1 X62.254 Y96.187 E4.14082
M204 S1500
G1 X62.660 Y95.841 F7800.000
M204 S600
G1 X62.660 Y96.824 E4.17620 F2400.000
G1 X64.431 Y98.595 E4.26639
G1 X49.060 Y98.595 E4.81975
G1 X49.060 Y95.841 E4.91890
G1 X62.600 Y95.841 E5.40633
M204 S1500
G1 X62.460 Y96.188 F7800.000
G1 E2.40633 F2100.00000
G92 E0
G1 X95.125 Y98.249 F7800.000
G1 E3.00000 F2100.00000
M204 S600
G1 X96.406 Y96.967 E3.06525 F2400.000
G1 X96.406 Y96.187 E3.09333
G1 X109.314 Y96.187 E3.55798
G1 X109.314 Y98.249 E3.63219
G1 X95.185 Y98.249 E4.14082
M204 S1500
G1 X94.288 Y98.595 F7800.000
M204 S600
G1 X96.060 Y96.824 E4.23101 F2400.000
G1 X96.060 Y95.841 E4.26639
G1 X109.660 Y95.841 E4.75598
G1 X109.660 Y98.595 E4.85513
G1 X94.348 Y98.595 E5.40633
M204 S1500
G1 X94.635 Y98.395 F7800.000
G1 E2.40633 F2100.00000
G92 E0
G1 X82.753 Y107.348 F7800.000
G1 E3.00000 F2100.00000
M204 S600
G1 X82.753 Y114.134 E3.24427 F2400.000
G1 X75.967 Y114.134 E3.48853
G1 X75.967 Y107.348 E3.73280
G1 X82.693 Y107.348 E3.97491
M204 S1500
G1 X82.406 Y107.695 F7800.000
M204 S600
G1 X82.406 Y113.787 E4.19424 F2400.000
G1 X76.314 Y113.787 E4.41357
G1 X76.314 Y107.695 E4.63290
G1 X82.346 Y107.695 E4.85007
M204 S1500
G1 X82.060 Y108.041 F7800.000
M204 S600
G1 X82.060 Y113.441 E5.04446 F2400.000
G1 X76.660 Y113.441 E5.23885
G1 X76.660 Y108.041 E5.43325
G1 X82.000 Y108.041 E5.62548
M204 S1500
G1 X82.460 Y108.041 F7800.000
G1 X108.967 Y99.688 F7800.000
M204 S600
G1 X108.967 Y122.348 E6.44122 F2400.000
G1 X49.753 Y122.348 E8.57288
G1 X49.753 Y99.688 E9.38863
G1 X64.545 Y99.688 E9.92112
G1 X65.990 Y101.134 E9.99471
G1 X92.730 Y101.134 E10.95731
G1 X94.175 Y99.688 E11.03090
G1 X108.907 Y99.688 E11.56124
M204 S1500
G1 X109.314 Y99.342 F7800.000
M204 S600
G1 X109.314 Y122.695 E12.40191 F2400.000
G1 X49.406 Y122.695 E14.55851
G1 X49.406 Y99.342 E15.39919
G1 X64.688 Y99.342 E15.94931
G1 X66.134 Y100.787 E16.02291
G1 X92.586 Y100.787 E16.97517
G1 X94.032 Y99.342 E17.04877
G1 X109.254 Y99.342 E17.59673
M204 S1500
G1 X109.660 Y98.995 F7800.000
M204 S600
G1 X109.660 Y123.041 E18.46235 F2400.000
G1 X49.060 Y123.041 E20.64388
G1 X49.060 Y98.995 E21.50950
G1 X64.831 Y98.995 E22.07725
G1 X66.277 Y100.441 E22.15085
G1 X92.443 Y100.441 E23.09278
G1 X93.888 Y98.995 E23.16638
G1 X109.600 Y98.995 E23.73198
M204 S1500
G1 X109.460 Y99.342 F7800.000
G1 E20.73198 F2100.00000
G92 E0
G1 X109.113 Y96.575 F7800.000
G1 E3.00000 F2100.00000
M204 S600
G1 X108.926 Y96.388 E3.00982 F2400.000
G1 X108.420 Y96.388 E3.02859
G1 X109.113 Y97.081 E3.06496
G1 X109.113 Y97.586 E3.08374
G1 X107.915 Y96.388 E3.14666
G1 X107.410 Y96.388 E3.16543
G1 X109.069 Y98.048 E3.25262
G1 X108.564 Y98.048 E3.27140
G1 X106.904 Y96.388 E3.35859
G1 X106.399 Y96.388 E3.37736
G1 X108.059 Y98.048 E3.46456
G1 X107.553 Y98.048 E3.48333
G1 X105.893 Y96.388 E3.57052
G1 X105.388 Y96.388 E3.58930
G1 X107.048 Y98.048 E3.67649
G1 X106.542 Y98.048 E3.69527
G1 X104.882 Y96.388 E3.78246
G1 X104.377 Y96.388 E3.80123
G1 X106.037 Y98.048 E3.88843
G1 X105.531 Y98.048 E3.90720
G1 X103.872 Y96.388 E3.99439
G1 X103.366 Y96.388 E4.01317
G1 X105.026 Y98.048 E4.10036
G1 X104.521 Y98.048 E4.11913
G1 X102.861 Y96.388 E4.20633
G1 X102.355 Y96.388 E4.22510
G1 X104.015 Y98.048 E4.31229
G1 X103.510 Y98.048 E4.33107
G1 X101.850 Y96.388 E4.41826
G1 X101.345 Y96.388 E4.43703
G1 X103.004 Y98.048 E4.52423
G1 X102.499 Y98.048 E4.54300
G1 X100.839 Y96.388 E4.63019
G1 X100.334 Y96.388 E4.64897
G1 X101.994 Y98.048 E4.73616
G1 X101.488 Y98.048 E4.75493
G1 X99.828 Y96.388 E4.84213
G1 X99.323 Y96.388 E4.86090
G1 X100.983 Y98.048 E4.94810
G1 X100.477 Y98.048 E4.96687
G1 X98.818 Y96.388 E5.05406
G1 X98.312 Y96.388 E5.07284
G1 X99.972 Y98.048 E5.16003
G1 X99.467 Y98.048 E5.17880
G1 X97.807 Y96.388 E5.26600
G1 X97.301 Y96.388 E5.28477
G1 X98.961 Y98.048 E5.37196
G1 X98.456 Y98.048 E5.39074
G1 X96.796 Y96.388 E5.47793
G1 X96.607 Y96.705 E5.49162
G1 X97.950 Y98.048 E5.56218
G1 X97.445 Y98.048 E5.58096
G1 X96.506 Y97.109 E5.63029
G1 X96.253 Y97.362 E5.64357
G1 X96.940 Y98.048 E5.67963
G1 X96.434 Y98.048 E5.69840
G1 X96.000 Y97.614 E5.72119
G1 X95.748 Y97.867 E5.73446
G1 X95.929 Y98.048 E5.74398
M204 S1500
G1 E2.74398 F2100.00000
G92 E0
G1 X62.600 Y98.048 F7800.000
G1 E3.00000 F2100.00000
M204 S600
G1 X60.941 Y96.388 E3.08498 F2400.000
M204 S1500
G1 X62.113 Y96.575 F7800.000
M204 S600
G1 X61.926 Y96.388 E3.09455 F2400.000
G1 X61.433 Y96.388 E3.11238
G1 X62.113 Y97.068 E3.14716
M204 S1500
G1 X62.108 Y98.048 F7800.000
M204 S600
G1 X60.448 Y96.388 E3.23214 F2400.000
G1 X59.956 Y96.388 E3.24997
G1 X61.615 Y98.048 E3.33495
G1 X61.123 Y98.048 E3.35278
G1 X59.463 Y96.388 E3.43775
G1 X58.970 Y96.388 E3.45558
G1 X60.630 Y98.048 E3.54056
G1 X60.138 Y98.048 E3.55839
G1 X58.478 Y96.388 E3.64337
G1 X57.985 Y96.388 E3.66120
G1 X59.645 Y98.048 E3.74617
G1 X59.153 Y98.048 E3.76401
G1 X57.493 Y96.388 E3.84898
G1 X57.000 Y96.388 E3.86681
G1 X58.660 Y98.048 E3.95179
G1 X58.168 Y98.048 E3.96962
G1 X56.508 Y96.388 E4.05460
G1 X56.015 Y96.388 E4.07243
G1 X57.675 Y98.048 E4.15740
G1 X57.182 Y98.048 E4.17523
G1 X55.523 Y96.388 E4.26021
G1 X55.030 Y96.388 E4.27804
G1 X56.690 Y98.048 E4.36302
G1 X56.197 Y98.048 E4.38085
G1 X54.537 Y96.388 E4.46582
G1 X54.045 Y96.388 E4.48365
G1 X55.705 Y98.048 E4.56863
G1 X55.212 Y98.048 E4.58646
G1 X53.552 Y96.388 E4.67144
G1 X53.060 Y96.388 E4.68927
G1 X54.720 Y98.048 E4.77424
G1 X54.227 Y98.048 E4.79207
G1 X52.567 Y96.388 E4.87705
G1 X52.075 Y96.388 E4.89488
G1 X53.735 Y98.048 E4.97986
G1 X53.242 Y98.048 E4.99769
G1 X51.582 Y96.388 E5.08266
G1 X51.090 Y96.388 E5.10049
G1 X52.749 Y98.048 E5.18547
G1 X52.257 Y98.048 E5.20330
G1 X50.597 Y96.388 E5.28828
G1 X50.104 Y96.388 E5.30611
G1 X51.764 Y98.048 E5.39108
G1 X51.272 Y98.048 E5.40891
G1 X49.630 Y96.406 E5.49299
G1 X49.607 Y96.876 E5.51003
G1 X50.779 Y98.048 E5.57003
G1 X50.287 Y98.048 E5.58786
G1 X49.607 Y97.369 E5.62265
G1 X49.607 Y97.861 E5.64048
G1 X49.794 Y98.048 E5.65005
M204 S1500
G1 E2.65005 F2100.00000
G92 E0
G1 X61.834 Y99.889 F7800.000
G1 E3.00000 F2100.00000
M204 S600
G1 X75.766 Y113.821 E3.71255 F2400.000
G1 X75.766 Y113.329 E3.73035
G1 X62.326 Y99.889 E4.41773
G1 X62.818 Y99.889 E4.43553
G1 X75.766 Y112.837 E5.09775
G1 X75.766 Y112.345 E5.11554
G1 X63.310 Y99.889 E5.75260
G1 X63.802 Y99.889 E5.77039
G1 X75.766 Y111.853 E6.38228
G1 X75.766 Y111.361 E6.40008
G1 X64.294 Y99.889 E6.98680
M204 S1500
G1 X66.232 Y101.335 F7800.000
M204 S600
G1 X75.766 Y110.869 E7.47443 F2400.000
G1 X75.766 Y110.377 E7.49222
G1 X66.724 Y101.335 E7.95468
G1 X67.216 Y101.335 E7.97247
G1 X75.766 Y109.885 E8.40977
G1 X75.766 Y109.393 E8.42756
G1 X67.708 Y101.335 E8.83969
G1 X68.200 Y101.335 E8.85748
G1 X75.766 Y108.901 E9.24445
G1 X75.766 Y108.409 E9.26224
G1 X68.692 Y101.335 E9.62404
G1 X69.184 Y101.335 E9.64183
G1 X75.766 Y107.917 E9.97846
G1 X75.766 Y107.425 E9.99626
G1 X69.676 Y101.335 E10.30772
G1 X70.168 Y101.335 E10.32552
G1 X75.981 Y107.147 E10.62280
G1 X76.473 Y107.147 E10.64060
G1 X70.660 Y101.335 E10.93789
G1 X71.152 Y101.335 E10.95568
G1 X76.965 Y107.147 E11.25297
G1 X77.457 Y107.147 E11.27076
G1 X71.645 Y101.335 E11.56805
G1 X72.137 Y101.335 E11.58584
G1 X77.949 Y107.147 E11.88313
G1 X78.441 Y107.147 E11.90092
G1 X72.629 Y101.335 E12.19821
G1 X73.121 Y101.335 E12.21600
G1 X78.933 Y107.147 E12.51329
G1 X79.426 Y107.147 E12.53109
G1 X73.613 Y101.335 E12.82837
G1 X74.105 Y101.335 E12.84617
G1 X79.918 Y107.147 E13.14345
G1 X80.410 Y107.147 E13.16125
G1 X74.597 Y101.335 E13.45853
G1 X75.089 Y101.335 E13.47633
G1 X80.902 Y107.147 E13.77362
G1 X81.394 Y107.147 E13.79141
G1 X75.581 Y101.335 E14.08870
G1 X76.073 Y101.335 E14.10649
G1 X81.886 Y107.147 E14.40378
G1 X82.378 Y107.147 E14.42157
G1 X76.565 Y101.335 E14.71886
M204 S1500
G1 X108.766 Y100.076 F7800.000
M204 S600
G1 X108.579 Y99.889 E14.72842 F2400.000
G1 X108.087 Y99.889 E14.74621
G1 X108.766 Y100.568 E14.78094
G1 X108.766 Y101.060 E14.79874
G1 X107.595 Y99.889 E14.85863
G1 X107.103 Y99.889 E14.87642
G1 X108.766 Y101.552 E14.96148
G1 X108.766 Y102.044 E14.97927
G1 X106.611 Y99.889 E15.08950
G1 X106.119 Y99.889 E15.10729
G1 X108.766 Y102.536 E15.24268
G1 X108.766 Y103.028 E15.26048
G1 X105.627 Y99.889 E15.42103
G1 X105.135 Y99.889 E15.43882
G1 X108.766 Y103.520 E15.62454
G1 X108.766 Y104.012 E15.64234
G1 X104.643 Y99.889 E15.85322
G1 X104.151 Y99.889 E15.87102
G1 X108.766 Y104.505 E16.10707
G1 X108.766 Y104.997 E16.12486
G1 X103.659 Y99.889 E16.38608
G1 X103.167 Y99.889 E16.40388
G1 X108.766 Y105.489 E16.69026
G1 X108.766 Y105.981 E16.70805
G1 X102.675 Y99.889 E17.01960
G1 X102.183 Y99.889 E17.03739
G1 X108.766 Y106.473 E17.37411
G1 X108.766 Y106.965 E17.39190
G1 X101.691 Y99.889 E17.75378
G1 X101.199 Y99.889 E17.77157
G1 X108.766 Y107.457 E18.15862
G1 X108.766 Y107.949 E18.17641
G1 X100.706 Y99.889 E18.58862
G1 X100.214 Y99.889 E18.60642
G1 X108.766 Y108.441 E19.04379
G1 X108.766 Y108.933 E19.06159
G1 X99.722 Y99.889 E19.52413
G1 X99.230 Y99.889 E19.54192
G1 X108.766 Y109.425 E20.02963
G1 X108.766 Y109.917 E20.04742
G1 X98.738 Y99.889 E20.56029
G1 X98.246 Y99.889 E20.57809
G1 X108.766 Y110.409 E21.11613
G1 X108.766 Y110.901 E21.13392
G1 X97.754 Y99.889 E21.69712
G1 X97.262 Y99.889 E21.71492
G1 X108.766 Y111.393 E22.30329
G1 X108.766 Y111.885 E22.32108
G1 X96.770 Y99.889 E22.93462
G1 X96.278 Y99.889 E22.95241
G1 X108.766 Y112.377 E23.59111
G1 X108.766 Y112.869 E23.60890
G1 X95.786 Y99.889 E24.27277
G1 X95.294 Y99.889 E24.29056
G1 X108.766 Y113.362 E24.97959
G1 X108.766 Y113.854 E24.99739
G1 X94.802 Y99.889 E25.71158
G1 X94.310 Y99.889 E25.72938
G1 X108.766 Y114.346 E26.46874
G1 X108.766 Y114.838 E26.48654
G1 X94.017 Y100.088 E27.24089
G1 X93.771 Y100.334 E27.25347
G1 X108.766 Y115.330 E28.02041
G1 X108.766 Y115.822 E28.03820
G1 X93.525 Y100.580 E28.81772
G1 X93.279 Y100.826 E28.83030
G1 X108.766 Y116.314 E29.62240
G1 X108.766 Y116.806 E29.64020
G1 X93.032 Y101.072 E30.44488
G1 X92.786 Y101.318 E30.45746
G1 X108.766 Y117.298 E31.27473
G1 X108.766 Y117.790 E31.29253
G1 X92.311 Y101.335 E32.13411
G1 X91.819 Y101.335 E32.15191
G1 X108.766 Y118.282 E33.01866
G1 X108.766 Y118.774 E33.03645
G1 X91.327 Y101.335 E33.92837
G1 X90.835 Y101.335 E33.94616
G1 X108.766 Y119.266 E34.86324
G1 X108.766 Y119.758 E34.88104
G1 X90.343 Y101.335 E35.82328
G1 X89.851 Y101.335 E35.84108
G1 X108.766 Y120.250 E36.80849
G1 X108.766 Y120.742 E36.82629
G1 X89.359 Y101.335 E37.81886
G1 X88.867 Y101.335 E37.83666
G1 X108.766 Y121.234 E38.85440
G1 X108.766 Y121.727 E38.87220
G1 X88.374 Y101.335 E39.91511
G1 X87.882 Y101.335 E39.93290
G1 X108.695 Y122.147 E40.99734
G1 X108.203 Y122.147 E41.01513
G1 X87.390 Y101.335 E42.07957
G1 X86.898 Y101.335 E42.09737
G1 X107.711 Y122.147 E43.16180
G1 X107.219 Y122.147 E43.17960
G1 X86.406 Y101.335 E44.24404
G1 X85.914 Y101.335 E44.26183
G1 X106.727 Y122.147 E45.32627
G1 X106.235 Y122.147 E45.34407
G1 X85.422 Y101.335 E46.40850
G1 X84.930 Y101.335 E46.42630
G1 X105.743 Y122.147 E47.49074
G1 X105.251 Y122.147 E47.50853
G1 X84.438 Y101.335 E48.57297
G1 X83.946 Y101.335 E48.59076
G1 X104.759 Y122.147 E49.65520
G1 X104.267 Y122.147 E49.67300
G1 X83.454 Y101.335 E50.73744
G1 X82.962 Y101.335 E50.75523
G1 X103.775 Y122.147 E51.81967
G1 X103.283 Y122.147 E51.83746
G1 X82.470 Y101.335 E52.90190
G1 X81.978 Y101.335 E52.91970
G1 X102.791 Y122.147 E53.98413
G1 X102.298 Y122.147 E54.00193
G1 X81.486 Y101.335 E55.06637
G1 X80.994 Y101.335 E55.08416
G1 X101.806 Y122.147 E56.14860
G1 X101.314 Y122.147 E56.16640
G1 X80.502 Y101.335 E57.23083
G1 X80.010 Y101.335 E57.24863
G1 X100.822 Y122.147 E58.31307
G1 X100.330 Y122.147 E58.33086
G1 X79.517 Y101.335 E59.39530
G1 X79.025 Y101.335 E59.41309
G1 X99.838 Y122.147 E60.47753
G1 X99.346 Y122.147 E60.49533
G1 X78.533 Y101.335 E61.55977
G1 X78.041 Y101.335 E61.57756
G1 X98.854 Y122.147 E62.64200
G1 X98.362 Y122.147 E62.65979
G1 X77.549 Y101.335 E63.72423
G1 X77.057 Y101.335 E63.74203
G1 X97.870 Y122.147 E64.80646
G1 X97.378 Y122.147 E64.82426
G1 X82.954 Y107.723 E65.56197
G1 X82.954 Y108.215 E65.57977
G1 X96.886 Y122.147 E66.29231
G1 X96.394 Y122.147 E66.31011
G1 X82.954 Y108.707 E66.99749
G1 X82.954 Y109.199 E67.01528
G1 X95.902 Y122.147 E67.67750
G1 X95.410 Y122.147 E67.69529
G1 X82.954 Y109.691 E68.33234
G1 X82.954 Y110.183 E68.35014
G1 X94.918 Y122.147 E68.96202
G1 X94.426 Y122.147 E68.97982
G1 X82.954 Y110.675 E69.56653
G1 X82.954 Y111.168 E69.58433
G1 X93.933 Y122.147 E70.14588
G1 X93.441 Y122.147 E70.16368
G1 X82.954 Y111.660 E70.70006
G1 X82.954 Y112.152 E70.71786
G1 X92.949 Y122.147 E71.22908
G1 X92.457 Y122.147 E71.24688
G1 X82.954 Y112.644 E71.73293
G1 X82.954 Y113.136 E71.75073
G1 X91.965 Y122.147 E72.21162
G1 X91.473 Y122.147 E72.22941
G1 X82.954 Y113.628 E72.66514
G1 X82.954 Y114.120 E72.68293
G1 X90.981 Y122.147 E73.09349
G1 X90.489 Y122.147 E73.11129
G1 X82.676 Y114.335 E73.51086
G1 X82.184 Y114.335 E73.52866
G1 X89.997 Y122.147 E73.92823
G1 X89.505 Y122.147 E73.94602
G1 X81.692 Y114.335 E74.34560
G1 X81.200 Y114.335 E74.36339
G1 X89.013 Y122.147 E74.76297
G1 X88.521 Y122.147 E74.78076
G1 X80.708 Y114.335 E75.18033
G1 X80.216 Y114.335 E75.19813
G1 X88.029 Y122.147 E75.59770
G1 X87.537 Y122.147 E75.61550
G1 X79.724 Y114.335 E76.01507
G1 X79.232 Y114.335 E76.03286
G1 X87.045 Y122.147 E76.43244
G1 X86.553 Y122.147 E76.45023
G1 X78.740 Y114.335 E76.84980
G1 X78.248 Y114.335 E76.86760
G1 X86.061 Y122.147 E77.26717
G1 X85.569 Y122.147 E77.28497
G1 X77.756 Y114.335 E77.68454
G1 X77.264 Y114.335 E77.70234
G1 X85.076 Y122.147 E78.10191
G1 X84.584 Y122.147 E78.11970
