; generated by Slic3r 1.3.0-dev on 2017-10-16 at 17:59:38

; Printer Config Notes: 
; ""
; 
; external perimeters extrusion width = 0.40mm (2.16mm^3/s)
; perimeters extrusion width = 0.40mm (3.90mm^3/s)
; infill extrusion width = 0.40mm (4.76mm^3/s)
; solid infill extrusion width = 0.40mm (4.76mm^3/s)
; top infill extrusion width = 0.40mm (3.46mm^3/s)

M107
M190 S75 ; set bed temperature and wait for it to be reached
M104 S235 ; set temperature
G28 ; home all axes
G1 Z5 F5000 ; lift nozzle


; Filament gcode

; Filament gcode

M109 S235 ; set temperature and wait for it to be reached
G21 ; set units to millimeters
G90 ; use absolute coordinates
M82 ; use absolute distances for extrusion
G92 E0
G1 E-2.50000 F3600.00000
G92 E0
G1 Z0.250 F9600.000
G1 X51.930 Y49.256 F9600.000
G1 E2.50000 F3600.00000
M204 S600
G1 F1200
G1 X53.954 Y48.270 E2.58104
G1 X55.696 Y48.028 E2.64435
G1 X80.700 Y48.028 E3.54449
G1 X82.916 Y48.425 E3.62553
G1 X84.857 Y49.566 E3.70658
G1 X86.281 Y51.310 E3.78762
G1 X86.916 Y52.950 E3.85093
G1 X91.413 Y72.050 E4.55731
G1 X91.583 Y73.513 E4.61035
G1 X91.583 Y80.513 E4.86234
G1 X91.186 Y82.730 E4.94339
G1 X90.045 Y84.670 E5.02443
G1 X88.301 Y86.094 E5.10547
G1 X85.198 Y86.899 E5.22089
G1 X51.198 Y86.899 E6.44485
G1 X48.982 Y86.502 E6.52590
G1 X47.041 Y85.361 E6.60694
G1 X45.617 Y83.617 E6.68798
G1 X44.813 Y80.513 E6.80340
G1 X44.813 Y73.513 E7.05539
G1 X44.983 Y72.050 E7.10844
G1 X49.480 Y52.950 E7.81482
G1 X50.374 Y50.884 E7.89586
G1 X51.889 Y49.300 E7.97475
M204 S800
G1 X52.233 Y49.466 F9600.000
M204 S600
G1 F1200
G1 X54.224 Y48.556 E8.05355
G1 X55.696 Y48.374 E8.10692
G1 X80.700 Y48.374 E9.00706
G1 X82.853 Y48.771 E9.08586
G1 X84.723 Y49.909 E9.16466
G1 X86.064 Y51.639 E9.24345
G1 X86.579 Y53.029 E9.29682
G1 X91.076 Y72.129 E10.00321
G1 X91.237 Y73.513 E10.05337
G1 X91.237 Y80.513 E10.30537
G1 X90.840 Y82.666 E10.38416
G1 X89.702 Y84.536 E10.46296
G1 X87.973 Y85.877 E10.54176
G1 X85.198 Y86.553 E10.64456
G1 X51.198 Y86.553 E11.86852
G1 X49.045 Y86.156 E11.94732
G1 X47.175 Y85.018 E12.02611
G1 X45.834 Y83.288 E12.10491
G1 X45.159 Y80.513 E12.20771
G1 X45.159 Y73.513 E12.45970
G1 X45.320 Y72.129 E12.50987
G1 X49.817 Y53.029 E13.21625
G1 X50.697 Y51.025 E13.29505
G1 X52.191 Y49.508 E13.37169
M204 S800
G1 X52.535 Y49.679 F9600.000
M204 S600
G1 F1200
G1 X54.491 Y48.850 E13.44817
G1 X55.696 Y48.721 E13.49179
G1 X80.700 Y48.721 E14.39194
G1 X82.788 Y49.117 E14.46842
G1 X84.584 Y50.251 E14.54491
G1 X85.840 Y51.965 E14.62139
G1 X86.242 Y53.109 E14.66501
G1 X90.739 Y72.209 E15.37140
G1 X90.891 Y73.513 E15.41868
G1 X90.891 Y80.513 E15.67068
G1 X90.494 Y82.601 E15.74716
G1 X89.360 Y84.397 E15.82365
G1 X87.646 Y85.653 E15.90013
G1 X85.198 Y86.206 E15.99048
G1 X51.198 Y86.206 E17.21444
G1 X49.111 Y85.810 E17.29092
G1 X47.314 Y84.675 E17.36741
G1 X46.059 Y82.961 E17.44389
G1 X45.505 Y80.513 E17.53424
G1 X45.505 Y73.513 E17.78623
G1 X45.657 Y72.209 E17.83352
G1 X50.154 Y53.109 E18.53991
G1 X51.019 Y51.168 E18.61639
G1 X52.492 Y49.721 E18.69072
M204 S800
G1 X52.835 Y49.897 F9600.000
M204 S600
G1 F1200
G1 X55.696 Y49.067 E18.79796
G1 X80.700 Y49.067 E19.69810
G1 X82.720 Y49.463 E19.77220
G1 X84.441 Y50.593 E19.84630
G1 X85.904 Y53.188 E19.95354
G1 X90.402 Y72.288 E20.65992
G1 X90.544 Y73.513 E20.70433
G1 X90.544 Y80.513 E20.95633
G1 X90.148 Y82.533 E21.03043
G1 X89.018 Y84.254 E21.10453
G1 X87.322 Y85.420 E21.17863
G1 X85.198 Y85.860 E21.25670
G1 X51.198 Y85.860 E22.48067
G1 X49.178 Y85.464 E22.55477
G1 X47.458 Y84.334 E22.62887
G1 X46.292 Y82.637 E22.70297
G1 X45.852 Y80.513 E22.78104
G1 X45.852 Y73.513 E23.03303
G1 X45.994 Y72.288 E23.07744
G1 X50.492 Y53.188 E23.78383
G1 X51.340 Y51.313 E23.85793
G1 X52.791 Y49.938 E23.92987
M204 S800
G1 E21.42987 F3600.00000
G92 E0
G1 X69.146 Y65.760 F9600.000
G1 E2.50000 F3600.00000
M204 S600
G1 F1200
G1 X68.866 Y65.974 E2.51270
G1 X68.540 Y66.109 E2.52539
G1 X68.191 Y66.155 E2.53809
G1 X67.841 Y66.109 E2.55079
G1 X67.515 Y65.974 E2.56348
G1 X67.235 Y65.760 E2.57618
G1 X67.021 Y65.480 E2.58888
G1 X66.886 Y65.154 E2.60157
G1 X66.840 Y64.804 E2.61427
G1 X66.886 Y64.455 E2.62697
G1 X67.021 Y64.129 E2.63966
G1 X67.235 Y63.849 E2.65236
G1 X67.515 Y63.634 E2.66506
G1 X67.841 Y63.499 E2.67775
G1 X68.191 Y63.453 E2.69045
G1 X68.540 Y63.499 E2.70315
G1 X68.866 Y63.634 E2.71584
G1 X69.146 Y63.849 E2.72854
G1 X69.361 Y64.129 E2.74124
G1 X69.496 Y64.455 E2.75393
G1 X69.542 Y64.804 E2.76663
G1 X69.496 Y65.154 E2.77933
G1 X69.361 Y65.480 E2.79202
G1 X69.183 Y65.712 E2.80256
M204 S800
G1 X68.899 Y65.513 F9600.000
M204 S600
G1 F1200
G1 X68.692 Y65.672 E2.81198
G1 X68.450 Y65.772 E2.82139
G1 X68.191 Y65.806 E2.83080
G1 X67.931 Y65.772 E2.84022
G1 X67.690 Y65.672 E2.84963
G1 X67.482 Y65.513 E2.85904
G1 X67.323 Y65.305 E2.86846
G1 X67.223 Y65.064 E2.87787
G1 X67.189 Y64.804 E2.88729
G1 X67.223 Y64.545 E2.89670
G1 X67.323 Y64.304 E2.90611
G1 X67.482 Y64.096 E2.91553
G1 X67.690 Y63.937 E2.92494
G1 X67.931 Y63.837 E2.93436
G1 X68.191 Y63.803 E2.94377
G1 X68.450 Y63.837 E2.95318
G1 X68.692 Y63.937 E2.96260
G1 X68.899 Y64.096 E2.97201
G1 X69.058 Y64.304 E2.98142
G1 X69.158 Y64.545 E2.99084
G1 X69.192 Y64.804 E3.00025
G1 X69.158 Y65.064 E3.00966
G1 X69.058 Y65.305 E3.01908
G1 X68.935 Y65.465 E3.02633
M204 S800
G1 X68.899 Y65.513 F9600.000
G1 E0.52633 F3600.00000
G92 E0
G1 X76.027 Y60.280 F9600.000
G1 E2.50000 F3600.00000
M204 S600
G1 F1200
G1 X75.892 Y59.954 E2.51270
G1 X75.846 Y59.604 E2.52539
G1 X75.892 Y59.255 E2.53809
G1 X76.027 Y58.929 E2.55079
G1 X76.242 Y58.649 E2.56348
G1 X76.522 Y58.434 E2.57618
G1 X76.848 Y58.299 E2.58888
G1 X77.197 Y58.253 E2.60157
G1 X77.547 Y58.299 E2.61427
G1 X77.873 Y58.434 E2.62697
G1 X78.153 Y58.649 E2.63966
G1 X78.367 Y58.929 E2.65236
G1 X78.502 Y59.255 E2.66506
G1 X78.548 Y59.604 E2.67775
G1 X78.502 Y59.954 E2.69045
G1 X78.367 Y60.280 E2.70315
G1 X78.153 Y60.560 E2.71584
G1 X77.873 Y60.774 E2.72854
G1 X77.547 Y60.909 E2.74124
G1 X77.197 Y60.955 E2.75393
G1 X76.848 Y60.909 E2.76663
G1 X76.522 Y60.774 E2.77933
G1 X76.242 Y60.560 E2.79202
G1 X76.064 Y60.328 E2.80256
M204 S800
G1 X76.330 Y60.105 F9600.000
M204 S600
G1 F1200
G1 X76.230 Y59.864 E2.81198
G1 X76.196 Y59.604 E2.82139
G1 X76.230 Y59.345 E2.83080
G1 X76.330 Y59.104 E2.84022
G1 X76.489 Y58.896 E2.84963
G1 X76.696 Y58.737 E2.85904
G1 X76.938 Y58.637 E2.86846
G1 X77.197 Y58.603 E2.87787
G1 X77.457 Y58.637 E2.88729
G1 X77.698 Y58.737 E2.89670
G1 X77.906 Y58.896 E2.90611
G1 X78.065 Y59.104 E2.91553
G1 X78.165 Y59.345 E2.92494
G1 X78.199 Y59.604 E2.93436
G1 X78.165 Y59.864 E2.94377
G1 X78.065 Y60.105 E2.95318
G1 X77.906 Y60.313 E2.96260
G1 X77.698 Y60.472 E2.97201
G1 X77.457 Y60.572 E2.98142
G1 X77.197 Y60.606 E2.99084
G1 X76.938 Y60.572 E3.00025
G1 X76.696 Y60.472 E3.00967
G1 X76.489 Y60.313 E3.01908
G1 X76.366 Y60.153 E3.02633
M204 S800
G1 X76.330 Y60.105 F9600.000
G1 E0.52633 F3600.00000
G92 E0
G1 X60.535 Y59.604 F9600.000
G1 E2.50000 F3600.00000
M204 S600
G1 F1200
G1 X60.489 Y59.954 E2.51270
G1 X60.354 Y60.280 E2.52539
G1 X60.139 Y60.560 E2.53809
G1 X59.860 Y60.774 E2.55079
G1 X59.534 Y60.909 E2.56348
G1 X59.184 Y60.955 E2.57618
G1 X58.834 Y60.909 E2.58888
G1 X58.508 Y60.774 E2.60157
G1 X58.229 Y60.560 E2.61427
G1 X58.014 Y60.280 E2.62697
G1 X57.879 Y59.954 E2.63966
G1 X57.833 Y59.604 E2.65236
G1 X57.879 Y59.255 E2.66506
G1 X58.014 Y58.929 E2.67775
G1 X58.229 Y58.649 E2.69045
G1 X58.508 Y58.434 E2.70315
G1 X58.834 Y58.299 E2.71584
G1 X59.184 Y58.253 E2.72854
G1 X59.534 Y58.299 E2.74124
G1 X59.860 Y58.434 E2.75393
G1 X60.139 Y58.649 E2.76663
G1 X60.354 Y58.929 E2.77933
G1 X60.489 Y59.255 E2.79202
G1 X60.527 Y59.545 E2.80256
M204 S800
G1 X60.186 Y59.604 F9600.000
M204 S600
G1 F1200
G1 X60.152 Y59.864 E2.81198
G1 X60.052 Y60.105 E2.82139
G1 X59.892 Y60.313 E2.83080
G1 X59.685 Y60.472 E2.84022
G1 X59.443 Y60.572 E2.84963
G1 X59.184 Y60.606 E2.85904
G1 X58.925 Y60.572 E2.86846
G1 X58.683 Y60.472 E2.87787
G1 X58.476 Y60.313 E2.88729
G1 X58.316 Y60.105 E2.89670
G1 X58.216 Y59.864 E2.90611
G1 X58.182 Y59.604 E2.91553
G1 X58.216 Y59.345 E2.92494
G1 X58.316 Y59.104 E2.93435
G1 X58.476 Y58.896 E2.94377
G1 X58.683 Y58.737 E2.95318
G1 X58.925 Y58.637 E2.96260
G1 X59.184 Y58.603 E2.97201
G1 X59.443 Y58.637 E2.98142
G1 X59.685 Y58.737 E2.99084
G1 X59.892 Y58.896 E3.00025
G1 X60.052 Y59.104 E3.00967
G1 X60.152 Y59.345 E3.01908
G1 X60.178 Y59.545 E3.02633
M204 S800
G1 X60.186 Y59.604 F9600.000
G1 E0.52633 F3600.00000
G92 E0
G1 X60.681 Y54.960 F9600.000
G1 E2.50000 F3600.00000
M204 S600
G1 F1200
G1 X60.703 Y55.312 E2.51271
G1 X60.867 Y56.219 E2.54590
G1 X61.139 Y57.090 E2.57872
G1 X61.513 Y57.921 E2.61153
G1 X61.984 Y58.701 E2.64434
G1 X62.540 Y59.409 E2.67675
G1 X63.191 Y60.062 E2.70993
G1 X63.908 Y60.625 E2.74276
G1 X64.688 Y61.096 E2.77556
G1 X65.519 Y61.470 E2.80837
G1 X66.389 Y61.741 E2.84118
G1 X67.286 Y61.905 E2.87399
G1 X68.196 Y61.960 E2.90680
G1 X69.105 Y61.905 E2.93961
G1 X70.002 Y61.741 E2.97241
G1 X70.872 Y61.470 E3.00522
G1 X71.703 Y61.096 E3.03803
G1 X72.483 Y60.625 E3.07084
G1 X73.200 Y60.062 E3.10365
G1 X73.845 Y59.418 E3.13645
G1 X74.407 Y58.701 E3.16926
G1 X74.878 Y57.921 E3.20207
G1 X75.248 Y57.100 E3.23448
G1 X75.523 Y56.220 E3.26767
G1 X75.688 Y55.323 E3.30049
G1 X75.710 Y54.960 E3.31360
G1 X80.268 Y54.960 E3.47768
G1 X84.652 Y73.577 E4.16620
G1 X84.652 Y79.967 E4.39624
G1 X51.744 Y79.967 E5.58087
G1 X51.744 Y73.577 E5.81091
G1 X56.128 Y54.960 E6.49943
G1 X60.621 Y54.960 E6.66118
M204 S800
G1 X61.007 Y54.613 F9600.000
M204 S600
G1 F1200
G1 X61.047 Y55.271 E6.68488
G1 X61.204 Y56.136 E6.71656
G1 X61.463 Y56.967 E6.74786
G1 X61.820 Y57.760 E6.77916
G1 X62.270 Y58.504 E6.81046
G1 X62.800 Y59.180 E6.84137
G1 X63.421 Y59.803 E6.87305
G1 X64.105 Y60.339 E6.90436
G1 X64.849 Y60.789 E6.93566
G1 X65.642 Y61.146 E6.96696
G1 X66.472 Y61.404 E6.99826
G1 X67.328 Y61.561 E7.02956
G1 X68.196 Y61.613 E7.06086
G1 X69.063 Y61.561 E7.09216
G1 X69.919 Y61.404 E7.12346
G1 X70.749 Y61.146 E7.15476
G1 X71.542 Y60.789 E7.18606
G1 X72.286 Y60.339 E7.21735
G1 X72.970 Y59.803 E7.24866
G1 X73.585 Y59.188 E7.27995
G1 X74.121 Y58.504 E7.31125
G1 X74.571 Y57.760 E7.34255
G1 X74.924 Y56.976 E7.37347
G1 X75.187 Y56.137 E7.40515
G1 X75.343 Y55.281 E7.43645
G1 X75.384 Y54.613 E7.46054
G1 X80.542 Y54.613 E7.64623
G1 X84.998 Y73.537 E8.34607
G1 X84.998 Y80.313 E8.59003
G1 X51.398 Y80.313 E9.79959
G1 X51.398 Y73.537 E10.04355
G1 X55.854 Y54.613 E10.74339
G1 X60.947 Y54.613 E10.92675
M204 S800
G1 X60.961 Y55.011 F9600.000
G1 E8.42675 F3600.00000
G92 E0
G1 X56.439 Y55.269 F9600.000
G1 E2.50000 F3600.00000
M204 S600
G1 F1200
G1 X56.366 Y55.343 E2.50378
G1 X56.214 Y55.988 E2.52774
G1 X56.932 Y55.269 E2.56451
G1 X57.425 Y55.269 E2.58234
G1 X56.062 Y56.632 E2.65210
G1 X55.910 Y57.276 E2.67607
G1 X57.917 Y55.269 E2.77882
G1 X58.410 Y55.269 E2.79665
G1 X55.759 Y57.921 E2.93240
G1 X55.607 Y58.565 E2.95636
G1 X58.902 Y55.269 E3.12509
G1 X59.395 Y55.269 E3.14293
G1 X55.455 Y59.209 E3.34465
G1 X55.304 Y59.854 E3.36862
G1 X59.888 Y55.269 E3.60333
G1 X60.380 Y55.269 E3.62117
G1 X55.152 Y60.498 E3.88887
G1 X55.000 Y61.142 E3.91284
G1 X60.461 Y55.681 E4.19245
G1 X60.537 Y56.098 E4.20779
G1 X58.586 Y58.049 E4.30767
G1 X58.707 Y57.999 E4.31241
G1 X59.182 Y57.945 E4.32971
G1 X60.637 Y56.490 E4.40422
G1 X60.754 Y56.866 E4.41846
G1 X59.612 Y58.009 E4.47698
G1 X59.960 Y58.153 E4.49063
G1 X60.878 Y57.235 E4.53763
G1 X61.031 Y57.575 E4.55111
G1 X60.246 Y58.359 E4.59128
G1 X60.350 Y58.439 E4.59600
G1 X60.484 Y58.614 E4.60400
G1 X61.184 Y57.915 E4.63981
G1 X61.357 Y58.234 E4.65297
G1 X60.673 Y58.918 E4.68799
G1 X60.790 Y59.201 E4.69908
G1 X60.800 Y59.283 E4.70207
G1 X61.542 Y58.541 E4.74004
G1 X61.728 Y58.848 E4.75303
G1 X60.834 Y59.741 E4.79877
G1 X60.790 Y60.081 E4.81117
G1 X60.650 Y60.419 E4.82439
G1 X61.943 Y59.126 E4.89059
G1 X62.159 Y59.402 E4.90330
G1 X53.331 Y68.230 E5.35531
G1 X53.179 Y68.874 E5.37927
G1 X62.384 Y59.670 E5.85055
G1 X62.630 Y59.917 E5.86316
G1 X53.028 Y69.519 E6.35480
G1 X52.876 Y70.163 E6.37876
G1 X62.876 Y60.163 E6.89076
G1 X63.137 Y60.395 E6.90339
G1 X52.724 Y70.807 E7.43654
G1 X52.572 Y71.452 E7.46051
G1 X63.413 Y60.611 E8.01556
G1 X63.689 Y60.827 E8.02826
G1 X52.421 Y72.096 E8.60523
G1 X52.269 Y72.740 E8.62920
G1 X63.990 Y61.020 E9.22932
G1 X64.297 Y61.205 E9.24231
G1 X52.117 Y73.385 E9.86592
G1 X52.054 Y73.654 E9.87593
G1 X52.054 Y73.941 E9.88631
G1 X64.608 Y61.386 E10.52911
G1 X64.948 Y61.539 E10.54259
G1 X52.054 Y74.433 E11.20278
G1 X52.054 Y74.926 E11.22062
G1 X65.288 Y61.692 E11.89820
G1 X65.648 Y61.825 E11.91209
G1 X52.054 Y75.419 E12.60812
G1 X52.054 Y75.911 E12.62595
G1 X66.023 Y61.942 E13.34121
G1 X66.405 Y62.053 E13.35560
G1 X52.054 Y76.404 E14.09040
G1 X52.054 Y76.896 E14.10823
G1 X66.821 Y62.129 E14.86435
G1 X67.238 Y62.205 E14.87967
G1 X52.054 Y77.389 E15.65710
G1 X52.054 Y77.882 E15.67493
G1 X67.697 Y62.238 E16.47589
G1 X68.162 Y62.266 E16.49274
G1 X52.054 Y78.374 E17.31748
G1 X52.054 Y78.867 E17.33532
G1 X66.510 Y64.411 E18.07550
G1 X66.681 Y63.991 E18.09191
G1 X66.952 Y63.639 E18.10798
G1 X67.304 Y63.369 E18.12405
G1 X67.723 Y63.197 E18.14046
G1 X68.677 Y62.244 E18.18928
G1 X69.204 Y62.209 E18.20840
G1 X68.259 Y63.155 E18.25679
G1 X68.594 Y63.199 E18.26903
G1 X68.674 Y63.232 E18.27217
G1 X69.807 Y62.099 E18.33018
G1 X70.121 Y62.041 E18.34175
G1 X70.464 Y61.935 E18.35474
G1 X69.019 Y63.380 E18.42874
G1 X69.298 Y63.594 E18.44146
G1 X71.217 Y61.674 E18.53974
G1 X71.901 Y61.367 E18.56689
G1 X72.195 Y61.188 E18.57935
G1 X69.525 Y63.859 E18.71607
G1 X69.626 Y63.991 E18.72210
G1 X69.702 Y64.174 E18.72928
G1 X78.607 Y55.269 E19.18522
G1 X79.100 Y55.269 E19.20305
G1 X69.816 Y64.553 E19.67837
G1 X69.854 Y64.841 E19.68890
G1 X69.829 Y65.033 E19.69589
G1 X75.497 Y59.365 E19.98607
G1 X75.518 Y59.201 E19.99207
G1 X75.688 Y58.791 E20.00814
G1 X75.958 Y58.439 E20.02421
G1 X76.310 Y58.169 E20.04028
G1 X76.720 Y57.999 E20.05635
G1 X76.885 Y57.977 E20.06235
G1 X79.592 Y55.269 E20.20098
G1 X80.030 Y55.269 E20.21684
G1 X80.041 Y55.314 E20.21848
G1 X77.384 Y57.970 E20.35450
G1 X77.601 Y57.999 E20.36241
G1 X77.776 Y58.071 E20.36927
G1 X80.135 Y55.712 E20.49004
G1 X80.228 Y56.111 E20.50487
G1 X78.101 Y58.238 E20.61377
G1 X78.376 Y58.456 E20.62647
G1 X80.322 Y56.510 E20.72611
G1 X80.416 Y56.909 E20.74095
G1 X78.590 Y58.735 E20.83445
G1 X78.633 Y58.791 E20.83701
G1 X78.748 Y59.069 E20.84791
G1 X80.510 Y57.307 E20.93811
G1 X80.604 Y57.706 E20.95294
G1 X78.839 Y59.471 E21.04333
G1 X78.861 Y59.641 E21.04953
G1 X78.815 Y59.987 E21.06217
G1 X80.698 Y58.105 E21.15855
G1 X80.792 Y58.503 E21.17339
G1 X59.638 Y79.658 E22.25650
G1 X60.130 Y79.658 E22.27434
G1 X80.886 Y58.902 E23.33704
G1 X80.980 Y59.301 E23.35187
G1 X60.623 Y79.658 E24.39415
G1 X61.116 Y79.658 E24.41199
G1 X81.073 Y59.700 E25.43386
G1 X81.167 Y60.098 E25.44869
G1 X61.608 Y79.658 E26.45014
G1 X62.101 Y79.658 E26.46798
G1 X81.261 Y60.497 E27.44902
G1 X81.355 Y60.896 E27.46385
G1 X62.593 Y79.658 E28.42447
G1 X63.086 Y79.658 E28.44231
G1 X81.449 Y61.295 E29.38252
G1 X81.543 Y61.693 E29.39735
G1 X63.579 Y79.658 E30.31714
G1 X64.071 Y79.658 E30.33498
G1 X81.637 Y62.092 E31.23436
G1 X81.731 Y62.491 E31.24919
G1 X64.564 Y79.658 E32.12815
G1 X65.056 Y79.658 E32.14599
G1 X81.825 Y62.889 E33.00454
G1 X81.918 Y63.288 E33.01937
G1 X65.549 Y79.658 E33.85750
G1 X66.042 Y79.658 E33.87534
G1 X82.012 Y63.687 E34.69305
G1 X82.106 Y64.086 E34.70788
G1 X66.534 Y79.658 E35.50519
G1 X67.027 Y79.658 E35.52302
G1 X82.200 Y64.484 E36.29991
G1 X82.294 Y64.883 E36.31474
G1 X67.520 Y79.658 E37.07121
G1 X68.012 Y79.658 E37.08905
G1 X82.388 Y65.282 E37.82511
G1 X82.482 Y65.681 E37.83994
G1 X68.505 Y79.658 E38.55558
G1 X68.997 Y79.658 E38.57341
G1 X82.576 Y66.079 E39.26864
G1 X82.670 Y66.478 E39.28347
G1 X69.490 Y79.658 E39.95828
G1 X69.983 Y79.658 E39.97612
G1 X82.763 Y66.877 E40.63052
G1 X82.857 Y67.275 E40.64535
G1 X70.475 Y79.658 E41.27933
G1 X70.968 Y79.658 E41.29716
G1 X82.951 Y67.674 E41.91073
G1 X83.045 Y68.073 E41.92556
G1 X71.460 Y79.658 E42.51871
G1 X71.953 Y79.658 E42.53655
G1 X83.139 Y68.472 E43.10928
G1 X83.233 Y68.870 E43.12411
G1 X72.446 Y79.658 E43.67643
G1 X72.938 Y79.658 E43.69427
