; generated by Slic3r 1.3.0-dev on 2017-10-16 at 17:58:53

; Printer Config Notes: 
; ""
; 
; external perimeters extrusion width = 0.40mm (2.16mm^3/s)
; perimeters extrusion width = 0.40mm (3.90mm^3/s)
; infill extrusion width = 0.40mm (4.76mm^3/s)
; solid infill extrusion width = 0.40mm (4.76mm^3/s)
; top infill extrusion width = 0.40mm (3.46mm^3/s)

M107
M190 S75 ; set bed temperature and wait for it to be reached
M104 S235 ; set temperature
G28 ; home all axes
G1 Z5 F5000 ; lift nozzle


; Filament gcode

; Filament gcode

M109 S235 ; set temperature and wait for it to be reached
G21 ; set units to millimeters
G90 ; use absolute coordinates
M82 ; use absolute distances for extrusion
G92 E0
G1 E-2.50000 F3600.00000
G92 E0
G1 Z0.250 F9600.000
G1 X48.772 Y62.616 F9600.000
G1 E2.50000 F3600.00000
M204 S600
G1 F1200
G1 X49.507 Y62.076 E2.53286
G1 X50.161 Y61.658 E2.56080
G1 X50.960 Y61.217 E2.59366
G1 X51.663 Y60.886 E2.62160
G1 X52.511 Y60.551 E2.65446
G1 X53.250 Y60.313 E2.68240
G1 X54.135 Y60.089 E2.71526
G1 X54.898 Y59.948 E2.74319
G1 X55.805 Y59.840 E2.77606
G1 X91.095 Y57.911 E4.04835
G1 X91.820 Y57.900 E4.07447
G1 X92.818 Y57.928 E4.11040
G1 X127.320 Y59.806 E5.35428
G1 X128.613 Y59.948 E5.40111
G1 X129.377 Y60.089 E5.42906
G1 X130.261 Y60.313 E5.46191
G1 X131.000 Y60.551 E5.48986
G1 X131.849 Y60.886 E5.52271
G1 X132.552 Y61.217 E5.55066
G1 X133.351 Y61.658 E5.58351
G1 X134.005 Y62.076 E5.61146
G1 X134.717 Y62.600 E5.64329
G1 X135.335 Y63.115 E5.67226
G1 X135.996 Y63.745 E5.70511
G1 X136.522 Y64.316 E5.73306
G1 X137.096 Y65.025 E5.76591
G1 X137.544 Y65.659 E5.79386
G1 X138.023 Y66.437 E5.82674
G1 X138.386 Y67.122 E5.85464
G1 X138.761 Y67.954 E5.88751
G1 X139.033 Y68.681 E5.91546
G1 X139.298 Y69.555 E5.94832
G1 X139.475 Y70.310 E5.97626
G1 X139.626 Y71.211 E6.00911
G1 X139.704 Y71.983 E6.03706
G1 X139.738 Y72.895 E6.06991
G1 X139.717 Y73.671 E6.09786
G1 X139.634 Y74.580 E6.13072
G1 X139.513 Y75.346 E6.15863
G1 X139.314 Y76.237 E6.19152
G1 X139.096 Y76.982 E6.21945
G1 X138.784 Y77.840 E6.25232
G1 X138.473 Y78.551 E6.28026
G1 X138.053 Y79.362 E6.31312
G1 X137.653 Y80.027 E6.34106
G1 X137.133 Y80.777 E6.37392
G1 X136.651 Y81.385 E6.40186
G1 X136.039 Y82.063 E6.43472
G1 X135.483 Y82.604 E6.46265
G1 X134.789 Y83.197 E6.49552
G1 X134.168 Y83.663 E6.52346
G1 X133.404 Y84.162 E6.55632
G1 X132.728 Y84.544 E6.58427
G1 X131.906 Y84.941 E6.61712
G1 X131.187 Y85.233 E6.64506
G1 X130.266 Y85.540 E6.68003
G1 X97.183 Y96.206 E7.93135
G1 X96.719 Y96.332 E7.94866
G1 X95.487 Y96.615 E7.99416
G1 X94.995 Y96.703 E8.01213
G1 X93.761 Y96.871 E8.05698
G1 X93.245 Y96.916 E8.07561
G1 X92.053 Y96.970 E8.11857
G1 X91.492 Y96.972 E8.13875
G1 X90.267 Y96.916 E8.18293
G1 X89.751 Y96.871 E8.20156
G1 X88.517 Y96.703 E8.24640
G1 X88.026 Y96.615 E8.26436
G1 X86.793 Y96.332 E8.30987
G1 X86.330 Y96.206 E8.32718
G1 X52.325 Y85.233 E9.61347
G1 X51.605 Y84.941 E9.64141
G1 X50.784 Y84.544 E9.67427
G1 X50.108 Y84.162 E9.70221
G1 X49.344 Y83.663 E9.73507
G1 X48.723 Y83.197 E9.76301
G1 X48.029 Y82.604 E9.79587
G1 X47.473 Y82.063 E9.82381
G1 X46.861 Y81.385 E9.85667
G1 X46.379 Y80.777 E9.88461
G1 X45.859 Y80.027 E9.91747
G1 X45.459 Y79.362 E9.94541
G1 X45.039 Y78.551 E9.97827
G1 X44.728 Y77.840 E10.00621
G1 X44.416 Y76.982 E10.03907
G1 X44.198 Y76.237 E10.06701
G1 X43.999 Y75.347 E10.09987
G1 X43.878 Y74.580 E10.12782
G1 X43.795 Y73.671 E10.16067
G1 X43.774 Y72.895 E10.18861
G1 X43.808 Y71.983 E10.22148
G1 X43.886 Y71.211 E10.24942
G1 X44.037 Y70.310 E10.28228
G1 X44.214 Y69.555 E10.31022
G1 X44.479 Y68.681 E10.34307
G1 X44.751 Y67.954 E10.37102
G1 X45.126 Y67.122 E10.40388
G1 X45.489 Y66.436 E10.43182
G1 X45.968 Y65.659 E10.46467
G1 X46.416 Y65.025 E10.49262
G1 X46.990 Y64.316 E10.52547
G1 X47.516 Y63.745 E10.55342
G1 X48.177 Y63.115 E10.58628
G1 X48.726 Y62.655 E10.61206
M204 S800
G1 X48.977 Y62.896 F9600.000
M204 S600
G1 F1200
G1 X49.712 Y62.355 E10.64492
G1 X50.329 Y61.961 E10.67126
G1 X51.128 Y61.520 E10.70412
G1 X51.790 Y61.208 E10.73046
G1 X52.639 Y60.873 E10.76331
G1 X53.335 Y60.649 E10.78965
G1 X54.220 Y60.425 E10.82251
G1 X54.939 Y60.292 E10.84884
G1 X55.846 Y60.184 E10.88171
G1 X91.104 Y58.257 E12.15286
G1 X91.817 Y58.246 E12.17851
G1 X92.799 Y58.274 E12.21389
G1 X127.301 Y60.152 E13.45777
G1 X128.572 Y60.292 E13.50380
G1 X129.292 Y60.425 E13.53014
G1 X130.177 Y60.649 E13.56300
G1 X130.873 Y60.873 E13.58934
G1 X131.722 Y61.208 E13.62220
G1 X132.384 Y61.520 E13.64854
G1 X133.183 Y61.961 E13.68139
G1 X133.800 Y62.355 E13.70774
G1 X134.512 Y62.879 E13.73957
G1 X135.096 Y63.366 E13.76693
G1 X135.757 Y63.996 E13.79979
G1 X136.252 Y64.534 E13.82613
G1 X136.826 Y65.243 E13.85899
G1 X137.249 Y65.840 E13.88533
G1 X137.728 Y66.618 E13.91821
G1 X138.070 Y67.264 E13.94451
G1 X138.445 Y68.096 E13.97738
G1 X138.702 Y68.782 E14.00373
G1 X138.967 Y69.655 E14.03658
G1 X139.134 Y70.368 E14.06292
G1 X139.284 Y71.268 E14.09578
G1 X139.358 Y71.996 E14.12212
G1 X139.392 Y72.908 E14.15497
G1 X139.372 Y73.639 E14.18132
G1 X139.289 Y74.548 E14.21418
G1 X139.175 Y75.270 E14.24048
G1 X138.976 Y76.162 E14.27337
G1 X138.771 Y76.864 E14.29970
G1 X138.459 Y77.722 E14.33257
G1 X138.165 Y78.392 E14.35891
G1 X137.746 Y79.203 E14.39177
G1 X137.368 Y79.830 E14.41811
G1 X136.848 Y80.580 E14.45097
G1 X136.394 Y81.153 E14.47731
G1 X135.782 Y81.830 E14.51016
G1 X135.258 Y82.340 E14.53649
G1 X134.564 Y82.934 E14.56936
G1 X133.979 Y83.373 E14.59569
G1 X133.214 Y83.872 E14.62856
G1 X132.577 Y84.232 E14.65490
G1 X131.756 Y84.629 E14.68776
G1 X131.078 Y84.905 E14.71410
G1 X130.159 Y85.210 E14.74894
G1 X97.078 Y95.876 E16.00018
G1 X96.641 Y95.995 E16.01650
G1 X95.412 Y96.277 E16.06191
G1 X94.948 Y96.360 E16.07885
G1 X93.716 Y96.528 E16.12363
G1 X93.230 Y96.570 E16.14119
G1 X92.004 Y96.626 E16.18535
G1 X91.483 Y96.625 E16.20412
G1 X90.282 Y96.570 E16.24739
G1 X89.796 Y96.528 E16.26495
G1 X88.564 Y96.360 E16.30974
G1 X88.101 Y96.277 E16.32666
G1 X86.871 Y95.995 E16.37208
G1 X86.434 Y95.876 E16.38839
G1 X53.300 Y85.193 E17.64163
G1 X52.434 Y84.905 E17.67448
G1 X51.756 Y84.629 E17.70083
G1 X50.934 Y84.232 E17.73368
G1 X50.297 Y83.872 E17.76002
G1 X49.533 Y83.373 E17.79288
G1 X48.948 Y82.934 E17.81922
G1 X48.254 Y82.341 E17.85208
G1 X47.730 Y81.830 E17.87842
G1 X47.118 Y81.153 E17.91127
G1 X46.663 Y80.580 E17.93762
G1 X46.144 Y79.830 E17.97048
G1 X45.766 Y79.203 E17.99682
G1 X45.347 Y78.392 E18.02967
G1 X45.053 Y77.722 E18.05601
G1 X44.741 Y76.864 E18.08887
G1 X44.536 Y76.162 E18.11521
G1 X44.337 Y75.271 E18.14806
G1 X44.223 Y74.548 E18.17441
G1 X44.140 Y73.639 E18.20727
G1 X44.120 Y72.908 E18.23361
G1 X44.154 Y71.995 E18.26647
G1 X44.228 Y71.268 E18.29281
G1 X44.378 Y70.367 E18.32567
G1 X44.545 Y69.655 E18.35200
G1 X44.810 Y68.782 E18.38486
G1 X45.067 Y68.097 E18.41120
G1 X45.442 Y67.264 E18.44406
G1 X45.784 Y66.618 E18.47040
G1 X46.263 Y65.840 E18.50325
G1 X46.685 Y65.243 E18.52960
G1 X47.259 Y64.534 E18.56245
G1 X47.755 Y63.996 E18.58879
G1 X48.416 Y63.365 E18.62165
G1 X48.931 Y62.934 E18.64583
M204 S800
G1 X49.182 Y63.175 F9600.000
M204 S600
G1 F1200
G1 X49.917 Y62.635 E18.67869
G1 X50.496 Y62.264 E18.70343
G1 X51.295 Y61.823 E18.73629
G1 X51.917 Y61.530 E18.76102
G1 X52.766 Y61.195 E18.79388
G1 X53.420 Y60.984 E18.81862
G1 X54.305 Y60.761 E18.85148
G1 X54.980 Y60.636 E18.87620
G1 X55.887 Y60.528 E18.90907
G1 X91.114 Y58.603 E20.17908
G1 X91.813 Y58.592 E20.20426
G1 X92.780 Y58.620 E20.23910
G1 X127.282 Y60.498 E21.48298
G1 X128.531 Y60.636 E21.52820
G1 X129.207 Y60.761 E21.55294
G1 X130.092 Y60.984 E21.58580
G1 X130.746 Y61.195 E21.61054
G1 X131.595 Y61.530 E21.64340
G1 X132.217 Y61.823 E21.66813
G1 X133.016 Y62.264 E21.70099
G1 X133.595 Y62.635 E21.72573
G1 X134.307 Y63.158 E21.75756
G1 X134.857 Y63.616 E21.78332
G1 X135.517 Y64.246 E21.81618
G1 X135.983 Y64.752 E21.84092
G1 X136.557 Y65.461 E21.87377
G1 X136.954 Y66.022 E21.89851
G1 X137.433 Y66.800 E21.93139
G1 X137.754 Y67.406 E21.95609
G1 X138.129 Y68.239 E21.98896
G1 X138.370 Y68.882 E22.01371
G1 X138.635 Y69.756 E22.04656
G1 X138.792 Y70.425 E22.07130
G1 X138.943 Y71.325 E22.10415
G1 X139.012 Y72.009 E22.12889
G1 X139.046 Y72.921 E22.16175
G1 X139.027 Y73.608 E22.18649
G1 X138.944 Y74.517 E22.21935
G1 X138.837 Y75.195 E22.24405
G1 X138.638 Y76.086 E22.27694
G1 X138.445 Y76.745 E22.30166
G1 X138.133 Y77.603 E22.33454
G1 X137.857 Y78.233 E22.35927
G1 X137.438 Y79.043 E22.39213
G1 X137.084 Y79.632 E22.41687
G1 X136.564 Y80.382 E22.44973
G1 X136.137 Y80.921 E22.47446
G1 X135.525 Y81.598 E22.50732
G1 X135.033 Y82.077 E22.53204
G1 X134.339 Y82.671 E22.56492
G1 X133.789 Y83.083 E22.58965
G1 X133.025 Y83.582 E22.62251
G1 X132.427 Y83.920 E22.64725
G1 X131.605 Y84.318 E22.68011
G1 X130.968 Y84.576 E22.70484
G1 X130.053 Y84.881 E22.73957
G1 X96.974 Y95.546 E23.99072
G1 X96.563 Y95.657 E24.00605
G1 X95.337 Y95.939 E24.05136
G1 X94.902 Y96.017 E24.06727
G1 X93.670 Y96.184 E24.11200
G1 X93.214 Y96.224 E24.12849
G1 X91.989 Y96.280 E24.17263
G1 X91.490 Y96.278 E24.19060
G1 X90.298 Y96.224 E24.23356
G1 X89.841 Y96.184 E24.25006
G1 X88.610 Y96.017 E24.29478
G1 X88.176 Y95.939 E24.31068
G1 X86.948 Y95.657 E24.35601
G1 X86.538 Y95.546 E24.37132
G1 X53.410 Y84.865 E25.62435
G1 X52.544 Y84.576 E25.65721
G1 X51.907 Y84.318 E25.68195
G1 X51.085 Y83.920 E25.71481
G1 X50.487 Y83.582 E25.73955
G1 X49.723 Y83.083 E25.77240
G1 X49.173 Y82.671 E25.79714
G1 X48.479 Y82.078 E25.82999
G1 X47.987 Y81.598 E25.85474
G1 X47.375 Y80.921 E25.88759
G1 X46.948 Y80.382 E25.91233
G1 X46.428 Y79.632 E25.94519
G1 X46.074 Y79.043 E25.96993
G1 X45.655 Y78.233 E26.00278
G1 X45.379 Y77.603 E26.02752
G1 X45.067 Y76.746 E26.06038
G1 X44.874 Y76.086 E26.08512
G1 X44.675 Y75.195 E26.11797
G1 X44.568 Y74.516 E26.14271
G1 X44.485 Y73.608 E26.17557
G1 X44.466 Y72.921 E26.20031
G1 X44.500 Y72.008 E26.23317
G1 X44.569 Y71.325 E26.25790
G1 X44.720 Y70.425 E26.29076
G1 X44.877 Y69.756 E26.31550
G1 X45.141 Y68.882 E26.34835
G1 X45.383 Y68.239 E26.37309
G1 X45.757 Y67.406 E26.40595
G1 X46.079 Y66.799 E26.43069
G1 X46.558 Y66.022 E26.46354
G1 X46.955 Y65.461 E26.48828
G1 X47.529 Y64.752 E26.52114
G1 X47.994 Y64.246 E26.54588
G1 X48.655 Y63.616 E26.57874
G1 X49.136 Y63.213 E26.60131
M204 S800
G1 E24.10131 F3600.00000
G92 E0
G1 X92.806 Y87.431 F9600.000
G1 E2.50000 F3600.00000
M204 S600
G1 F1200
G1 X91.756 Y87.486 E2.53786
G1 X90.706 Y87.431 E2.57572
G1 X89.667 Y87.266 E2.61357
G1 X88.651 Y86.994 E2.65143
G1 X87.669 Y86.617 E2.68929
G1 X86.732 Y86.140 E2.72715
G1 X85.868 Y85.578 E2.76424
G1 X85.034 Y84.905 E2.80284
G1 X84.289 Y84.161 E2.84072
G1 X83.628 Y83.344 E2.87858
G1 X83.055 Y82.462 E2.91644
G1 X82.577 Y81.525 E2.95429
G1 X82.201 Y80.543 E2.99215
G1 X81.928 Y79.527 E3.03001
G1 X81.764 Y78.489 E3.06787
G1 X81.709 Y77.438 E3.10573
G1 X81.764 Y76.388 E3.14358
G1 X81.928 Y75.350 E3.18144
G1 X82.201 Y74.334 E3.21930
G1 X82.570 Y73.372 E3.25639
G1 X83.055 Y72.415 E3.29499
G1 X83.628 Y71.533 E3.33287
G1 X84.289 Y70.716 E3.37073
G1 X85.033 Y69.972 E3.40859
G1 X85.850 Y69.310 E3.44645
G1 X86.732 Y68.737 E3.48430
G1 X87.669 Y68.260 E3.52216
G1 X88.651 Y67.883 E3.56002
G1 X89.667 Y67.611 E3.59788
G1 X90.706 Y67.446 E3.63574
G1 X91.735 Y67.393 E3.67283
G1 X92.806 Y67.446 E3.71143
G1 X93.845 Y67.611 E3.74931
G1 X94.861 Y67.883 E3.78717
G1 X95.842 Y68.260 E3.82502
G1 X96.779 Y68.737 E3.86288
G1 X97.661 Y69.310 E3.90074
G1 X98.479 Y69.972 E3.93860
G1 X99.222 Y70.716 E3.97646
G1 X99.884 Y71.533 E4.01431
G1 X100.457 Y72.415 E4.05217
G1 X100.934 Y73.352 E4.09003
G1 X101.311 Y74.334 E4.12789
G1 X101.583 Y75.350 E4.16575
G1 X101.748 Y76.388 E4.20361
G1 X101.803 Y77.438 E4.24146
G1 X101.748 Y78.489 E4.27932
G1 X101.583 Y79.527 E4.31718
G1 X101.311 Y80.543 E4.35504
G1 X100.934 Y81.525 E4.39290
G1 X100.457 Y82.462 E4.43075
G1 X99.884 Y83.344 E4.46861
G1 X99.222 Y84.161 E4.50647
G1 X98.479 Y84.905 E4.54433
G1 X97.661 Y85.567 E4.58219
G1 X96.779 Y86.140 E4.62004
G1 X95.842 Y86.617 E4.65790
G1 X94.861 Y86.994 E4.69576
G1 X93.845 Y87.266 E4.73362
G1 X92.865 Y87.421 E4.76932
M204 S800
G1 X92.770 Y87.086 F9600.000
M204 S600
G1 F1200
G1 X91.756 Y87.139 E4.80587
G1 X90.742 Y87.086 E4.84242
G1 X89.739 Y86.927 E4.87897
G1 X88.758 Y86.664 E4.91552
G1 X87.810 Y86.300 E4.95207
G1 X86.906 Y85.839 E4.98863
G1 X86.072 Y85.298 E5.02442
G1 X85.265 Y84.647 E5.06172
G1 X84.547 Y83.929 E5.09828
G1 X83.908 Y83.140 E5.13483
G1 X83.355 Y82.289 E5.17138
G1 X82.894 Y81.384 E5.20793
G1 X82.530 Y80.436 E5.24448
G1 X82.268 Y79.455 E5.28103
G1 X82.109 Y78.452 E5.31758
G1 X82.056 Y77.438 E5.35413
G1 X82.109 Y76.425 E5.39069
G1 X82.268 Y75.422 E5.42724
G1 X82.530 Y74.441 E5.46379
G1 X82.887 Y73.513 E5.49959
G1 X83.355 Y72.589 E5.53688
G1 X83.908 Y71.737 E5.57344
G1 X84.547 Y70.948 E5.60999
G1 X85.265 Y70.230 E5.64654
G1 X86.054 Y69.591 E5.68309
G1 X86.906 Y69.038 E5.71964
G1 X87.810 Y68.577 E5.75619
G1 X88.758 Y68.213 E5.79275
G1 X89.739 Y67.950 E5.82930
G1 X90.742 Y67.791 E5.86585
G1 X91.735 Y67.739 E5.90165
G1 X92.770 Y67.791 E5.93894
G1 X93.773 Y67.950 E5.97550
G1 X94.753 Y68.213 E6.01205
G1 X95.701 Y68.577 E6.04860
G1 X96.606 Y69.038 E6.08515
G1 X97.458 Y69.591 E6.12170
G1 X98.247 Y70.230 E6.15826
G1 X98.965 Y70.948 E6.19481
G1 X99.604 Y71.737 E6.23136
G1 X100.157 Y72.588 E6.26791
G1 X100.618 Y73.493 E6.30446
G1 X100.981 Y74.441 E6.34101
G1 X101.244 Y75.422 E6.37756
G1 X101.403 Y76.425 E6.41411
G1 X101.456 Y77.438 E6.45067
G1 X101.403 Y78.452 E6.48722
G1 X101.244 Y79.455 E6.52377
G1 X100.981 Y80.436 E6.56032
G1 X100.618 Y81.384 E6.59687
G1 X100.157 Y82.289 E6.63342
G1 X99.604 Y83.140 E6.66997
G1 X98.965 Y83.929 E6.70652
G1 X98.247 Y84.647 E6.74308
G1 X97.458 Y85.286 E6.77963
G1 X96.606 Y85.839 E6.81618
G1 X95.701 Y86.300 E6.85273
G1 X94.753 Y86.664 E6.88928
G1 X93.773 Y86.927 E6.92583
G1 X92.829 Y87.076 E6.96022
M204 S800
G1 X92.770 Y87.086 F9600.000
G1 E4.46022 F3600.00000
G92 E0
G1 X59.167 Y73.612 F9600.000
G1 E2.50000 F3600.00000
M204 S600
G1 F1200
G1 X58.902 Y74.252 E2.52491
G1 X58.481 Y74.801 E2.54983
G1 X57.931 Y75.222 E2.57474
G1 X57.292 Y75.487 E2.59965
G1 X56.606 Y75.577 E2.62457
G1 X55.920 Y75.487 E2.64948
G1 X55.280 Y75.222 E2.67440
G1 X54.731 Y74.801 E2.69931
G1 X54.310 Y74.252 E2.72422
G1 X54.044 Y73.610 E2.74921
G1 X53.957 Y72.907 E2.77472
G1 X54.045 Y72.240 E2.79894
G1 X54.310 Y71.601 E2.82386
G1 X54.731 Y71.051 E2.84877
G1 X55.282 Y70.629 E2.87376
G1 X55.939 Y70.363 E2.89927
G1 X56.606 Y70.275 E2.92349
G1 X57.292 Y70.365 E2.94840
G1 X57.931 Y70.630 E2.97332
G1 X58.481 Y71.051 E2.99823
G1 X58.902 Y71.601 E3.02315
G1 X59.167 Y72.240 E3.04806
G1 X59.257 Y72.926 E3.07297
G1 X59.175 Y73.553 E3.09573
M204 S800
G1 X58.829 Y73.522 F9600.000
M204 S600
G1 F1200
G1 X58.599 Y74.077 E3.11736
G1 X58.234 Y74.554 E3.13899
G1 X57.757 Y74.919 E3.16062
G1 X57.202 Y75.149 E3.18225
G1 X56.606 Y75.228 E3.20388
G1 X56.010 Y75.149 E3.22551
G1 X55.455 Y74.919 E3.24714
G1 X54.978 Y74.554 E3.26877
G1 X54.613 Y74.077 E3.29040
G1 X54.382 Y73.521 E3.31206
G1 X54.307 Y72.908 E3.33429
G1 X54.383 Y72.330 E3.35527
G1 X54.613 Y71.775 E3.37690
G1 X54.978 Y71.299 E3.39854
G1 X55.456 Y70.932 E3.42019
G1 X56.028 Y70.700 E3.44242
G1 X56.606 Y70.624 E3.46341
G1 X57.202 Y70.703 E3.48504
G1 X57.757 Y70.933 E3.50667
G1 X58.234 Y71.299 E3.52830
G1 X58.599 Y71.775 E3.54993
G1 X58.829 Y72.330 E3.57156
G1 X58.908 Y72.926 E3.59319
G1 X58.837 Y73.462 E3.61266
M204 S800
G1 X58.829 Y73.522 F9600.000
G1 E1.11266 F3600.00000
G92 E0
G1 X123.955 Y72.926 F9600.000
G1 E2.50000 F3600.00000
M204 S600
G1 F1200
G1 X124.045 Y72.240 E2.52491
G1 X124.310 Y71.601 E2.54983
G1 X124.731 Y71.051 E2.57474
G1 X125.282 Y70.629 E2.59973
G1 X125.939 Y70.363 E2.62524
G1 X126.606 Y70.275 E2.64946
G1 X127.292 Y70.365 E2.67437
G1 X127.931 Y70.630 E2.69929
G1 X128.481 Y71.051 E2.72420
G1 X128.902 Y71.601 E2.74912
G1 X129.167 Y72.240 E2.77403
G1 X129.257 Y72.926 E2.79894
G1 X129.167 Y73.612 E2.82386
G1 X128.902 Y74.252 E2.84877
G1 X128.481 Y74.801 E2.87368
G1 X127.931 Y75.222 E2.89860
G1 X127.292 Y75.487 E2.92351
G1 X126.606 Y75.577 E2.94842
G1 X125.920 Y75.487 E2.97334
G1 X125.280 Y75.222 E2.99825
G1 X124.731 Y74.801 E3.02317
G1 X124.310 Y74.252 E3.04808
