; generated by Slic3r 1.3.0-dev on 2017-10-16 at 17:34:15

; Printer Config Notes: 
; ""
; 
; external perimeters extrusion width = 0.40mm (2.16mm^3/s)
; perimeters extrusion width = 0.40mm (3.90mm^3/s)
; infill extrusion width = 0.40mm (4.76mm^3/s)
; solid infill extrusion width = 0.40mm (4.76mm^3/s)
; top infill extrusion width = 0.40mm (3.46mm^3/s)

M107
M190 S75 ; set bed temperature and wait for it to be reached
M104 S235 ; set temperature
G28 ; home all axes
G1 Z5 F5000 ; lift nozzle


; Filament gcode

; Filament gcode

M109 S235 ; set temperature and wait for it to be reached
G21 ; set units to millimeters
G90 ; use absolute coordinates
M82 ; use absolute distances for extrusion
G92 E0
G1 E-2.50000 F3600.00000
G92 E0
G1 Z0.250 F9600.000
G1 X33.569 Y42.560 F9600.000
G1 E2.50000 F3600.00000
M204 S600
G1 F1200
G1 X36.343 Y41.884 E2.60280
G1 X120.843 Y41.884 E5.64470
G1 X122.996 Y42.281 E5.72350
G1 X124.866 Y43.419 E5.80230
G1 X126.207 Y45.149 E5.88110
G1 X126.882 Y47.923 E5.98390
G1 X126.882 Y49.341 E6.03494
G1 X126.525 Y51.388 E6.10972
G1 X108.910 Y100.295 E7.98103
G1 X107.808 Y102.186 E8.05983
G1 X106.103 Y103.559 E8.13863
G1 X103.229 Y104.287 E8.24539
G1 X53.958 Y104.287 E10.01906
G1 X51.806 Y103.891 E10.09786
G1 X49.936 Y102.753 E10.17666
G1 X48.276 Y100.295 E10.28342
G1 X30.662 Y51.388 E12.15473
G1 X30.304 Y49.341 E12.22951
G1 X30.304 Y47.923 E12.28055
G1 X30.701 Y45.771 E12.35935
G1 X31.839 Y43.901 E12.43815
G1 X33.521 Y42.596 E12.51479
M204 S800
G1 X33.895 Y42.784 F9600.000
M204 S600
G1 F1200
G1 X36.343 Y42.231 E12.60513
G1 X120.843 Y42.231 E15.64704
G1 X122.931 Y42.627 E15.72352
G1 X124.727 Y43.761 E15.80001
G1 X125.983 Y45.475 E15.87649
G1 X126.536 Y47.923 E15.96684
G1 X126.536 Y49.341 E16.01788
G1 X126.199 Y51.270 E16.08837
G1 X108.584 Y100.177 E17.95969
G1 X107.504 Y102.007 E18.03617
G1 X105.828 Y103.313 E18.11266
G1 X103.229 Y103.941 E18.20894
G1 X53.958 Y103.941 E19.98261
G1 X51.871 Y103.545 E20.05910
G1 X50.074 Y102.410 E20.13558
G1 X48.602 Y100.177 E20.23186
G1 X30.987 Y51.270 E22.10317
G1 X30.651 Y49.341 E22.17367
G1 X30.651 Y47.923 E22.22471
G1 X31.047 Y45.836 E22.30119
G1 X32.181 Y44.040 E22.37768
G1 X33.847 Y42.819 E22.45200
M204 S800
G1 X34.220 Y43.017 F9600.000
M204 S600
G1 F1200
G1 X36.343 Y42.577 E22.53008
G1 X120.843 Y42.577 E25.57198
G1 X122.863 Y42.973 E25.64608
G1 X124.584 Y44.103 E25.72018
G1 X125.750 Y45.800 E25.79428
G1 X126.190 Y47.923 E25.87236
G1 X126.190 Y49.341 E25.92340
G1 X125.873 Y51.153 E25.98960
G1 X108.259 Y100.060 E27.86092
G1 X107.201 Y101.826 E27.93502
G1 X105.555 Y103.062 E28.00912
G1 X103.229 Y103.595 E28.09504
G1 X53.958 Y103.595 E29.86871
G1 X51.938 Y103.199 E29.94282
G1 X50.218 Y102.069 E30.01692
G1 X48.928 Y100.060 E30.10284
G1 X31.313 Y51.153 E31.97415
G1 X30.997 Y49.341 E32.04036
G1 X30.997 Y47.923 E32.09140
G1 X31.393 Y45.904 E32.16550
G1 X32.523 Y44.183 E32.23960
G1 X34.170 Y43.051 E32.31154
M204 S800
G1 E29.81154 F3600.00000
G92 E0
G1 X55.922 Y95.670 F9600.000
G1 E2.50000 F3600.00000
M204 S600
G1 F1200
G1 X101.265 Y95.670 E4.13229
G1 X101.265 Y48.470 E5.83143
G1 X120.297 Y48.470 E6.51657
G1 X120.297 Y49.246 E6.54451
G1 X102.845 Y97.702 E8.39857
G1 X54.342 Y97.702 E10.14460
G1 X36.890 Y49.246 E11.99866
G1 X36.890 Y48.470 E12.02660
G1 X55.922 Y48.470 E12.71174
G1 X55.922 Y95.610 E14.40873
M204 S800
G1 X56.268 Y95.323 F9600.000
M204 S600
G1 F1200
G1 X100.918 Y95.323 E16.01608
G1 X100.918 Y48.123 E17.71522
G1 X120.643 Y48.123 E18.42530
G1 X120.643 Y49.306 E18.46788
G1 X103.088 Y98.048 E20.33288
G1 X54.099 Y98.048 E22.09644
G1 X36.543 Y49.306 E23.96144
G1 X36.543 Y48.123 E24.00402
G1 X56.268 Y48.123 E24.71410
G1 X56.268 Y95.263 E26.41108
M204 S800
G1 X56.321 Y95.720 F9600.000
G1 E23.91108 F3600.00000
G92 E0
G1 X100.109 Y97.393 F9600.000
G1 E2.50000 F3600.00000
M204 S600
G1 F1200
G1 X101.523 Y95.979 E2.57211
G1 X101.032 Y95.979 E2.58983
G1 X99.619 Y97.393 E2.66194
G1 X99.128 Y97.393 E2.67965
G1 X100.541 Y95.979 E2.75177
G1 X100.050 Y95.979 E2.76948
G1 X98.637 Y97.393 E2.84159
G1 X98.146 Y97.393 E2.85931
G1 X99.559 Y95.979 E2.93142
G1 X99.068 Y95.979 E2.94914
G1 X97.655 Y97.393 E3.02125
G1 X97.164 Y97.393 E3.03896
G1 X98.577 Y95.979 E3.11108
G1 X98.086 Y95.979 E3.12879
G1 X96.673 Y97.393 E3.20090
G1 X96.182 Y97.393 E3.21862
G1 X97.595 Y95.979 E3.29073
G1 X97.104 Y95.979 E3.30845
G1 X95.691 Y97.393 E3.38056
G1 X95.200 Y97.393 E3.39827
G1 X96.613 Y95.979 E3.47039
G1 X96.122 Y95.979 E3.48810
G1 X94.709 Y97.393 E3.56021
G1 X94.218 Y97.393 E3.57793
G1 X95.631 Y95.979 E3.65004
G1 X95.140 Y95.979 E3.66776
G1 X93.727 Y97.393 E3.73987
G1 X93.236 Y97.393 E3.75758
G1 X94.649 Y95.979 E3.82970
G1 X94.158 Y95.979 E3.84741
G1 X92.745 Y97.393 E3.91952
G1 X92.254 Y97.393 E3.93724
G1 X93.667 Y95.979 E4.00935
G1 X93.176 Y95.979 E4.02707
G1 X91.763 Y97.393 E4.09918
G1 X91.272 Y97.393 E4.11689
G1 X92.685 Y95.979 E4.18901
G1 X92.194 Y95.979 E4.20672
G1 X90.781 Y97.393 E4.27883
G1 X90.290 Y97.393 E4.29655
G1 X91.703 Y95.979 E4.36866
G1 X91.212 Y95.979 E4.38638
G1 X89.799 Y97.393 E4.45849
G1 X89.308 Y97.393 E4.47620
G1 X90.721 Y95.979 E4.54832
G1 X90.230 Y95.979 E4.56603
G1 X88.817 Y97.393 E4.63814
G1 X88.326 Y97.393 E4.65586
G1 X89.739 Y95.979 E4.72797
G1 X89.248 Y95.979 E4.74569
G1 X87.835 Y97.393 E4.81780
G1 X87.344 Y97.393 E4.83551
G1 X88.757 Y95.979 E4.90763
G1 X88.267 Y95.979 E4.92534
G1 X86.853 Y97.393 E4.99745
G1 X86.362 Y97.393 E5.01517
G1 X87.776 Y95.979 E5.08728
G1 X87.285 Y95.979 E5.10500
G1 X85.871 Y97.393 E5.17711
G1 X85.380 Y97.393 E5.19482
G1 X86.794 Y95.979 E5.26693
G1 X86.303 Y95.979 E5.28465
G1 X84.890 Y97.393 E5.35676
G1 X84.399 Y97.393 E5.37448
G1 X85.812 Y95.979 E5.44659
G1 X85.321 Y95.979 E5.46431
G1 X83.908 Y97.393 E5.53642
G1 X83.417 Y97.393 E5.55413
G1 X84.830 Y95.979 E5.62624
G1 X84.339 Y95.979 E5.64396
G1 X82.926 Y97.393 E5.71607
G1 X82.435 Y97.393 E5.73379
G1 X83.848 Y95.979 E5.80590
G1 X83.357 Y95.979 E5.82362
G1 X81.944 Y97.393 E5.89573
G1 X81.453 Y97.393 E5.91344
G1 X82.866 Y95.979 E5.98555
G1 X82.375 Y95.979 E6.00327
G1 X80.962 Y97.393 E6.07538
G1 X80.471 Y97.393 E6.09310
G1 X81.884 Y95.979 E6.16521
G1 X81.393 Y95.979 E6.18292
G1 X79.980 Y97.393 E6.25504
G1 X79.489 Y97.393 E6.27275
G1 X80.902 Y95.979 E6.34486
G1 X80.411 Y95.979 E6.36258
G1 X78.998 Y97.393 E6.43469
G1 X78.507 Y97.393 E6.45241
G1 X79.920 Y95.979 E6.52452
G1 X79.429 Y95.979 E6.54223
G1 X78.016 Y97.393 E6.61435
G1 X77.525 Y97.393 E6.63206
G1 X78.938 Y95.979 E6.70417
G1 X78.447 Y95.979 E6.72189
G1 X77.034 Y97.393 E6.79400
G1 X76.543 Y97.393 E6.81172
G1 X77.956 Y95.979 E6.88383
G1 X77.465 Y95.979 E6.90154
G1 X76.052 Y97.393 E6.97366
G1 X75.561 Y97.393 E6.99137
G1 X76.974 Y95.979 E7.06348
G1 X76.483 Y95.979 E7.08120
G1 X75.070 Y97.393 E7.15331
G1 X74.579 Y97.393 E7.17103
G1 X75.992 Y95.979 E7.24314
G1 X75.501 Y95.979 E7.26085
G1 X74.088 Y97.393 E7.33297
G1 X73.597 Y97.393 E7.35068
G1 X75.010 Y95.979 E7.42279
G1 X74.519 Y95.979 E7.44051
G1 X73.106 Y97.393 E7.51262
G1 X72.615 Y97.393 E7.53034
G1 X74.028 Y95.979 E7.60245
G1 X73.537 Y95.979 E7.62016
G1 X72.124 Y97.393 E7.69228
G1 X71.633 Y97.393 E7.70999
G1 X73.047 Y95.979 E7.78210
G1 X72.556 Y95.979 E7.79982
G1 X71.142 Y97.393 E7.87193
G1 X70.651 Y97.393 E7.88965
G1 X72.065 Y95.979 E7.96176
G1 X71.574 Y95.979 E7.97947
G1 X70.161 Y97.393 E8.05159
G1 X69.670 Y97.393 E8.06930
G1 X71.083 Y95.979 E8.14141
G1 X70.592 Y95.979 E8.15913
G1 X69.179 Y97.393 E8.23124
G1 X68.688 Y97.393 E8.24896
G1 X70.101 Y95.979 E8.32107
G1 X69.610 Y95.979 E8.33878
G1 X68.197 Y97.393 E8.41089
G1 X67.706 Y97.393 E8.42861
G1 X69.119 Y95.979 E8.50072
G1 X68.628 Y95.979 E8.51844
G1 X67.215 Y97.393 E8.59055
G1 X66.724 Y97.393 E8.60827
G1 X68.137 Y95.979 E8.68038
G1 X67.646 Y95.979 E8.69809
G1 X66.233 Y97.393 E8.77020
G1 X65.742 Y97.393 E8.78792
G1 X67.155 Y95.979 E8.86003
G1 X66.664 Y95.979 E8.87775
G1 X65.251 Y97.393 E8.94986
G1 X64.760 Y97.393 E8.96757
G1 X66.173 Y95.979 E9.03969
G1 X65.682 Y95.979 E9.05740
G1 X64.269 Y97.393 E9.12951
G1 X63.778 Y97.393 E9.14723
G1 X65.191 Y95.979 E9.21934
G1 X64.700 Y95.979 E9.23706
G1 X63.287 Y97.393 E9.30917
G1 X62.796 Y97.393 E9.32688
G1 X64.209 Y95.979 E9.39900
G1 X63.718 Y95.979 E9.41671
G1 X62.305 Y97.393 E9.48882
G1 X61.814 Y97.393 E9.50654
G1 X63.227 Y95.979 E9.57865
G1 X62.736 Y95.979 E9.59637
G1 X61.323 Y97.393 E9.66848
G1 X60.832 Y97.393 E9.68619
G1 X62.245 Y95.979 E9.75831
G1 X61.754 Y95.979 E9.77602
G1 X60.341 Y97.393 E9.84813
G1 X59.850 Y97.393 E9.86585
G1 X61.263 Y95.979 E9.93796
G1 X60.772 Y95.979 E9.95568
G1 X59.359 Y97.393 E10.02779
G1 X58.868 Y97.393 E10.04550
G1 X60.281 Y95.979 E10.11762
G1 X59.790 Y95.979 E10.13533
G1 X58.377 Y97.393 E10.20744
G1 X57.886 Y97.393 E10.22516
G1 X59.299 Y95.979 E10.29727
G1 X58.808 Y95.979 E10.31499
G1 X57.395 Y97.393 E10.38710
G1 X56.904 Y97.393 E10.40481
G1 X58.318 Y95.979 E10.47692
G1 X57.827 Y95.979 E10.49464
G1 X56.413 Y97.393 E10.56675
G1 X55.922 Y97.393 E10.58447
G1 X57.336 Y95.979 E10.65658
G1 X56.845 Y95.979 E10.67430
G1 X55.432 Y97.393 E10.74641
G1 X54.941 Y97.393 E10.76412
G1 X56.354 Y95.979 E10.83623
G1 X55.863 Y95.979 E10.85395
G1 X54.523 Y97.320 E10.92234
G1 X54.393 Y96.959 E10.93618
G1 X55.612 Y95.739 E10.99843
G1 X55.612 Y95.248 E11.01615
G1 X54.263 Y96.598 E11.08504
G1 X54.133 Y96.237 E11.09888
G1 X55.612 Y94.757 E11.17440
G1 X55.612 Y94.266 E11.19212
G1 X54.003 Y95.876 E11.27427
G1 X53.872 Y95.515 E11.28812
G1 X55.612 Y93.775 E11.37691
G1 X55.612 Y93.284 E11.39462
G1 X53.742 Y95.154 E11.49004
G1 X53.612 Y94.793 E11.50389
G1 X55.612 Y92.793 E11.60595
G1 X55.612 Y92.302 E11.62366
G1 X53.482 Y94.432 E11.73235
G1 X53.352 Y94.071 E11.74620
G1 X55.612 Y91.811 E11.86152
G1 X55.612 Y91.320 E11.87924
G1 X53.222 Y93.710 E12.00120
G1 X53.092 Y93.349 E12.01504
G1 X55.612 Y90.829 E12.14364
G1 X55.612 Y90.338 E12.16136
G1 X52.962 Y92.988 E12.29658
G1 X52.832 Y92.627 E12.31043
G1 X55.612 Y89.847 E12.45229
G1 X55.612 Y89.356 E12.47001
G1 X52.702 Y92.266 E12.61851
G1 X52.572 Y91.905 E12.63235
G1 X55.612 Y88.865 E12.78748
G1 X55.612 Y88.374 E12.80520
G1 X52.442 Y91.544 E12.96696
G1 X52.312 Y91.183 E12.98081
G1 X55.612 Y87.883 E13.14921
G1 X55.612 Y87.392 E13.16692
G1 X52.182 Y90.822 E13.34196
G1 X52.052 Y90.461 E13.35580
G1 X55.612 Y86.901 E13.53747
G1 X55.612 Y86.410 E13.55519
G1 X51.922 Y90.100 E13.74349
G1 X51.792 Y89.739 E13.75733
G1 X55.612 Y85.919 E13.95227
G1 X55.612 Y85.428 E13.96999
G1 X51.662 Y89.378 E14.17156
G1 X51.532 Y89.017 E14.18540
G1 X55.612 Y84.937 E14.39361
G1 X55.612 Y84.446 E14.41132
G1 X51.402 Y88.657 E14.62616
G1 X51.272 Y88.296 E14.64001
G1 X55.612 Y83.955 E14.86148
G1 X55.612 Y83.465 E14.87920
G1 X51.142 Y87.935 E15.10731
G1 X51.012 Y87.574 E15.12115
G1 X55.612 Y82.974 E15.35589
G1 X55.612 Y82.483 E15.37361
G1 X50.882 Y87.213 E15.61499
G1 X50.752 Y86.852 E15.62883
G1 X55.612 Y81.992 E15.87684
G1 X55.612 Y81.501 E15.89456
G1 X50.622 Y86.491 E16.14920
G1 X50.492 Y86.130 E16.16305
G1 X55.612 Y81.010 E16.42433
G1 X55.612 Y80.519 E16.44204
G1 X50.362 Y85.769 E16.70996
G1 X50.232 Y85.408 E16.72380
G1 X55.612 Y80.028 E16.99835
G1 X55.612 Y79.537 E17.01606
G1 X50.102 Y85.047 E17.29725
G1 X49.972 Y84.686 E17.31109
G1 X55.612 Y79.046 E17.59891
G1 X55.612 Y78.555 E17.61662
G1 X49.842 Y84.325 E17.91108
G1 X49.712 Y83.964 E17.92492
G1 X55.612 Y78.064 E18.22600
G1 X55.612 Y77.573 E18.24372
G1 X49.582 Y83.603 E18.55144
G1 X49.452 Y83.242 E18.56528
G1 X55.612 Y77.082 E18.87964
G1 X55.612 Y76.591 E18.89735
G1 X49.322 Y82.881 E19.21834
G1 X49.192 Y82.520 E19.23219
G1 X55.612 Y76.100 E19.55981
G1 X55.612 Y75.609 E19.57752
G1 X49.062 Y82.159 E19.91178
G1 X48.932 Y81.798 E19.92562
G1 X55.612 Y75.118 E20.26652
G1 X55.612 Y74.627 E20.28423
G1 X48.802 Y81.437 E20.63176
G1 X48.672 Y81.076 E20.64560
G1 X55.612 Y74.136 E20.99976
G1 X55.612 Y73.645 E21.01748
G1 X48.542 Y80.715 E21.37827
G1 X48.412 Y80.354 E21.39211
G1 X55.612 Y73.154 E21.75954
G1 X55.612 Y72.663 E21.77726
G1 X48.282 Y79.993 E22.15132
G1 X48.152 Y79.633 E22.16516
G1 X55.612 Y72.172 E22.54586
G1 X55.612 Y71.681 E22.56358
G1 X48.022 Y79.272 E22.95091
G1 X47.892 Y78.911 E22.96475
G1 X55.612 Y71.190 E23.35872
G1 X55.612 Y70.699 E23.37643
G1 X47.762 Y78.550 E23.77703
G1 X47.632 Y78.189 E23.79087
G1 X55.612 Y70.208 E24.19811
G1 X55.612 Y69.717 E24.21582
G1 X47.502 Y77.828 E24.62969
G1 X47.372 Y77.467 E24.64354
G1 X55.612 Y69.226 E25.06404
G1 X55.612 Y68.736 E25.08175
G1 X47.242 Y77.106 E25.50889
G1 X47.112 Y76.745 E25.52273
G1 X55.612 Y68.245 E25.95650
G1 X55.612 Y67.754 E25.97422
G1 X46.982 Y76.384 E26.41463
G1 X46.852 Y76.023 E26.42847
G1 X55.612 Y67.263 E26.87551
G1 X55.612 Y66.772 E26.89322
G1 X46.722 Y75.662 E27.34690
G1 X46.592 Y75.301 E27.36074
G1 X55.612 Y66.281 E27.82105
G1 X55.612 Y65.790 E27.83876
G1 X46.462 Y74.940 E28.30571
G1 X46.332 Y74.579 E28.31955
G1 X55.612 Y65.299 E28.79313
G1 X55.612 Y64.808 E28.81084
G1 X46.202 Y74.218 E29.29105
G1 X46.072 Y73.857 E29.30490
G1 X55.612 Y64.317 E29.79174
G1 X55.612 Y63.826 E29.80946
G1 X45.942 Y73.496 E30.30293
G1 X45.812 Y73.135 E30.31678
G1 X55.612 Y63.335 E30.81689
G1 X55.612 Y62.844 E30.83461
G1 X45.682 Y72.774 E31.34135
G1 X45.552 Y72.413 E31.35520
G1 X55.612 Y62.353 E31.86858
G1 X55.612 Y61.862 E31.88630
G1 X45.422 Y72.052 E32.40631
G1 X45.292 Y71.691 E32.42016
G1 X55.612 Y61.371 E32.94681
G1 X55.612 Y60.880 E32.96452
G1 X45.162 Y71.330 E33.49781
G1 X45.032 Y70.969 E33.51165
G1 X55.612 Y60.389 E34.05157
G1 X55.612 Y59.898 E34.06928
G1 X44.902 Y70.609 E34.61584
G1 X44.772 Y70.248 E34.62968
G1 X55.612 Y59.407 E35.18287
G1 X55.612 Y58.916 E35.20058
G1 X44.642 Y69.887 E35.76041
G1 X44.512 Y69.526 E35.77425
G1 X55.612 Y58.425 E36.34070
G1 X55.612 Y57.934 E36.35842
G1 X44.382 Y69.165 E36.93151
G1 X44.252 Y68.804 E36.94535
G1 X55.612 Y57.443 E37.52508
G1 X55.612 Y56.952 E37.54279
G1 X44.122 Y68.443 E38.12915
G1 X43.992 Y68.082 E38.14300
G1 X55.612 Y56.461 E38.73599
G1 X55.612 Y55.970 E38.75370
G1 X43.862 Y67.721 E39.35333
G1 X43.732 Y67.360 E39.36718
G1 X55.612 Y55.479 E39.97344
G1 X55.612 Y54.988 E39.99115
G1 X43.602 Y66.999 E40.60405
G1 X43.472 Y66.638 E40.61789
G1 X55.612 Y54.497 E41.23742
G1 X55.612 Y54.006 E41.25514
G1 X43.342 Y66.277 E41.88130
G1 X43.212 Y65.916 E41.89514
G1 X55.612 Y53.516 E42.52794
G1 X55.612 Y53.025 E42.54566
G1 X43.082 Y65.555 E43.18509
G1 X42.952 Y65.194 E43.19894
G1 X55.612 Y52.534 E43.84500
G1 X55.612 Y52.043 E43.86272
G1 X42.822 Y64.833 E44.51542
G1 X42.692 Y64.472 E44.52926
G1 X55.612 Y51.552 E45.18860
G1 X55.612 Y51.061 E45.20631
G1 X42.562 Y64.111 E45.87228
G1 X42.432 Y63.750 E45.88613
G1 X55.612 Y50.570 E46.55873
G1 X55.612 Y50.079 E46.57645
G1 X42.302 Y63.389 E47.25568
G1 X42.172 Y63.028 E47.26953
G1 X55.612 Y49.588 E47.95540
G1 X55.612 Y49.097 E47.97312
G1 X42.042 Y62.667 E48.66562
G1 X41.912 Y62.306 E48.67947
G1 X55.439 Y48.779 E49.36975
G1 X54.948 Y48.779 E49.38747
G1 X41.782 Y61.945 E50.05933
G1 X41.652 Y61.585 E50.07318
G1 X54.457 Y48.779 E50.72662
G1 X53.966 Y48.779 E50.74434
G1 X41.522 Y61.224 E51.37937
G1 X41.392 Y60.863 E51.39321
G1 X53.475 Y48.779 E52.00982
G1 X52.984 Y48.779 E52.02753
G1 X41.262 Y60.502 E52.62572
G1 X41.132 Y60.141 E52.63956
G1 X52.493 Y48.779 E53.21933
G1 X52.002 Y48.779 E53.23705
G1 X41.002 Y59.780 E53.79839
G1 X40.872 Y59.419 E53.81224
G1 X51.511 Y48.779 E54.35516
G1 X51.020 Y48.779 E54.37288
G1 X40.742 Y59.058 E54.89739
G1 X40.612 Y58.697 E54.91123
G1 X50.529 Y48.779 E55.41732
G1 X50.038 Y48.779 E55.43503
G1 X40.482 Y58.336 E55.92270
G1 X40.352 Y57.975 E55.93655
G1 X49.547 Y48.779 E56.40579
G1 X49.056 Y48.779 E56.42351
G1 X40.222 Y57.614 E56.87434
G1 X40.092 Y57.253 E56.88818
G1 X48.565 Y48.779 E57.32059
G1 X48.074 Y48.779 E57.33830
G1 X39.962 Y56.892 E57.75229
G1 X39.832 Y56.531 E57.76614
G1 X47.583 Y48.779 E58.16171
G1 X47.092 Y48.779 E58.17942
G1 X39.702 Y56.170 E58.55657
G1 X39.572 Y55.809 E58.57041
G1 X46.602 Y48.779 E58.92914
G1 X46.111 Y48.779 E58.94686
G1 X39.442 Y55.448 E59.28717
G1 X39.312 Y55.087 E59.30101
G1 X45.620 Y48.779 E59.62290
G1 X45.129 Y48.779 E59.64062
G1 X39.182 Y54.726 E59.94409
G1 X39.052 Y54.365 E59.95793
G1 X44.638 Y48.779 E60.24298
G1 X44.147 Y48.779 E60.26070
