; generated by Slic3r 1.3.0-dev on 2017-10-16 at 17:39:27

; Printer Config Notes: 
; ""
; 
; external perimeters extrusion width = 0.40mm (2.16mm^3/s)
; perimeters extrusion width = 0.40mm (3.90mm^3/s)
; infill extrusion width = 0.40mm (4.76mm^3/s)
; solid infill extrusion width = 0.40mm (4.76mm^3/s)
; top infill extrusion width = 0.40mm (3.46mm^3/s)

M107
M190 S75 ; set bed temperature and wait for it to be reached
M104 S235 ; set temperature
G28 ; home all axes
G1 Z5 F5000 ; lift nozzle


; Filament gcode

; Filament gcode

M109 S235 ; set temperature and wait for it to be reached
G21 ; set units to millimeters
G90 ; use absolute coordinates
M82 ; use absolute distances for extrusion
G92 E0
G1 E-2.50000 F3600.00000
G92 E0
G1 Z0.250 F9600.000
G1 X34.537 Y25.490 F9600.000
G1 E2.50000 F3600.00000
M204 S600
G1 F1200
G1 X35.619 Y24.170 E2.56142
G1 X36.765 Y23.010 E2.62011
G1 X38.012 Y21.960 E2.67881
G1 X39.350 Y21.028 E2.73751
G1 X40.768 Y20.223 E2.79620
G1 X42.253 Y19.549 E2.85490
G1 X43.793 Y19.014 E2.91359
G1 X45.234 Y18.654 E2.96707
G1 X45.860 Y18.534 E2.99002
G1 X46.987 Y18.376 E3.03098
G1 X47.505 Y18.330 E3.04972
G1 X48.881 Y18.272 E3.09929
G1 X73.381 Y18.272 E3.98127
G1 X75.534 Y18.669 E4.06006
G1 X76.839 Y19.360 E4.11324
G1 X104.339 Y38.567 E5.32077
G1 X105.877 Y40.125 E5.39956
G1 X106.758 Y42.129 E5.47836
G1 X106.920 Y43.518 E5.52872
G1 X106.920 Y57.548 E6.03377
G1 X106.114 Y60.564 E6.14615
G1 X78.614 Y108.277 E8.12864
G1 X77.195 Y109.944 E8.20743
G1 X75.275 Y110.996 E8.28623
G1 X73.381 Y111.300 E8.35529
G1 X55.381 Y111.300 E9.00327
G1 X53.229 Y110.904 E9.08207
G1 X51.359 Y109.766 E9.16086
G1 X50.017 Y108.036 E9.23966
G1 X49.553 Y106.842 E9.28578
G1 X31.723 Y41.103 E11.73781
G1 X31.426 Y39.915 E11.78190
G1 X31.320 Y39.391 E11.80113
G1 X31.151 Y38.283 E11.84148
G1 X31.096 Y37.777 E11.85983
G1 X31.028 Y36.630 E11.90118
G1 X31.024 Y35.992 E11.92413
G1 X31.093 Y34.519 E11.97722
G1 X31.244 Y33.325 E12.02055
G1 X31.329 Y32.829 E12.03865
G1 X31.581 Y31.702 E12.08024
G1 X31.751 Y31.087 E12.10319
G1 X32.192 Y29.767 E12.15331
G1 X32.842 Y28.272 E12.21201
G1 X33.626 Y26.842 E12.27071
G1 X34.503 Y25.539 E12.32724
M204 S800
G1 X34.815 Y25.697 F9600.000
M204 S600
G1 F1200
G1 X35.877 Y24.401 E12.38756
G1 X37.002 Y23.263 E12.44515
G1 X38.226 Y22.233 E12.50275
G1 X39.539 Y21.319 E12.56034
G1 X40.930 Y20.529 E12.61793
G1 X42.387 Y19.869 E12.67552
G1 X43.898 Y19.344 E12.73311
G1 X45.314 Y18.991 E12.78564
G1 X45.908 Y18.877 E12.80743
G1 X47.033 Y18.720 E12.84829
G1 X47.521 Y18.676 E12.86596
G1 X48.881 Y18.619 E12.91496
G1 X73.381 Y18.619 E13.79693
G1 X75.469 Y19.015 E13.87341
G1 X76.641 Y19.644 E13.92131
G1 X104.141 Y38.851 E15.12884
G1 X105.625 Y40.372 E15.20532
G1 X106.449 Y42.330 E15.28181
G1 X106.574 Y43.518 E15.32482
G1 X106.574 Y57.548 E15.82987
G1 X105.813 Y60.391 E15.93580
G1 X78.313 Y108.104 E17.91829
G1 X76.928 Y109.714 E17.99477
G1 X75.048 Y110.705 E18.07126
G1 X73.381 Y110.954 E18.13192
G1 X55.381 Y110.954 E18.77990
G1 X53.294 Y110.558 E18.85638
G1 X51.497 Y109.423 E18.93287
G1 X49.887 Y106.751 E19.04517
G1 X32.057 Y41.012 E21.49720
G1 X31.762 Y39.831 E21.54102
G1 X31.662 Y39.338 E21.55915
G1 X31.493 Y38.231 E21.59945
G1 X31.441 Y37.753 E21.61674
G1 X31.374 Y36.610 E21.65799
G1 X31.370 Y36.005 E21.67978
G1 X31.437 Y34.557 E21.73193
G1 X31.588 Y33.369 E21.77504
G1 X31.668 Y32.898 E21.79226
G1 X31.919 Y31.778 E21.83357
G1 X32.080 Y31.195 E21.85536
G1 X32.514 Y29.894 E21.90471
G1 X33.152 Y28.427 E21.96231
G1 X33.921 Y27.024 E22.01990
G1 X34.780 Y25.746 E22.07534
M204 S800
G1 X35.092 Y25.904 F9600.000
M204 S600
G1 F1200
G1 X36.135 Y24.632 E22.13455
G1 X37.238 Y23.516 E22.19104
G1 X38.439 Y22.506 E22.24753
G1 X39.727 Y21.610 E22.30402
G1 X41.092 Y20.835 E22.36051
G1 X42.521 Y20.188 E22.41700
G1 X44.004 Y19.674 E22.47349
G1 X45.394 Y19.328 E22.52505
G1 X45.957 Y19.220 E22.54568
G1 X47.079 Y19.063 E22.58646
G1 X47.538 Y19.022 E22.60305
G1 X48.881 Y18.965 E22.65147
G1 X73.381 Y18.965 E23.53344
G1 X75.401 Y19.361 E23.60754
G1 X76.443 Y19.928 E23.65022
G1 X103.943 Y39.135 E24.85775
G1 X105.372 Y40.617 E24.93185
G1 X106.228 Y43.518 E25.04076
G1 X106.228 Y57.548 E25.54581
G1 X105.513 Y60.218 E25.64529
G1 X78.013 Y107.931 E27.62778
G1 X76.661 Y109.483 E27.70188
G1 X74.823 Y110.410 E27.77598
G1 X73.381 Y110.608 E27.82838
G1 X55.381 Y110.608 E28.47636
G1 X53.361 Y110.211 E28.55046
G1 X51.641 Y109.081 E28.62456
G1 X50.221 Y106.661 E28.72557
G1 X32.392 Y40.922 E31.17761
G1 X32.098 Y39.748 E31.22116
G1 X32.004 Y39.284 E31.23819
G1 X31.836 Y38.179 E31.27844
G1 X31.787 Y37.730 E31.29468
G1 X31.720 Y36.590 E31.33581
G1 X31.716 Y36.017 E31.35644
G1 X31.781 Y34.595 E31.40766
G1 X31.931 Y33.414 E31.45055
G1 X32.008 Y32.966 E31.46688
G1 X32.257 Y31.854 E31.50792
G1 X32.410 Y31.302 E31.52855
G1 X32.837 Y30.021 E31.57713
G1 X33.462 Y28.582 E31.63363
G1 X34.216 Y27.206 E31.69012
G1 X35.058 Y25.953 E31.74445
M204 S800
G1 E29.24445 F3600.00000
G92 E0
G1 X64.381 Y93.539 F9600.000
G1 E2.50000 F3600.00000
M204 S600
G1 F1200
G1 X65.572 Y93.696 E2.54324
G1 X66.682 Y94.156 E2.58648
G1 X67.635 Y94.887 E2.62972
G1 X68.366 Y95.840 E2.67296
G1 X68.826 Y96.949 E2.71619
G1 X68.982 Y98.140 E2.75943
G1 X68.826 Y99.331 E2.80267
G1 X68.366 Y100.441 E2.84591
G1 X67.635 Y101.394 E2.88915
G1 X66.682 Y102.125 E2.93239
G1 X65.572 Y102.585 E2.97563
G1 X64.381 Y102.741 E3.01887
G1 X63.191 Y102.585 E3.06210
G1 X62.081 Y102.125 E3.10534
G1 X61.128 Y101.394 E3.14858
G1 X60.397 Y100.441 E3.19182
G1 X59.937 Y99.331 E3.23506
G1 X59.780 Y98.140 E3.27830
G1 X59.937 Y96.949 E3.32154
G1 X60.397 Y95.840 E3.36478
G1 X61.128 Y94.887 E3.40802
G1 X62.081 Y94.156 E3.45126
G1 X63.191 Y93.696 E3.49449
G1 X64.322 Y93.547 E3.53557
M204 S800
G1 X64.381 Y93.889 F9600.000
M204 S600
G1 F1200
G1 X65.482 Y94.033 E3.57553
G1 X66.507 Y94.458 E3.61548
G1 X67.388 Y95.134 E3.65544
G1 X68.063 Y96.014 E3.69540
G1 X68.488 Y97.040 E3.73535
G1 X68.633 Y98.140 E3.77531
G1 X68.488 Y99.241 E3.81527
G1 X68.063 Y100.266 E3.85522
G1 X67.388 Y101.147 E3.89518
G1 X66.507 Y101.822 E3.93513
G1 X65.482 Y102.247 E3.97509
G1 X64.381 Y102.392 E4.01504
G1 X63.281 Y102.247 E4.05500
G1 X62.255 Y101.822 E4.09496
G1 X61.375 Y101.147 E4.13491
G1 X60.699 Y100.266 E4.17487
G1 X60.274 Y99.241 E4.21482
G1 X60.130 Y98.140 E4.25478
G1 X60.274 Y97.040 E4.29474
G1 X60.699 Y96.014 E4.33469
G1 X61.375 Y95.134 E4.37465
G1 X62.255 Y94.458 E4.41460
G1 X63.281 Y94.033 E4.45456
G1 X64.322 Y93.896 E4.49236
M204 S800
G1 X64.381 Y93.889 F9600.000
G1 E1.99236 F3600.00000
G92 E0
G1 X64.381 Y40.741 F9600.000
G1 E2.50000 F3600.00000
M204 S600
G1 F1200
G1 X63.190 Y40.585 E2.54324
G1 X62.081 Y40.125 E2.58648
G1 X61.128 Y39.394 E2.62972
G1 X60.397 Y38.441 E2.67296
G1 X59.937 Y37.331 E2.71619
G1 X59.780 Y36.140 E2.75943
G1 X59.937 Y34.949 E2.80267
G1 X60.397 Y33.840 E2.84591
G1 X61.128 Y32.887 E2.88915
G1 X62.081 Y32.156 E2.93239
G1 X63.190 Y31.696 E2.97563
G1 X64.381 Y31.539 E3.01887
G1 X65.572 Y31.696 E3.06211
G1 X66.682 Y32.156 E3.10534
G1 X67.635 Y32.887 E3.14858
G1 X68.366 Y33.840 E3.19182
G1 X68.826 Y34.949 E3.23506
G1 X68.982 Y36.140 E3.27830
G1 X68.826 Y37.331 E3.32154
G1 X68.366 Y38.441 E3.36478
G1 X67.635 Y39.394 E3.40802
G1 X66.682 Y40.125 E3.45126
G1 X65.572 Y40.585 E3.49449
G1 X64.441 Y40.734 E3.53557
M204 S800
G1 X64.381 Y40.392 F9600.000
M204 S600
G1 F1200
G1 X63.281 Y40.247 E3.57553
G1 X62.255 Y39.822 E3.61549
G1 X61.375 Y39.147 E3.65544
G1 X60.699 Y38.266 E3.69540
G1 X60.274 Y37.241 E3.73535
G1 X60.130 Y36.140 E3.77531
G1 X60.274 Y35.040 E3.81527
G1 X60.699 Y34.014 E3.85522
G1 X61.375 Y33.134 E3.89518
G1 X62.255 Y32.458 E3.93513
G1 X63.281 Y32.033 E3.97509
G1 X64.381 Y31.889 E4.01505
G1 X65.482 Y32.033 E4.05500
G1 X66.507 Y32.458 E4.09496
G1 X67.388 Y33.134 E4.13491
G1 X68.063 Y34.014 E4.17487
G1 X68.488 Y35.040 E4.21483
G1 X68.633 Y36.140 E4.25478
G1 X68.488 Y37.241 E4.29474
G1 X68.063 Y38.266 E4.33469
G1 X67.388 Y39.147 E4.37465
G1 X66.507 Y39.822 E4.41461
G1 X65.482 Y40.247 E4.45456
G1 X64.441 Y40.384 E4.49236
M204 S800
G1 X64.381 Y40.392 F9600.000
G1 E1.99236 F3600.00000
G92 E0
G1 X59.428 Y40.508 F9600.000
G1 E2.50000 F3600.00000
M204 S600
G1 F1200
G1 X58.105 Y40.513 E2.54762
G1 X58.470 Y39.755 E2.57790
G1 X58.965 Y37.968 E2.64464
G1 X59.129 Y36.147 E2.71048
G1 X59.072 Y35.065 E2.74946
G1 X58.905 Y34.006 E2.78808
G1 X58.627 Y32.970 E2.82669
G1 X58.243 Y31.968 E2.86530
G1 X57.756 Y31.013 E2.90391
G1 X57.171 Y30.113 E2.94252
G1 X56.497 Y29.280 E2.98113
G1 X55.738 Y28.521 E3.01974
G1 X54.904 Y27.846 E3.05837
G1 X53.993 Y27.256 E3.09743
G1 X53.049 Y26.775 E3.13558
G1 X52.048 Y26.391 E3.17419
G1 X51.012 Y26.113 E3.21280
G1 X49.953 Y25.945 E3.25141
G1 X48.881 Y25.889 E3.29002
G1 X47.810 Y25.945 E3.32864
G1 X46.751 Y26.113 E3.36725
G1 X45.715 Y26.391 E3.40586
G1 X44.714 Y26.775 E3.44447
G1 X43.758 Y27.262 E3.48308
G1 X42.858 Y27.846 E3.52170
G1 X42.025 Y28.521 E3.56031
G1 X41.266 Y29.280 E3.59892
G1 X40.591 Y30.113 E3.63753
G1 X40.007 Y31.013 E3.67614
G1 X39.520 Y31.968 E3.71476
G1 X39.136 Y32.970 E3.75337
G1 X38.858 Y34.006 E3.79198
G1 X38.690 Y35.065 E3.83059
G1 X38.634 Y36.136 E3.86920
G1 X38.690 Y37.206 E3.90776
G1 X38.857 Y38.264 E3.94631
G1 X39.134 Y39.298 E3.98486
G1 X39.517 Y40.298 E4.02341
G1 X40.003 Y41.253 E4.06196
G1 X40.585 Y42.151 E4.10051
G1 X41.101 Y42.790 E4.13007
G1 X39.786 Y42.790 E4.17741
G1 X39.418 Y42.270 E4.20034
G1 X38.856 Y41.302 E4.24065
G1 X38.451 Y40.420 E4.27558
G1 X38.075 Y39.364 E4.31593
G1 X37.823 Y38.351 E4.35352
G1 X37.666 Y37.319 E4.39110
G1 X37.606 Y36.200 E4.43145
G1 X37.640 Y35.229 E4.46641
G1 X37.772 Y34.192 E4.50406
G1 X38.000 Y33.172 E4.54166
G1 X38.349 Y32.108 E4.58199
G1 X38.734 Y31.216 E4.61694
G1 X39.233 Y30.297 E4.65460
G1 X39.815 Y29.429 E4.69221
G1 X40.525 Y28.564 E4.73251
G1 X41.262 Y27.822 E4.77014
G1 X42.005 Y27.198 E4.80509
G1 X42.926 Y26.559 E4.84542
G1 X43.838 Y26.049 E4.88304
G1 X44.725 Y25.654 E4.91799
G1 X45.785 Y25.292 E4.95834
G1 X46.802 Y25.052 E4.99593
G1 X47.763 Y24.917 E5.03090
G1 X48.896 Y24.858 E5.07171
G1 X72.835 Y24.858 E5.93350
G1 X72.835 Y44.065 E6.62494
G1 X100.335 Y44.065 E7.61490
G1 X100.335 Y46.933 E7.71815
G1 X72.835 Y46.933 E8.70811
G1 X72.835 Y54.134 E8.96735
G1 X100.335 Y54.134 E9.95732
G1 X100.335 Y57.002 E10.06056
G1 X72.835 Y57.002 E11.05052
G1 X72.835 Y104.715 E12.76814
G1 X55.928 Y104.715 E13.37679
G1 X55.928 Y60.557 E14.96642
G1 X59.428 Y60.557 E15.09242
G1 X59.428 Y40.568 E15.81198
M204 S800
G1 X59.081 Y40.856 F9600.000
M204 S600
G1 F1200
G1 X57.553 Y40.861 E15.86701
G1 X58.144 Y39.632 E15.91609
G1 X58.623 Y37.906 E15.98059
G1 X58.782 Y36.140 E16.04441
G1 X58.727 Y35.101 E16.08185
G1 X58.565 Y34.078 E16.11915
G1 X58.297 Y33.077 E16.15646
G1 X57.926 Y32.110 E16.19376
G1 X57.455 Y31.186 E16.23107
G1 X56.891 Y30.317 E16.26837
G1 X56.239 Y29.512 E16.30567
G1 X55.506 Y28.779 E16.34298
G1 X54.701 Y28.127 E16.38029
G1 X53.820 Y27.557 E16.41805
G1 X52.908 Y27.092 E16.45489
G1 X51.941 Y26.721 E16.49220
G1 X50.940 Y26.452 E16.52950
G1 X49.916 Y26.290 E16.56681
G1 X48.881 Y26.236 E16.60411
G1 X47.847 Y26.290 E16.64142
G1 X46.823 Y26.452 E16.67872
G1 X45.822 Y26.721 E16.71603
G1 X44.855 Y27.092 E16.75333
G1 X43.931 Y27.562 E16.79064
G1 X43.062 Y28.127 E16.82794
G1 X42.257 Y28.779 E16.86525
G1 X41.524 Y29.512 E16.90255
G1 X40.872 Y30.317 E16.93986
G1 X40.307 Y31.186 E16.97716
G1 X39.837 Y32.109 E17.01447
G1 X39.466 Y33.077 E17.05177
G1 X39.197 Y34.078 E17.08908
G1 X39.035 Y35.101 E17.12638
G1 X38.981 Y36.136 E17.16369
G1 X39.035 Y37.170 E17.20094
G1 X39.197 Y38.192 E17.23818
G1 X39.464 Y39.191 E17.27543
G1 X39.834 Y40.157 E17.31268
G1 X40.303 Y41.079 E17.34992
G1 X40.866 Y41.948 E17.38717
G1 X41.516 Y42.752 E17.42442
G1 X41.899 Y43.136 E17.44393
G1 X39.607 Y43.136 E17.52644
G1 X39.127 Y42.458 E17.55638
G1 X38.548 Y41.461 E17.59786
G1 X38.130 Y40.551 E17.63393
G1 X37.743 Y39.464 E17.67544
G1 X37.483 Y38.419 E17.71422
G1 X37.321 Y37.354 E17.75299
G1 X37.259 Y36.203 E17.79451
G1 X37.294 Y35.201 E17.83059
G1 X37.431 Y34.132 E17.86939
G1 X37.666 Y33.080 E17.90817
G1 X38.025 Y31.985 E17.94968
G1 X38.422 Y31.064 E17.98576
G1 X38.937 Y30.118 E18.02456
G1 X39.537 Y29.223 E18.06335
G1 X40.267 Y28.331 E18.10484
G1 X41.027 Y27.567 E18.14363
G1 X41.795 Y26.923 E18.17971
G1 X42.742 Y26.265 E18.22122
G1 X43.682 Y25.739 E18.26001
G1 X44.598 Y25.331 E18.29609
G1 X45.689 Y24.958 E18.33760
G1 X46.738 Y24.711 E18.37638
G1 X47.730 Y24.571 E18.41247
G1 X48.887 Y24.511 E18.45415
G1 X73.181 Y24.511 E19.32874
G1 X73.181 Y43.718 E20.02017
G1 X100.681 Y43.718 E21.01014
G1 X100.681 Y47.279 E21.13832
G1 X73.181 Y47.279 E22.12829
G1 X73.181 Y53.788 E22.36259
G1 X100.681 Y53.788 E23.35255
G1 X100.681 Y57.348 E23.48073
G1 X73.181 Y57.348 E24.47070
G1 X73.181 Y105.061 E26.18832
G1 X55.581 Y105.061 E26.82190
G1 X55.581 Y60.211 E28.43647
G1 X59.081 Y60.211 E28.56246
G1 X59.081 Y40.916 E29.25705
M204 S800
G1 X59.104 Y40.457 F9600.000
G1 E26.75705 F3600.00000
G92 E0
G1 X59.472 Y37.015 F9600.000
G1 E2.50000 F3600.00000
M204 S600
G1 F1200
G1 X59.466 Y36.731 E2.51153
M204 S800
M204 S600
G1 F1200
G1 X59.454 Y36.142 E2.52983
G1 X59.467 Y35.791 E2.54071
M204 S800
M204 S600
G1 F1200
G1 X59.493 Y35.134 E2.56752
M204 S800
G1 X59.329 Y34.739 F9600.000
M204 S600
G1 F1200
G1 X59.913 Y34.155 E2.59726
G1 X60.131 Y33.628 E2.61778
G1 X60.729 Y32.849 E2.65316
G1 X59.262 Y34.316 E2.72787
G1 X59.188 Y33.900 E2.74309
M204 S800
G1 E0.24309 F3600.00000
G92 E0
G1 X59.561 Y37.446 F9600.000
G1 E2.50000 F3600.00000
M204 S600
G1 F1200
G1 X59.555 Y37.396 E2.50181
G1 X59.330 Y37.401 E2.50989
G1 X59.303 Y37.704 E2.52087
G1 X59.635 Y37.372 E2.53776
G1 X59.776 Y37.721 E2.55131
G1 X59.209 Y38.288 E2.58017
G1 X59.021 Y38.966 E2.60548
G1 X59.919 Y38.068 E2.65121
G1 X60.063 Y38.414 E2.66470
G1 X58.833 Y39.643 E2.72729
G1 X58.758 Y39.914 E2.73740
G1 X58.620 Y40.201 E2.74889
G1 X58.766 Y40.201 E2.75413
G1 X60.242 Y38.724 E2.82932
G1 X60.455 Y39.001 E2.84190
G1 X59.257 Y40.199 E2.90290
G1 X59.737 Y40.209 E2.92019
G1 X60.668 Y39.278 E2.96757
G1 X60.881 Y39.556 E2.98015
G1 X59.737 Y40.699 E3.03836
G1 X59.737 Y41.189 E3.05600
G1 X61.146 Y39.780 E3.12775
G1 X61.424 Y39.992 E3.14033
G1 X59.737 Y41.679 E3.22620
G1 X59.737 Y42.169 E3.24383
G1 X61.701 Y40.205 E3.34381
G1 X61.987 Y40.409 E3.35646
G1 X59.737 Y42.658 E3.47100
G1 X59.737 Y43.148 E3.48864
G1 X62.333 Y40.552 E3.62081
G1 X62.680 Y40.696 E3.63431
G1 X59.737 Y43.638 E3.78413
G1 X59.737 Y44.128 E3.80177
G1 X63.026 Y40.839 E3.96922
G1 X63.137 Y40.885 E3.97354
G1 X63.431 Y40.924 E3.98423
G1 X59.737 Y44.618 E4.17231
G1 X59.737 Y45.108 E4.18995
G1 X63.864 Y40.981 E4.40007
G1 X64.297 Y41.038 E4.41579
G1 X59.737 Y45.598 E4.64796
G1 X59.737 Y46.088 E4.66560
G1 X64.824 Y41.000 E4.92462
G1 X65.389 Y40.926 E4.94511
G1 X59.737 Y46.577 E5.23285
G1 X59.737 Y47.067 E5.25049
G1 X66.075 Y40.730 E5.57319
G1 X66.893 Y40.391 E5.60508
G1 X66.938 Y40.356 E5.60713
G1 X59.737 Y47.557 E5.97379
G1 X59.737 Y48.047 E5.99143
G1 X72.525 Y35.259 E6.64256
G1 X72.525 Y35.749 E6.66020
G1 X59.737 Y48.537 E7.31133
G1 X59.737 Y49.027 E7.32897
G1 X72.525 Y36.239 E7.98010
G1 X72.525 Y36.729 E7.99774
G1 X59.737 Y49.517 E8.64887
G1 X59.737 Y50.007 E8.66651
G1 X72.525 Y37.218 E9.31764
G1 X72.525 Y37.708 E9.33528
G1 X59.737 Y50.496 E9.98641
G1 X59.737 Y50.986 E10.00405
G1 X72.525 Y38.198 E10.65518
G1 X72.525 Y38.688 E10.67282
G1 X59.737 Y51.476 E11.32395
G1 X59.737 Y51.966 E11.34159
G1 X72.525 Y39.178 E11.99272
G1 X72.525 Y39.668 E12.01036
G1 X59.737 Y52.456 E12.66149
G1 X59.737 Y52.946 E12.67913
G1 X72.525 Y40.158 E13.33026
G1 X72.525 Y40.648 E13.34789
G1 X59.737 Y53.436 E13.99903
G1 X59.737 Y53.926 E14.01666
G1 X72.525 Y41.137 E14.66780
G1 X72.525 Y41.627 E14.68543
G1 X59.737 Y54.416 E15.33657
G1 X59.737 Y54.905 E15.35420
G1 X72.525 Y42.117 E16.00534
G1 X72.525 Y42.607 E16.02297
G1 X59.737 Y55.395 E16.67411
G1 X59.737 Y55.885 E16.69174
G1 X72.525 Y43.097 E17.34288
G1 X72.525 Y43.587 E17.36051
G1 X59.737 Y56.375 E18.01165
G1 X59.737 Y56.865 E18.02928
G1 X72.525 Y44.077 E18.68042
G1 X72.525 Y44.374 E18.69113
G1 X72.718 Y44.374 E18.69805
G1 X59.737 Y57.355 E19.35897
G1 X59.737 Y57.845 E19.37661
