; generated by Slic3r 1.3.0-dev on 2017-10-16 at 17:37:23

; Printer Config Notes: 
; ""
; 
; external perimeters extrusion width = 0.40mm (2.16mm^3/s)
; perimeters extrusion width = 0.40mm (3.90mm^3/s)
; infill extrusion width = 0.40mm (4.76mm^3/s)
; solid infill extrusion width = 0.40mm (4.76mm^3/s)
; top infill extrusion width = 0.40mm (3.46mm^3/s)

M107
M190 S75 ; set bed temperature and wait for it to be reached
M104 S235 ; set temperature
G28 ; home all axes
G1 Z5 F5000 ; lift nozzle


; Filament gcode

; Filament gcode

M109 S235 ; set temperature and wait for it to be reached
G21 ; set units to millimeters
G90 ; use absolute coordinates
M82 ; use absolute distances for extrusion
G92 E0
G1 E-2.50000 F3600.00000
G92 E0
G1 Z0.250 F9600.000
G1 X63.601 Y21.305 F9600.000
G1 E2.50000 F3600.00000
M204 S600
G1 F1200
G1 X65.005 Y19.626 E2.57880
G1 X66.915 Y18.557 E2.65760
G1 X68.860 Y18.235 E2.72854
G1 X86.860 Y18.235 E3.37652
G1 X89.012 Y18.632 E3.45532
G1 X90.882 Y19.770 E3.53412
G1 X92.103 Y21.278 E3.60397
G1 X119.603 Y69.403 E5.59931
G1 X120.399 Y72.399 E5.71090
G1 X120.399 Y112.524 E7.15536
G1 X120.002 Y114.677 E7.23416
G1 X118.864 Y116.547 E7.31295
G1 X117.134 Y117.888 E7.39175
G1 X114.360 Y118.563 E7.49455
G1 X68.860 Y118.563 E9.13250
G1 X66.707 Y118.167 E9.21130
G1 X64.590 Y116.795 E9.30212
G1 X37.090 Y89.299 E10.70204
G1 X35.848 Y87.496 E10.78084
G1 X35.321 Y85.028 E10.87169
G1 X35.321 Y72.974 E11.30562
G1 X36.101 Y70.005 E11.41615
G1 X63.572 Y21.357 E13.42732
M204 S800
G1 X63.903 Y21.475 F9600.000
M204 S600
G1 F1200
G1 X65.274 Y19.853 E13.50381
G1 X67.145 Y18.846 E13.58029
G1 X68.860 Y18.582 E13.64274
G1 X86.860 Y18.582 E14.29072
G1 X88.947 Y18.978 E14.36720
G1 X90.744 Y20.112 E14.44369
G1 X91.802 Y21.450 E14.50510
G1 X119.302 Y69.575 E16.50044
G1 X120.052 Y72.399 E16.60563
G1 X120.052 Y112.524 E18.05009
G1 X119.656 Y114.611 E18.12657
G1 X118.522 Y116.408 E18.20306
G1 X116.808 Y117.664 E18.27954
G1 X114.360 Y118.217 E18.36989
G1 X68.860 Y118.217 E20.00784
G1 X66.772 Y117.820 E20.08432
G1 X64.835 Y116.550 E20.16774
G1 X37.335 Y89.054 E21.56766
G1 X36.139 Y87.298 E21.64415
G1 X35.667 Y85.028 E21.72759
G1 X35.667 Y72.974 E22.16153
G1 X36.403 Y70.175 E22.26571
G1 X63.873 Y21.528 E24.27689
M204 S800
G1 X64.204 Y21.646 F9600.000
M204 S600
G1 F1200
G1 X65.543 Y20.082 E24.35099
G1 X67.372 Y19.139 E24.42509
G1 X68.860 Y18.928 E24.47916
G1 X86.860 Y18.928 E25.12714
G1 X88.880 Y19.324 E25.20124
G1 X90.600 Y20.454 E25.27534
G1 X91.502 Y21.622 E25.32844
G1 X119.002 Y69.747 E27.32378
G1 X119.706 Y72.399 E27.42258
G1 X119.706 Y112.524 E28.86703
G1 X119.310 Y114.544 E28.94113
G1 X118.180 Y116.265 E29.01523
G1 X116.483 Y117.431 E29.08933
G1 X114.360 Y117.870 E29.16741
G1 X68.860 Y117.871 E30.80536
G1 X66.840 Y117.474 E30.87946
G1 X65.080 Y116.305 E30.95553
G1 X37.580 Y88.809 E32.35546
G1 X36.431 Y87.101 E32.42956
G1 X36.013 Y85.028 E32.50566
G1 X36.013 Y72.974 E32.93960
G1 X36.704 Y70.345 E33.03745
G1 X64.175 Y21.698 E35.04862
M204 S800
G1 E32.54862 F3600.00000
G92 E0
G1 X108.845 Y106.850 F9600.000
G1 E2.50000 F3600.00000
M204 S600
G1 F1200
G1 X109.388 Y106.917 E2.51970
G1 X109.885 Y107.123 E2.53905
G1 X110.310 Y107.449 E2.55833
G1 X110.636 Y107.874 E2.57761
G1 X110.841 Y108.368 E2.59688
G1 X110.911 Y108.899 E2.61616
G1 X110.841 Y109.430 E2.63543
G1 X110.636 Y109.925 E2.65471
G1 X110.310 Y110.349 E2.67398
G1 X109.885 Y110.675 E2.69326
G1 X109.391 Y110.880 E2.71253
G1 X108.860 Y110.950 E2.73181
G1 X108.329 Y110.880 E2.75108
G1 X107.834 Y110.675 E2.77036
G1 X107.409 Y110.349 E2.78963
G1 X107.083 Y109.925 E2.80891
G1 X106.878 Y109.430 E2.82818
G1 X106.809 Y108.899 E2.84746
G1 X106.878 Y108.368 E2.86673
G1 X107.083 Y107.874 E2.88601
G1 X107.409 Y107.449 E2.90528
G1 X107.834 Y107.123 E2.92456
G1 X108.329 Y106.918 E2.94383
G1 X108.786 Y106.858 E2.96043
M204 S800
G1 X108.847 Y107.199 F9600.000
M204 S600
G1 F1200
G1 X109.299 Y107.255 E2.97685
G1 X109.711 Y107.425 E2.99287
G1 X110.063 Y107.696 E3.00886
G1 X110.333 Y108.048 E3.02485
G1 X110.503 Y108.459 E3.04084
G1 X110.561 Y108.899 E3.05683
G1 X110.503 Y109.340 E3.07283
G1 X110.333 Y109.750 E3.08882
G1 X110.063 Y110.102 E3.10481
G1 X109.711 Y110.373 E3.12080
G1 X109.300 Y110.543 E3.13680
G1 X108.860 Y110.601 E3.15279
G1 X108.419 Y110.543 E3.16878
G1 X108.009 Y110.373 E3.18477
G1 X107.656 Y110.102 E3.20076
G1 X107.386 Y109.750 E3.21676
G1 X107.216 Y109.340 E3.23275
G1 X107.158 Y108.899 E3.24874
G1 X107.216 Y108.459 E3.26473
G1 X107.386 Y108.048 E3.28072
G1 X107.656 Y107.696 E3.29672
G1 X108.009 Y107.425 E3.31271
G1 X108.419 Y107.255 E3.32870
G1 X108.787 Y107.207 E3.34206
M204 S800
G1 X108.847 Y107.199 F9600.000
G1 E0.84206 F3600.00000
G92 E0
G1 X81.606 Y96.081 F9600.000
G1 E2.50000 F3600.00000
M204 S600
G1 F1200
G1 X80.766 Y96.962 E2.54381
G1 X79.791 Y97.571 E2.58519
G1 X78.696 Y97.920 E2.62657
G1 X77.548 Y97.986 E2.66795
G1 X76.420 Y97.765 E2.70933
G1 X75.382 Y97.272 E2.75071
G1 X74.498 Y96.537 E2.79209
G1 X73.824 Y95.605 E2.83347
G1 X73.403 Y94.536 E2.87485
G1 X73.259 Y93.397 E2.91618
G1 X73.390 Y92.306 E2.95573
G1 X73.757 Y91.316 E2.99374
G1 X74.296 Y90.487 E3.02934
G1 X75.006 Y89.788 E3.06520
G1 X75.839 Y89.264 E3.10063
G1 X76.722 Y88.940 E3.13449
G1 X77.296 Y88.833 E3.15552
G1 X77.620 Y88.805 E3.16722
G1 X77.871 Y88.799 E3.17627
G1 X78.488 Y88.841 E3.19851
G1 X78.949 Y88.929 E3.21543
G1 X79.395 Y89.062 E3.23215
G1 X79.934 Y89.293 E3.25327
G1 X80.271 Y89.481 E3.26715
G1 X80.761 Y89.829 E3.28879
G1 X81.054 Y90.090 E3.30293
G1 X81.461 Y90.538 E3.32471
G1 X81.601 Y90.731 E3.33331
G1 X81.973 Y89.465 E3.38082
G1 X82.400 Y88.398 E3.42219
G1 X82.926 Y87.376 E3.46357
G1 X83.548 Y86.410 E3.50494
G1 X84.258 Y85.506 E3.54631
G1 X85.040 Y84.687 E3.58707
G1 X85.908 Y83.934 E3.62844
G1 X86.843 Y83.267 E3.66977
G1 X87.836 Y82.693 E3.71107
G1 X88.879 Y82.216 E3.75237
G1 X89.963 Y81.841 E3.79367
G1 X91.079 Y81.570 E3.83499
G1 X92.232 Y81.406 E3.87693
G1 X93.360 Y81.352 E3.91758
G1 X94.540 Y81.410 E3.96013
G1 X95.710 Y81.584 E4.00268
G1 X96.857 Y81.871 E4.04524
G1 X97.970 Y82.269 E4.08780
G1 X99.039 Y82.775 E4.13036
G1 X100.053 Y83.382 E4.17292
G1 X101.002 Y84.087 E4.21548
G1 X101.878 Y84.881 E4.25804
G1 X102.672 Y85.757 E4.30060
G1 X103.376 Y86.706 E4.34316
G1 X103.984 Y87.720 E4.38572
G1 X104.490 Y88.789 E4.42828
G1 X104.888 Y89.902 E4.47084
G1 X105.175 Y91.049 E4.51339
G1 X105.349 Y92.218 E4.55595
G1 X105.407 Y93.399 E4.59851
G1 X105.349 Y94.580 E4.64107
G1 X105.175 Y95.749 E4.68363
G1 X104.888 Y96.896 E4.72619
G1 X104.490 Y98.009 E4.76875
G1 X103.984 Y99.078 E4.81131
G1 X103.376 Y100.092 E4.85387
G1 X102.672 Y101.042 E4.89643
G1 X101.878 Y101.918 E4.93899
G1 X101.002 Y102.712 E4.98155
G1 X100.053 Y103.416 E5.02411
G1 X99.039 Y104.024 E5.06666
G1 X97.970 Y104.529 E5.10922
G1 X96.857 Y104.927 E5.15178
G1 X95.710 Y105.215 E5.19434
G1 X94.540 Y105.388 E5.23690
G1 X93.360 Y105.446 E5.27945
G1 X92.213 Y105.391 E5.32077
G1 X91.077 Y105.228 E5.36208
G1 X89.962 Y104.957 E5.40340
G1 X88.878 Y104.581 E5.44471
G1 X87.834 Y104.104 E5.48602
G1 X86.841 Y103.530 E5.52733
G1 X85.906 Y102.863 E5.56867
G1 X85.050 Y102.121 E5.60946
G1 X84.246 Y101.276 E5.65144
G1 X83.546 Y100.386 E5.69222
G1 X82.933 Y99.433 E5.73299
G1 X82.406 Y98.412 E5.77437
G1 X81.972 Y97.329 E5.81636
G1 X81.623 Y96.139 E5.86100
M204 S800
G1 E3.36100 F3600.00000
G92 E0
G1 X81.774 Y95.040 F9600.000
G1 E2.50000 F3600.00000
M204 S600
G1 F1200
G1 X81.279 Y95.923 E2.53644
G1 X80.545 Y96.691 E2.57468
G1 X79.645 Y97.254 E2.61292
G1 X78.632 Y97.576 E2.65116
G1 X77.572 Y97.637 E2.68940
G1 X76.529 Y97.434 E2.72764
G1 X75.570 Y96.978 E2.76588
G1 X74.753 Y96.298 E2.80412
G1 X74.131 Y95.438 E2.84236
G1 X73.741 Y94.449 E2.88060
G1 X73.608 Y93.396 E2.91882
G1 X73.729 Y92.388 E2.95537
G1 X74.068 Y91.472 E2.99052
G1 X74.566 Y90.708 E3.02337
G1 X75.222 Y90.061 E3.05653
G1 X75.992 Y89.576 E3.08928
G1 X76.814 Y89.275 E3.12079
G1 X77.343 Y89.177 E3.14016
G1 X77.864 Y89.145 E3.15894
G1 X78.443 Y89.185 E3.17984
G1 X78.867 Y89.266 E3.19539
G1 X79.277 Y89.388 E3.21076
G1 X79.781 Y89.604 E3.23051
G1 X80.085 Y89.774 E3.24306
G1 X80.545 Y90.101 E3.26336
G1 X80.811 Y90.336 E3.27614
G1 X81.192 Y90.757 E3.29657
G1 X81.399 Y91.043 E3.30929
G1 X81.783 Y91.711 E3.33702
G1 X81.991 Y90.633 E3.37653
G1 X82.301 Y89.578 E3.41611
G1 X82.715 Y88.542 E3.45629
G1 X83.227 Y87.550 E3.49647
G1 X83.830 Y86.611 E3.53666
G1 X84.520 Y85.734 E3.57684
G1 X85.279 Y84.938 E3.61642
G1 X86.122 Y84.206 E3.65660
G1 X87.030 Y83.559 E3.69674
G1 X87.995 Y83.001 E3.73686
G1 X89.008 Y82.538 E3.77697
G1 X90.061 Y82.174 E3.81708
G1 X91.144 Y81.911 E3.85719
G1 X92.265 Y81.751 E3.89795
G1 X93.360 Y81.699 E3.93741
G1 X94.506 Y81.755 E3.97874
G1 X95.642 Y81.924 E4.02007
G1 X96.756 Y82.203 E4.06141
G1 X97.837 Y82.590 E4.10274
G1 X98.875 Y83.080 E4.14408
G1 X99.860 Y83.671 E4.18541
G1 X100.782 Y84.355 E4.22674
G1 X101.633 Y85.126 E4.26808
G1 X102.404 Y85.977 E4.30941
G1 X103.088 Y86.899 E4.35075
G1 X103.678 Y87.884 E4.39208
G1 X104.169 Y88.922 E4.43342
G1 X104.556 Y90.003 E4.47475
G1 X104.835 Y91.117 E4.51608
G1 X105.004 Y92.252 E4.55742
G1 X105.060 Y93.399 E4.59875
G1 X105.004 Y94.546 E4.64009
G1 X104.835 Y95.682 E4.68142
G1 X104.556 Y96.796 E4.72275
G1 X104.169 Y97.877 E4.76409
G1 X103.678 Y98.915 E4.80542
G1 X103.088 Y99.899 E4.84676
G1 X102.404 Y100.822 E4.88809
G1 X101.633 Y101.672 E4.92942
G1 X100.782 Y102.444 E4.97076
G1 X99.860 Y103.128 E5.01209
G1 X98.875 Y103.718 E5.05343
G1 X97.837 Y104.209 E5.09476
G1 X96.756 Y104.596 E5.13610
G1 X95.642 Y104.875 E5.17743
G1 X94.506 Y105.043 E5.21876
G1 X93.360 Y105.099 E5.26009
G1 X92.246 Y105.046 E5.30022
G1 X91.143 Y104.887 E5.34034
G1 X90.060 Y104.624 E5.38047
G1 X89.007 Y104.260 E5.42059
G1 X87.993 Y103.796 E5.46071
G1 X87.028 Y103.238 E5.50084
G1 X86.120 Y102.591 E5.54099
G1 X85.289 Y101.870 E5.58059
G1 X84.508 Y101.049 E5.62138
G1 X83.828 Y100.185 E5.66097
G1 X83.234 Y99.259 E5.70057
G1 X82.721 Y98.268 E5.74076
G1 X82.300 Y97.216 E5.78155
G1 X81.990 Y96.160 E5.82115
G1 X81.785 Y95.099 E5.86006
M204 S800
G1 X81.670 Y95.426 F9600.000
G1 E3.36006 F3600.00000
G92 E0
G1 X107.083 Y78.925 F9600.000
G1 E2.50000 F3600.00000
M204 S600
G1 F1200
G1 X106.878 Y78.430 E2.51928
G1 X106.809 Y77.899 E2.53855
G1 X106.878 Y77.368 E2.55783
G1 X107.078 Y76.887 E2.57658
G1 X107.408 Y76.450 E2.59628
G1 X107.834 Y76.123 E2.61564
G1 X108.329 Y75.918 E2.63491
G1 X108.845 Y75.850 E2.65367
G1 X109.388 Y75.917 E2.67337
G1 X109.885 Y76.123 E2.69272
G1 X110.310 Y76.449 E2.71200
G1 X110.636 Y76.874 E2.73127
G1 X110.841 Y77.368 E2.75055
G1 X110.911 Y77.899 E2.76982
G1 X110.841 Y78.430 E2.78910
G1 X110.636 Y78.925 E2.80837
G1 X110.310 Y79.349 E2.82765
G1 X109.885 Y79.675 E2.84692
G1 X109.391 Y79.880 E2.86620
G1 X108.860 Y79.950 E2.88547
G1 X108.329 Y79.880 E2.90475
G1 X107.834 Y79.675 E2.92402
G1 X107.409 Y79.349 E2.94330
G1 X107.120 Y78.972 E2.96041
M204 S800
G1 X107.386 Y78.750 F9600.000
M204 S600
G1 F1200
G1 X107.216 Y78.340 E2.97640
G1 X107.158 Y77.899 E2.99240
G1 X107.216 Y77.459 E3.00839
G1 X107.381 Y77.060 E3.02391
G1 X107.656 Y76.696 E3.04033
G1 X108.009 Y76.425 E3.05635
G1 X108.419 Y76.255 E3.07234
G1 X108.847 Y76.199 E3.08787
G1 X109.299 Y76.255 E3.10428
G1 X109.711 Y76.425 E3.12031
G1 X110.063 Y76.696 E3.13630
G1 X110.333 Y77.048 E3.15229
G1 X110.503 Y77.459 E3.16828
G1 X110.561 Y77.899 E3.18427
G1 X110.503 Y78.340 E3.20027
G1 X110.333 Y78.750 E3.21626
G1 X110.063 Y79.102 E3.23225
G1 X109.711 Y79.373 E3.24824
G1 X109.300 Y79.543 E3.26423
G1 X108.860 Y79.601 E3.28023
G1 X108.419 Y79.543 E3.29622
G1 X108.009 Y79.373 E3.31221
G1 X107.656 Y79.102 E3.32820
G1 X107.422 Y78.798 E3.34203
M204 S800
G1 X107.386 Y78.750 F9600.000
G1 E0.84203 F3600.00000
G92 E0
G1 X74.390 Y76.205 F9600.000
G1 E2.50000 F3600.00000
M204 S600
G1 F1200
G1 X74.390 Y81.798 E2.70133
G1 X70.797 Y81.798 E2.83066
G1 X70.797 Y76.205 E3.03199
G1 X74.330 Y76.205 E3.15917
M204 S800
G1 X74.043 Y76.551 F9600.000
M204 S600
G1 F1200
G1 X74.043 Y81.451 E3.33556
G1 X71.143 Y81.451 E3.43996
G1 X71.143 Y76.551 E3.61635
G1 X73.983 Y76.551 E3.71859
M204 S800
G1 X74.420 Y76.416 F9600.000
G1 E1.21859 F3600.00000
G92 E0
G1 X66.922 Y76.205 F9600.000
G1 E2.50000 F3600.00000
M204 S600
G1 F1200
G1 X66.922 Y81.798 E2.70133
G1 X63.330 Y81.798 E2.83066
G1 X63.330 Y76.205 E3.03199
G1 X66.862 Y76.205 E3.15917
M204 S800
G1 X66.576 Y76.551 F9600.000
M204 S600
G1 F1200
G1 X66.576 Y81.451 E3.33556
G1 X63.676 Y81.451 E3.43996
G1 X63.676 Y76.551 E3.61635
G1 X66.516 Y76.551 E3.71859
M204 S800
G1 X66.952 Y76.416 F9600.000
G1 E1.21859 F3600.00000
G92 E0
G1 X70.313 Y66.946 F9600.000
G1 E2.50000 F3600.00000
M204 S600
G1 F1200
G1 X70.313 Y50.738 E3.08347
G1 X77.406 Y50.738 E3.33880
G1 X77.406 Y66.842 E3.91853
G1 X77.586 Y66.866 E3.92508
G1 X77.856 Y65.870 E3.96221
G1 X78.332 Y64.796 E4.00452
G1 X79.280 Y63.308 E4.06804
G1 X80.514 Y62.063 E4.13113
G1 X81.997 Y61.100 E4.19478
G1 X83.663 Y60.444 E4.25925
G1 X84.386 Y60.193 E4.28679
G1 X84.567 Y60.074 E4.29457
G1 X85.753 Y59.023 E4.35162
G1 X86.849 Y58.331 E4.39830
G1 X88.184 Y57.744 E4.45081
G1 X88.995 Y57.534 E4.48098
G1 X90.462 Y57.458 E4.53385
G1 X92.005 Y57.467 E4.58940
G1 X92.821 Y57.617 E4.61924
G1 X94.311 Y58.158 E4.67634
G1 X95.601 Y58.954 E4.73089
G1 X96.695 Y59.939 E4.78387
G1 X97.713 Y61.213 E4.84258
G1 X98.489 Y62.763 E4.90500
G1 X98.787 Y63.795 E4.94367
G1 X98.956 Y64.667 E4.97562
G1 X99.044 Y65.515 E5.00633
G1 X98.921 Y66.863 E5.05505
G1 X98.697 Y67.999 E5.09674
G1 X98.578 Y68.431 E5.11287
G1 X98.753 Y69.025 E5.13517
G1 X98.958 Y70.026 E5.17196
G1 X99.041 Y71.701 E5.23231
G1 X98.890 Y73.095 E5.28280
G1 X98.536 Y74.265 E5.32680
G1 X98.049 Y75.344 E5.36941
G1 X97.476 Y76.288 E5.40916
G1 X96.511 Y77.379 E5.46160
G1 X95.401 Y78.326 E5.51412
G1 X94.156 Y78.996 E5.56502
G1 X92.723 Y79.511 E5.61983
G1 X91.921 Y79.665 E5.64922
G1 X90.448 Y79.675 E5.70227
G1 X89.043 Y79.592 E5.75294
G1 X88.215 Y79.375 E5.78373
G1 X86.921 Y78.836 E5.83419
G1 X85.803 Y78.156 E5.88130
G1 X84.258 Y76.868 E5.95371
G1 X83.807 Y76.673 E5.97140
G1 X82.085 Y76.014 E6.03778
G1 X80.577 Y75.025 E6.10271
G1 X79.242 Y73.674 E6.17105
G1 X78.617 Y72.766 E6.21077
G1 X78.203 Y72.012 E6.24172
G1 X77.722 Y70.815 E6.28815
G1 X77.514 Y69.821 E6.32471
G1 X77.446 Y68.520 E6.37163
G1 X77.548 Y66.946 E6.42840
G1 X70.373 Y66.946 E6.68668
M204 S800
G1 E4.18668 F3600.00000
G92 E0
G1 X77.864 Y67.433 F9600.000
G1 E2.50000 F3600.00000
M204 S600
G1 F1200
G1 X77.886 Y67.085 E2.51254
G1 X78.183 Y65.986 E2.55352
G1 X78.638 Y64.959 E2.59398
G1 X79.469 Y63.638 E2.65016
G1 X79.545 Y63.533 E2.65483
G1 X80.733 Y62.333 E2.71561
G1 X82.156 Y61.410 E2.77667
G1 X83.783 Y60.769 E2.83964
G1 X84.540 Y60.506 E2.86846
G1 X84.782 Y60.347 E2.87889
G1 X85.068 Y60.076 E2.89309
G1 X85.960 Y59.302 E2.93558
G1 X87.012 Y58.638 E2.98038
G1 X88.298 Y58.072 E3.03095
G1 X89.048 Y57.878 E3.05885
G1 X90.470 Y57.804 E3.11011
G1 X91.975 Y57.813 E3.16428
G1 X92.729 Y57.952 E3.19188
G1 X94.160 Y58.472 E3.24668
G1 X95.393 Y59.232 E3.29882
G1 X96.442 Y60.177 E3.34966
G1 X97.420 Y61.400 E3.40603
G1 X98.165 Y62.890 E3.46598
G1 X98.450 Y63.876 E3.50295
G1 X98.613 Y64.717 E3.53379
G1 X98.696 Y65.517 E3.56274
G1 X98.578 Y66.814 E3.60960
G1 X98.360 Y67.919 E3.65017
G1 X98.217 Y68.434 E3.66940
G1 X98.417 Y69.109 E3.69474
G1 X98.613 Y70.070 E3.73003
G1 X98.694 Y71.691 E3.78845
G1 X98.549 Y73.026 E3.83679
G1 X98.211 Y74.143 E3.87883
G1 X97.742 Y75.182 E3.91986
G1 X97.196 Y76.082 E3.95774
G1 X96.267 Y77.131 E4.00819
G1 X95.204 Y78.039 E4.05850
G1 X94.015 Y78.679 E4.10714
G1 X92.631 Y79.176 E4.16005
G1 X91.887 Y79.318 E4.18732
G1 X90.457 Y79.328 E4.23883
G1 X89.097 Y79.248 E4.28784
G1 X88.325 Y79.045 E4.31661
G1 X87.079 Y78.527 E4.36517
G1 X86.005 Y77.873 E4.41043
G1 X84.441 Y76.571 E4.48370
G1 X83.938 Y76.352 E4.50345
G1 X82.243 Y75.704 E4.56877
G1 X80.797 Y74.755 E4.63103
G1 X79.510 Y73.453 E4.69694
G1 X78.912 Y72.583 E4.73493
G1 X78.516 Y71.864 E4.76450
G1 X78.055 Y70.714 E4.80909
G1 X77.857 Y69.773 E4.84371
G1 X77.842 Y69.564 E4.85127
G1 X77.793 Y68.523 E4.88878
G1 X77.860 Y67.493 E4.92593
M204 S800
G1 X77.570 Y67.245 F9600.000
G1 E2.42593 F3600.00000
G92 E0
