; generated by Slic3r 1.2.9 on 2017-04-28 at 17:25:50

; external perimeters extrusion width = 0.40mm
; perimeters extrusion width = 0.40mm
; infill extrusion width = 0.40mm
; solid infill extrusion width = 0.40mm
; top infill extrusion width = 0.40mm

M107
M190 S75 ; set bed temperature
M104 S235 ; set temperature
G28 ; home all axes
G1 Z5 F5000 ; lift nozzle

M109 S235 ; wait for temperature to be reached
G21 ; set units to millimeters
G90 ; use absolute coordinates
M82 ; use absolute distances for extrusion
G92 E0
G1 Z0.250 F7800.000
G1 E-3.00000 F2100.00000
G92 E0
G1 X58.747 Y77.365 F7800.000
G1 E3.00000 F2100.00000
M204 S600
G1 X60.791 Y76.185 E3.08494 F2400.000
G1 X61.756 Y75.785 E3.12254
G1 X64.035 Y75.175 E3.20747
G1 X65.070 Y75.038 E3.24507
G1 X66.250 Y74.961 E3.28764
G1 X83.750 Y74.961 E3.91762
G1 X84.930 Y75.038 E3.96018
G1 X85.965 Y75.175 E3.99777 F2400.000
G1 X88.244 Y75.785 E4.08271
G1 X89.209 Y76.185 E4.12030
G1 X91.253 Y77.365 E4.20526
G1 X92.081 Y78.000 E4.24285
G1 X93.750 Y79.669 E4.32778
G1 X94.385 Y80.497 E4.36537
G1 X95.565 Y82.541 E4.45032
G1 X95.965 Y83.506 E4.48791
G1 X96.575 Y85.785 E4.57286
G1 X96.712 Y86.820 E4.61045
G1 X96.789 Y88.000 E4.65301
G1 X96.789 Y112.000 E5.51698
G1 X96.712 Y113.180 E5.55955
G1 X96.575 Y114.215 E5.59714
G1 X95.965 Y116.494 E5.68208
G1 X95.565 Y117.459 E5.71967
G1 X94.385 Y119.503 E5.80462
G1 X93.750 Y120.331 E5.84221
G1 X92.081 Y122.000 E5.92715
G1 X91.253 Y122.635 E5.96474
G1 X89.209 Y123.815 E6.04969
G1 X88.244 Y124.215 E6.08728
G1 X85.965 Y124.825 E6.17222
G1 X84.930 Y124.962 E6.20981
G1 X83.750 Y125.039 E6.25238
G1 X66.250 Y125.039 E6.88236
G1 X65.070 Y124.962 E6.92493
G1 X64.035 Y124.825 E6.96252
G1 X61.756 Y124.215 E7.04746
G1 X60.833 Y123.832 E7.08343
G1 X58.747 Y122.635 E7.16998
G1 X57.919 Y122.000 E7.20757
G1 X56.250 Y120.331 E7.29252
G1 X55.615 Y119.503 E7.33011
G1 X54.435 Y117.459 E7.41505
G1 X54.035 Y116.494 E7.45264
G1 X53.425 Y114.215 E7.53759
G1 X53.288 Y113.179 E7.57519
G1 X53.211 Y112.000 E7.61774
G1 X53.211 Y88.000 E8.48171
G1 X53.288 Y86.820 E8.52428
G1 X53.425 Y85.785 E8.56188
G1 X54.035 Y83.506 E8.64682
G1 X54.435 Y82.541 E8.68441
G1 X55.615 Y80.497 E8.76935
G1 X56.250 Y79.669 E8.80694
G1 X57.919 Y78.000 E8.89188
G1 X58.700 Y77.401 E8.92731
M204 S1500
G1 X58.958 Y77.640 F7800.000
M204 S600
G1 X60.923 Y76.505 E9.00900 F2400.000
G1 X61.888 Y76.105 E9.04660
G1 X64.080 Y75.518 E9.12828
G1 X65.115 Y75.382 E9.16587
G1 X66.250 Y75.307 E9.20681
G1 X83.750 Y75.307 E9.83679
G1 X84.885 Y75.382 E9.87772
G1 X85.920 Y75.518 E9.91532 F2400.000
G1 X88.112 Y76.105 E9.99700
G1 X89.077 Y76.505 E10.03459
G1 X91.042 Y77.640 E10.11629
G1 X91.870 Y78.275 E10.15388
G1 X93.475 Y79.880 E10.23556
G1 X94.110 Y80.708 E10.27315
G1 X95.245 Y82.673 E10.35484
G1 X95.645 Y83.638 E10.39244
G1 X96.232 Y85.830 E10.47413
G1 X96.368 Y86.865 E10.51172
G1 X96.443 Y88.000 E10.55265
G1 X96.443 Y112.000 E11.41662
G1 X96.368 Y113.135 E11.45755
G1 X96.232 Y114.170 E11.49514
G1 X95.645 Y116.362 E11.57683
G1 X95.245 Y117.326 E11.61442
G1 X94.110 Y119.292 E11.69612
G1 X93.475 Y120.120 E11.73371
G1 X91.870 Y121.725 E11.81539
G1 X91.042 Y122.360 E11.85298
G1 X89.077 Y123.495 E11.93468
G1 X88.112 Y123.895 E11.97227
G1 X85.920 Y124.482 E12.05395
G1 X84.885 Y124.618 E12.09154
G1 X83.750 Y124.693 E12.13248
G1 X66.250 Y124.693 E12.76246
G1 X65.115 Y124.618 E12.80340
G1 X64.080 Y124.482 E12.84099
G1 X61.888 Y123.895 E12.92267
G1 X60.965 Y123.512 E12.95864
G1 X58.958 Y122.360 E13.04194
G1 X58.130 Y121.725 E13.07953
G1 X56.525 Y120.120 E13.16122
G1 X55.890 Y119.292 E13.19881
G1 X54.755 Y117.327 E13.28050
G1 X54.355 Y116.362 E13.31809
G1 X53.768 Y114.170 E13.39978
G1 X53.632 Y113.134 E13.43739
G1 X53.557 Y112.000 E13.47831
G1 X53.557 Y88.000 E14.34228
G1 X53.632 Y86.865 E14.38321
G1 X53.768 Y85.830 E14.42081
G1 X54.355 Y83.638 E14.50250
G1 X54.755 Y82.673 E14.54009
G1 X55.890 Y80.708 E14.62177
G1 X56.525 Y79.880 E14.65937
G1 X58.130 Y78.275 E14.74105
G1 X58.911 Y77.676 E14.77648
M204 S1500
G1 X59.169 Y77.914 F7800.000
M204 S600
G1 X61.056 Y76.825 E14.85492 F2400.000
G1 X62.021 Y76.425 E14.89251
G1 X64.125 Y75.861 E14.97094
G1 X65.161 Y75.725 E15.00853
G1 X66.250 Y75.654 E15.04784
G1 X83.750 Y75.654 E15.67782
G1 X84.839 Y75.725 E15.71712
G1 X85.875 Y75.861 E15.75471 F2400.000
G1 X87.979 Y76.425 E15.83315
G1 X88.944 Y76.825 E15.87074
G1 X90.831 Y77.914 E15.94918
G1 X91.659 Y78.550 E15.98677
G1 X93.200 Y80.091 E16.06519
G1 X93.836 Y80.919 E16.10278
G1 X94.925 Y82.806 E16.18122
G1 X95.325 Y83.771 E16.21881
G1 X95.889 Y85.875 E16.29725
G1 X96.025 Y86.911 E16.33484
G1 X96.096 Y88.000 E16.37414
G1 X96.096 Y112.000 E17.23812
G1 X96.025 Y113.089 E17.27742
G1 X95.889 Y114.125 E17.31501
G1 X95.325 Y116.229 E17.39344
G1 X94.925 Y117.194 E17.43103
G1 X93.836 Y119.081 E17.50947
G1 X93.200 Y119.909 E17.54706
G1 X91.659 Y121.450 E17.62549
G1 X90.831 Y122.086 E17.66308
G1 X88.944 Y123.175 E17.74152
G1 X87.979 Y123.575 E17.77911
G1 X85.875 Y124.139 E17.85754
G1 X84.840 Y124.275 E17.89513
G1 X83.750 Y124.346 E17.93444
G1 X66.250 Y124.346 E18.56442
G1 X65.161 Y124.275 E18.60372
G1 X64.125 Y124.139 E18.64131
G1 X62.021 Y123.575 E18.71974
G1 X61.098 Y123.192 E18.75571
G1 X59.169 Y122.086 E18.83576
G1 X58.341 Y121.450 E18.87335
G1 X56.800 Y119.909 E18.95178
G1 X56.164 Y119.081 E18.98937
G1 X55.075 Y117.194 E19.06781
G1 X54.675 Y116.229 E19.10540
G1 X54.111 Y114.125 E19.18384
G1 X53.975 Y113.089 E19.22144
G1 X53.904 Y112.000 E19.26073
G1 X53.904 Y88.000 E20.12470
G1 X53.975 Y86.911 E20.16400
G1 X54.111 Y85.875 E20.20160
G1 X54.675 Y83.771 E20.28003
G1 X55.075 Y82.806 E20.31762
G1 X56.164 Y80.919 E20.39605
G1 X56.800 Y80.091 E20.43365
G1 X58.341 Y78.550 E20.51208
G1 X59.121 Y77.951 E20.54751
M204 S1500
G1 E17.54751 F2100.00000
G92 E0
G1 X67.893 Y113.750 F7800.000
G1 E3.00000 F2100.00000
M204 S600
G1 X67.407 Y114.104 E3.02166 F2400.000
G1 X66.847 Y114.325 E3.04333
G1 X66.250 Y114.401 E3.06499
G1 X65.653 Y114.325 E3.08665
G1 X65.093 Y114.104 E3.10832
G1 X64.607 Y113.750 E3.12998
G1 X64.223 Y113.286 E3.15164
G1 X63.967 Y112.742 E3.17331
G1 X63.854 Y112.151 E3.19497
G1 X63.892 Y111.550 E3.21663
G1 X64.078 Y110.978 E3.23829
G1 X64.400 Y110.470 E3.25996
G1 X64.839 Y110.058 E3.28162
G1 X65.366 Y109.768 E3.30328
G1 X65.949 Y109.618 E3.32495
G1 X66.551 Y109.618 E3.34661 F2400.000
G1 X67.134 Y109.768 E3.36827
G1 X67.661 Y110.058 E3.38994
G1 X68.100 Y110.470 E3.41160
G1 X68.422 Y110.978 E3.43326
G1 X68.608 Y111.550 E3.45493
G1 X68.646 Y112.151 E3.47659
G1 X68.533 Y112.742 E3.49825
G1 X68.277 Y113.286 E3.51992
G1 X67.932 Y113.704 E3.53942
M204 S1500
G1 X67.654 Y113.496 F7800.000
M204 S600
G1 X67.238 Y113.798 E3.55793 F2400.000
G1 X66.760 Y113.987 E3.57644
G1 X66.250 Y114.052 E3.59496
G1 X65.740 Y113.987 E3.61347
G1 X65.262 Y113.798 E3.63198
G1 X64.846 Y113.496 E3.65050
G1 X64.518 Y113.099 E3.66901
G1 X64.299 Y112.634 E3.68752
G1 X64.202 Y112.129 E3.70604
G1 X64.235 Y111.616 E3.72455
G1 X64.394 Y111.126 E3.74306
G1 X64.669 Y110.692 E3.76157
G1 X65.044 Y110.340 E3.78009
G1 X65.495 Y110.092 E3.79860
G1 X65.993 Y109.965 E3.81711
G1 X66.507 Y109.965 E3.83563 F2400.000
G1 X67.005 Y110.092 E3.85414
G1 X67.456 Y110.340 E3.87265
G1 X67.831 Y110.692 E3.89116
G1 X68.106 Y111.126 E3.90968
G1 X68.265 Y111.616 E3.92819
G1 X68.298 Y112.129 E3.94670
G1 X68.201 Y112.634 E3.96522
G1 X67.982 Y113.099 E3.98373
G1 X67.693 Y113.449 E4.00008
M204 S1500
G1 X67.729 Y113.888 F7800.000
G1 E1.00008 F2100.00000
G92 E0
G1 X81.354 Y112.151 F7800.000
G1 E3.00000 F2100.00000
M204 S600
G1 X81.392 Y111.550 E3.02166 F2400.000
G1 X81.578 Y110.978 E3.04333
G1 X81.900 Y110.470 E3.06499
G1 X82.339 Y110.058 E3.08665
G1 X82.866 Y109.768 E3.10832
G1 X83.449 Y109.618 E3.12998
G1 X84.051 Y109.618 E3.15164 F2400.000
G1 X84.634 Y109.768 E3.17330
G1 X85.161 Y110.058 E3.19497
G1 X85.600 Y110.470 E3.21663
G1 X85.922 Y110.978 E3.23829
G1 X86.108 Y111.550 E3.25996
G1 X86.146 Y112.151 E3.28162
G1 X86.033 Y112.742 E3.30328
G1 X85.777 Y113.286 E3.32495
G1 X85.393 Y113.750 E3.34661
G1 X84.907 Y114.104 E3.36827
G1 X84.347 Y114.325 E3.38994
G1 X83.750 Y114.401 E3.41160
G1 X83.153 Y114.325 E3.43326
G1 X82.593 Y114.104 E3.45493
G1 X82.107 Y113.750 E3.47659
G1 X81.723 Y113.286 E3.49825
G1 X81.467 Y112.742 E3.51992
G1 X81.365 Y112.210 E3.53942
M204 S1500
G1 X81.702 Y112.129 F7800.000
M204 S600
G1 X81.735 Y111.616 E3.55793 F2400.000
G1 X81.894 Y111.126 E3.57644
G1 X82.169 Y110.692 E3.59496
G1 X82.544 Y110.340 E3.61347
G1 X82.995 Y110.092 E3.63198
G1 X83.493 Y109.965 E3.65050
G1 X84.007 Y109.965 E3.66901 F2400.000
G1 X84.505 Y110.092 E3.68752
G1 X84.956 Y110.340 E3.70604
G1 X85.331 Y110.692 E3.72455
G1 X85.606 Y111.126 E3.74306
G1 X85.765 Y111.616 E3.76157
G1 X85.798 Y112.129 E3.78009
G1 X85.701 Y112.634 E3.79860
G1 X85.482 Y113.099 E3.81711
G1 X85.154 Y113.496 E3.83563
G1 X84.738 Y113.798 E3.85414
G1 X84.260 Y113.987 E3.87265
G1 X83.750 Y114.052 E3.89116
G1 X83.240 Y113.987 E3.90968
G1 X82.762 Y113.798 E3.92819
G1 X82.346 Y113.496 E3.94670
G1 X82.018 Y113.099 E3.96522
G1 X81.799 Y112.634 E3.98373
G1 X81.714 Y112.188 E4.00008
M204 S1500
G1 X81.352 Y111.936 F7800.000
G1 E1.00008 F2100.00000
G92 E0
G1 X83.750 Y90.401 F7800.000
G1 E3.00000 F2100.00000
M204 S600
G1 X83.153 Y90.325 E3.02166 F2400.000
G1 X82.593 Y90.104 E3.04333
G1 X82.107 Y89.750 E3.06499
G1 X81.723 Y89.286 E3.08665
G1 X81.467 Y88.742 E3.10832
G1 X81.354 Y88.151 E3.12998
G1 X81.392 Y87.550 E3.15164
G1 X81.578 Y86.978 E3.17331
G1 X81.900 Y86.470 E3.19497
G1 X82.339 Y86.058 E3.21663
G1 X82.866 Y85.768 E3.23829
G1 X83.449 Y85.618 E3.25996
G1 X84.051 Y85.618 E3.28162 F2400.000
G1 X84.634 Y85.768 E3.30328
G1 X85.161 Y86.058 E3.32495
G1 X85.600 Y86.470 E3.34661
G1 X85.922 Y86.978 E3.36827
G1 X86.108 Y87.550 E3.38994
G1 X86.146 Y88.151 E3.41160
G1 X86.033 Y88.742 E3.43326
G1 X85.777 Y89.286 E3.45493
G1 X85.393 Y89.750 E3.47659
G1 X84.907 Y90.104 E3.49825
G1 X84.347 Y90.325 E3.51992
G1 X83.810 Y90.393 E3.53942
M204 S1500
G1 X83.750 Y90.052 F7800.000
M204 S600
G1 X83.240 Y89.987 E3.55793 F2400.000
G1 X82.762 Y89.798 E3.57644
G1 X82.346 Y89.496 E3.59496
G1 X82.018 Y89.099 E3.61347
G1 X81.799 Y88.634 E3.63198
G1 X81.702 Y88.129 E3.65050
G1 X81.735 Y87.616 E3.66901
G1 X81.894 Y87.126 E3.68752
G1 X82.169 Y86.692 E3.70604
G1 X82.544 Y86.340 E3.72455
G1 X82.995 Y86.092 E3.74306
G1 X83.493 Y85.965 E3.76157
G1 X84.007 Y85.965 E3.78009 F2400.000
G1 X84.505 Y86.092 E3.79860
G1 X84.956 Y86.340 E3.81711
G1 X85.331 Y86.692 E3.83563
G1 X85.606 Y87.126 E3.85414
G1 X85.765 Y87.616 E3.87265
G1 X85.798 Y88.129 E3.89116
G1 X85.701 Y88.634 E3.90968
G1 X85.482 Y89.099 E3.92819
G1 X85.154 Y89.496 E3.94670
G1 X84.738 Y89.798 E3.96522
G1 X84.260 Y89.987 E3.98373
G1 X83.810 Y90.044 E4.00008
M204 S1500
G1 X83.536 Y90.389 F7800.000
G1 E1.00008 F2100.00000
G92 E0
G1 X68.646 Y88.151 F7800.000
G1 E3.00000 F2100.00000
M204 S600
G1 X68.533 Y88.742 E3.02166 F2400.000
G1 X68.277 Y89.286 E3.04333
G1 X67.893 Y89.750 E3.06499
G1 X67.407 Y90.104 E3.08665
G1 X66.847 Y90.325 E3.10832
G1 X66.250 Y90.401 E3.12998
G1 X65.653 Y90.325 E3.15164
G1 X65.093 Y90.104 E3.17330
G1 X64.607 Y89.750 E3.19497
G1 X64.223 Y89.286 E3.21663
G1 X64.169 Y89.171 E3.22120
G1 X63.967 Y88.742 E3.23829
G1 X63.854 Y88.151 E3.25996
G1 X63.892 Y87.550 E3.28162
G1 X64.078 Y86.978 E3.30328
G1 X64.400 Y86.470 E3.32495
G1 X64.839 Y86.058 E3.34661
G1 X65.366 Y85.768 E3.36827
G1 X65.949 Y85.618 E3.38994
G1 X66.551 Y85.618 E3.41160 F2400.000
G1 X66.948 Y85.720 E3.42638
G1 X67.134 Y85.768 E3.43326
G1 X67.661 Y86.058 E3.45493
G1 X68.100 Y86.470 E3.47659
G1 X68.422 Y86.978 E3.49825
G1 X68.608 Y87.550 E3.51992
G1 X68.642 Y88.091 E3.53942
M204 S1500
G1 X68.298 Y88.129 F7800.000
M204 S600
G1 X68.201 Y88.634 E3.55793 F2400.000
G1 X67.982 Y89.099 E3.57644
G1 X67.654 Y89.496 E3.59496
G1 X67.238 Y89.798 E3.61347
G1 X66.760 Y89.987 E3.63198
G1 X66.250 Y90.052 E3.65050
G1 X65.740 Y89.987 E3.66901
G1 X65.262 Y89.798 E3.68752
G1 X64.846 Y89.496 E3.70603
G1 X64.518 Y89.099 E3.72455
G1 X64.299 Y88.634 E3.74306
G1 X64.202 Y88.129 E3.76157
G1 X64.235 Y87.616 E3.78009
G1 X64.394 Y87.126 E3.79860
G1 X64.669 Y86.692 E3.81711
G1 X65.044 Y86.340 E3.83563
G1 X65.495 Y86.092 E3.85414
G1 X65.993 Y85.965 E3.87265
G1 X66.507 Y85.965 E3.89116 F2400.000
G1 X66.862 Y86.056 E3.90437
G1 X67.005 Y86.092 E3.90968
G1 X67.456 Y86.340 E3.92819
G1 X67.831 Y86.692 E3.94670
G1 X68.106 Y87.126 E3.96522
G1 X68.265 Y87.616 E3.98373
G1 X68.294 Y88.069 E4.00008
M204 S1500
G1 X68.621 Y88.364 F7800.000
G1 X73.292 Y100.394 F7800.000
M204 S600
G1 X73.023 Y100.394 E4.00976 F2400.000
G1 X73.024 Y99.598 E4.03843
G1 X72.806 Y98.807 E4.06796
G1 X72.385 Y98.103 E4.09749
G1 X71.819 Y97.562 E4.12568
G1 X64.446 Y92.213 E4.45361
G1 X63.957 Y91.796 E4.47672
G1 X63.554 Y91.324 E4.49906
G1 X63.229 Y90.795 E4.52140
G1 X62.992 Y90.222 E4.54374
G1 X62.847 Y89.619 E4.56608
G1 X62.796 Y88.979 E4.58920
G1 X62.796 Y88.036 E4.62313
G1 X62.919 Y87.107 E4.65685
G1 X63.263 Y86.276 E4.68926
G1 X63.811 Y85.561 E4.72167
G1 X64.526 Y85.013 E4.75408
G1 X65.357 Y84.669 E4.78649
G1 X66.284 Y84.547 E4.82015
G1 X67.246 Y84.552 E4.85475
G1 X67.983 Y84.665 E4.88162
G1 X68.649 Y84.992 E4.90833
G1 X69.187 Y85.504 E4.93504
G1 X69.566 Y86.190 E4.96327
G1 X73.093 Y95.749 E5.33007
G1 X73.335 Y96.205 E5.34864
G1 X73.716 Y96.606 E5.36856
G1 X74.190 Y96.891 E5.38847
G1 X74.723 Y97.039 E5.40839
G1 X75.277 Y97.039 E5.42831
G1 X75.810 Y96.891 E5.44822
G1 X76.284 Y96.606 E5.46814
G1 X76.665 Y96.205 E5.48806
G1 X76.907 Y95.749 E5.50663
G1 X80.434 Y86.190 E5.87343
G1 X80.813 Y85.504 E5.90165
G1 X81.351 Y84.992 E5.92836
G1 X82.017 Y84.665 E5.95507
G1 X82.792 Y84.546 E5.98330
G1 X83.714 Y84.546 E6.01651
G1 X84.643 Y84.669 E6.05022
G1 X85.474 Y85.013 E6.08263
G1 X86.189 Y85.561 E6.11504
G1 X86.737 Y86.276 E6.14745
G1 X87.081 Y87.107 E6.17987
G1 X87.204 Y88.036 E6.21358
G1 X87.204 Y88.979 E6.24751
G1 X87.153 Y89.619 E6.27063
G1 X87.008 Y90.222 E6.29297
G1 X86.771 Y90.795 E6.31531
G1 X86.446 Y91.324 E6.33765
G1 X86.043 Y91.796 E6.35999
G1 X85.554 Y92.213 E6.38310
G1 X78.181 Y97.562 E6.71103
G1 X77.615 Y98.103 E6.73922
G1 X77.194 Y98.807 E6.76875
G1 X76.976 Y99.598 E6.79828
G1 X76.977 Y100.418 E6.82780
G1 X77.195 Y101.209 E6.85733
G1 X77.617 Y101.912 E6.88686
G1 X78.184 Y102.452 E6.91505
G1 X85.551 Y107.785 E7.24243
G1 X86.040 Y108.201 E7.26557
G1 X86.426 Y108.651 E7.28690
G1 X86.770 Y109.204 E7.31035
G1 X87.008 Y109.777 E7.33265
G1 X87.153 Y110.381 E7.35502
G1 X87.204 Y111.022 E7.37816
G1 X87.204 Y111.964 E7.41210
G1 X87.081 Y112.893 E7.44581
G1 X86.737 Y113.724 E7.47822
G1 X86.189 Y114.439 E7.51063
G1 X85.474 Y114.987 E7.54305
G1 X84.643 Y115.331 E7.57546
G1 X83.714 Y115.454 E7.60917
G1 X82.792 Y115.454 E7.64238
G1 X82.017 Y115.335 E7.67060
G1 X81.351 Y115.008 E7.69730
G1 X80.814 Y114.497 E7.72400
G1 X80.434 Y113.811 E7.75221
G1 X76.907 Y104.263 E8.11865
G1 X76.664 Y103.807 E8.13722
G1 X76.284 Y103.406 E8.15713
G1 X75.810 Y103.121 E8.17704
G1 X75.277 Y102.974 E8.19695
G1 X74.723 Y102.974 E8.21686
G1 X74.190 Y103.121 E8.23677
G1 X73.716 Y103.406 E8.25668
G1 X73.336 Y103.807 E8.27659
G1 X73.093 Y104.263 E8.29516
G1 X69.566 Y113.811 E8.66160
G1 X69.186 Y114.497 E8.68981
G1 X68.649 Y115.008 E8.71651
G1 X67.983 Y115.335 E8.74321
G1 X67.208 Y115.454 E8.77143
G1 X66.286 Y115.454 E8.80464
G1 X65.357 Y115.331 E8.83835
G1 X64.526 Y114.987 E8.87076
G1 X63.811 Y114.439 E8.90318
G1 X63.263 Y113.724 E8.93559
G1 X62.919 Y112.893 E8.96800
G1 X62.796 Y111.964 E9.00171
G1 X62.796 Y111.022 E9.03565
G1 X62.847 Y110.381 E9.05879
G1 X62.992 Y109.777 E9.08116
G1 X63.230 Y109.203 E9.10352
G1 X63.556 Y108.673 E9.12589
G1 X63.960 Y108.201 E9.14825
G1 X64.449 Y107.785 E9.17140
G1 X71.816 Y102.452 E9.49878
G1 X72.383 Y101.912 E9.52696
G1 X73.262 Y100.446 E9.58850
M204 S1500
G1 X72.677 Y100.371 F7800.000
M204 S600
G1 X72.678 Y99.645 E9.61465 F2400.000
G1 X72.484 Y98.944 E9.64080
G1 X72.112 Y98.321 E9.66694
G1 X71.597 Y97.829 E9.69260
G1 X64.231 Y92.485 E10.02017
G1 X63.712 Y92.042 E10.04476
G1 X63.273 Y91.529 E10.06906
G1 X62.920 Y90.953 E10.09337
G1 X62.661 Y90.329 E10.11767
G1 X62.504 Y89.673 E10.14198
