; generated by Slic3r 1.2.9 on 2017-04-28 at 17:13:56

; external perimeters extrusion width = 0.40mm
; perimeters extrusion width = 0.40mm
; infill extrusion width = 0.40mm
; solid infill extrusion width = 0.40mm
; top infill extrusion width = 0.40mm

M107
M190 S75 ; set bed temperature
M104 S235 ; set temperature
G28 ; home all axes
G1 Z5 F5000 ; lift nozzle

M109 S235 ; wait for temperature to be reached
G21 ; set units to millimeters
G90 ; use absolute coordinates
M82 ; use absolute distances for extrusion
G92 E0
G1 Z0.250 F7800.000
G1 E-3.00000 F2100.00000
G92 E0
G1 X53.087 Y92.014 F7800.000
G1 E3.00000 F2100.00000
M204 S600
G1 X55.617 Y91.123 E3.09654 F2400.000
G1 X57.322 Y90.961 E3.15822
G1 X92.678 Y90.961 E4.43097
G1 X95.330 Y91.359 E4.52751
G1 X97.748 Y92.517 E4.62404 F2400.000
G1 X99.069 Y93.608 E4.68573
G1 X106.392 Y100.931 E5.05851
G1 X107.986 Y103.087 E5.15505
G1 X108.877 Y105.617 E5.25158
G1 X109.039 Y107.322 E5.31327
G1 X109.039 Y117.678 E5.68605
G1 X108.641 Y120.330 E5.78258
G1 X107.483 Y122.748 E5.87912
G1 X106.392 Y124.069 E5.94080
G1 X99.069 Y131.392 E6.31359
G1 X96.913 Y132.986 E6.41012
G1 X94.383 Y133.877 E6.50666
G1 X92.678 Y134.039 E6.56834
G1 X57.322 Y134.039 E7.84109
G1 X54.670 Y133.641 E7.93763
G1 X52.252 Y132.483 E8.03417
G1 X50.931 Y131.392 E8.09585
G1 X43.608 Y124.069 E8.46863
G1 X42.014 Y121.913 E8.56517
G1 X41.123 Y119.383 E8.66170
G1 X40.961 Y117.678 E8.72339
G1 X40.961 Y107.322 E9.09617
G1 X41.359 Y104.670 E9.19270
G1 X42.517 Y102.252 E9.28924
G1 X43.608 Y100.931 E9.35092
G1 X50.931 Y93.608 E9.72371
G1 X53.039 Y92.050 E9.81808
M204 S1500
G1 X53.295 Y92.297 F7800.000
M204 S600
G1 X55.782 Y91.445 E9.91274 F2400.000
G1 X57.322 Y91.307 E9.96839
G1 X92.678 Y91.307 E11.24114
G1 X95.277 Y91.705 E11.33580
G1 X97.638 Y92.862 E11.43046 F2400.000
G1 X98.824 Y93.853 E11.48611
G1 X106.147 Y101.176 E11.85889
G1 X107.703 Y103.295 E11.95355
G1 X108.555 Y105.782 E12.04821
G1 X108.693 Y107.322 E12.10386
G1 X108.693 Y117.678 E12.47664
G1 X108.295 Y120.277 E12.57130
G1 X107.138 Y122.638 E12.66596
G1 X106.147 Y123.824 E12.72161
G1 X98.824 Y131.147 E13.09439
G1 X96.705 Y132.703 E13.18905
G1 X94.217 Y133.555 E13.28371
G1 X92.678 Y133.693 E13.33936
G1 X57.322 Y133.693 E14.61212
G1 X54.723 Y133.295 E14.70677
G1 X52.362 Y132.138 E14.80143
G1 X51.176 Y131.147 E14.85708
G1 X43.853 Y123.824 E15.22987
G1 X42.297 Y121.705 E15.32452
G1 X41.445 Y119.218 E15.41918
G1 X41.307 Y117.678 E15.47483
G1 X41.307 Y107.322 E15.84761
G1 X41.705 Y104.723 E15.94227
G1 X42.862 Y102.362 E16.03693
G1 X43.853 Y101.176 E16.09258
G1 X51.176 Y93.853 E16.46536
G1 X53.246 Y92.332 E16.55786
M204 S1500
G1 X53.502 Y92.580 F7800.000
M204 S600
G1 X55.947 Y91.768 E16.65060 F2400.000
G1 X57.322 Y91.654 E16.70030
G1 X92.678 Y91.654 E17.97305
G1 X95.223 Y92.051 E18.06579
G1 X97.526 Y93.206 E18.15854 F2400.000
G1 X98.579 Y94.098 E18.20823
G1 X105.902 Y101.421 E18.58101
G1 X107.420 Y103.502 E18.67375
G1 X108.232 Y105.947 E18.76649
G1 X108.346 Y107.322 E18.81619
G1 X108.346 Y117.678 E19.18897
G1 X107.949 Y120.223 E19.28171
G1 X106.794 Y122.526 E19.37445
G1 X105.902 Y123.579 E19.42415
G1 X98.579 Y130.902 E19.79693
G1 X96.498 Y132.420 E19.88967
G1 X94.053 Y133.232 E19.98241
G1 X92.678 Y133.346 E20.03211
G1 X57.322 Y133.346 E21.30486
G1 X54.777 Y132.949 E21.39760
G1 X52.474 Y131.794 E21.49034
G1 X51.421 Y130.902 E21.54004
G1 X44.098 Y123.579 E21.91282
G1 X42.580 Y121.498 E22.00556
G1 X41.768 Y119.053 E22.09830
G1 X41.654 Y117.678 E22.14800
G1 X41.654 Y107.322 E22.52078
G1 X42.051 Y104.777 E22.61352
G1 X43.206 Y102.474 E22.70626
G1 X44.098 Y101.421 E22.75595
G1 X51.421 Y94.098 E23.12874
G1 X53.453 Y92.615 E23.21932
M204 S1500
G1 E20.21932 F2100.00000
G92 E0
G1 X95.174 Y114.548 F7800.000
G1 E3.00000 F2100.00000
M204 S600
G1 X94.633 Y114.504 E3.01953 F2400.000
G1 X94.177 Y114.356 E3.03680
G1 X93.741 Y114.079 E3.05538
G1 X93.384 Y113.693 E3.07432
G1 X93.143 Y113.255 E3.09230
G1 X93.014 Y112.752 E3.11099
G1 X93.024 Y112.210 E3.13052
G1 X93.143 Y111.745 E3.14778
G1 X93.391 Y111.295 E3.16629
G1 X93.743 Y110.920 E3.18479
G1 X94.181 Y110.642 E3.20348
G1 X94.700 Y110.483 E3.22301
G1 X95.179 Y110.453 E3.24028 F2400.000
G1 X95.684 Y110.550 E3.25878
G1 X96.149 Y110.769 E3.27729
G1 X96.545 Y111.096 E3.29579
G1 X96.847 Y111.512 E3.31430
G1 X97.036 Y111.990 E3.33280
G1 X97.101 Y112.500 E3.35131
G1 X97.036 Y113.010 E3.36981
G1 X96.847 Y113.488 E3.38832
G1 X96.545 Y113.904 E3.40682
G1 X96.149 Y114.231 E3.42533
G1 X95.684 Y114.450 E3.44383
G1 X95.233 Y114.536 E3.46036
M204 S1500
G1 X95.155 Y114.199 F7800.000
M204 S600
G1 X94.701 Y114.162 E3.47674 F2400.000
G1 X94.325 Y114.040 E3.49097
G1 X93.965 Y113.811 E3.50635
G1 X93.667 Y113.489 E3.52214
G1 X93.468 Y113.126 E3.53702
G1 X93.361 Y112.711 E3.55244
G1 X93.370 Y112.257 E3.56882
G1 X93.468 Y111.874 E3.58305
G1 X93.673 Y111.500 E3.59841
G1 X93.965 Y111.189 E3.61376
G1 X94.327 Y110.959 E3.62918
G1 X94.762 Y110.827 E3.64557
G1 X95.157 Y110.802 E3.65980 F2400.000
G1 X95.576 Y110.882 E3.67515
G1 X95.962 Y111.063 E3.69051
G1 X96.290 Y111.335 E3.70586
G1 X96.541 Y111.680 E3.72122
G1 X96.698 Y112.077 E3.73657
G1 X96.752 Y112.500 E3.75192
G1 X96.698 Y112.923 E3.76728
G1 X96.541 Y113.320 E3.78263
G1 X96.290 Y113.665 E3.79799
G1 X95.962 Y113.937 E3.81334
G1 X95.576 Y114.118 E3.82870
G1 X95.214 Y114.187 E3.84196
M204 S1500
G1 X94.958 Y114.547 F7800.000
G1 E0.84196 F2100.00000
G92 E0
G1 X57.101 Y112.500 F7800.000
G1 E3.00000 F2100.00000
M204 S600
G1 X57.036 Y113.010 E3.01850 F2400.000
G1 X56.847 Y113.488 E3.03701
G1 X56.545 Y113.904 E3.05551
G1 X56.149 Y114.231 E3.07402
G1 X55.684 Y114.450 E3.09252
G1 X55.179 Y114.547 E3.11103
G1 X54.666 Y114.514 E3.12953
G1 X54.181 Y114.357 E3.14788
G1 X53.761 Y114.099 E3.16562
G1 X53.391 Y113.705 E3.18508
G1 X53.143 Y113.255 E3.20358
G1 X53.014 Y112.752 E3.22227
G1 X53.024 Y112.210 E3.24180
G1 X53.143 Y111.745 E3.25906
G1 X53.391 Y111.295 E3.27757
G1 X53.743 Y110.920 E3.29607
G1 X54.177 Y110.644 E3.31458
G1 X54.666 Y110.486 E3.33308
G1 X55.170 Y110.454 E3.35128 F2400.000
G1 X55.682 Y110.549 E3.37004
G1 X56.149 Y110.769 E3.38859
G1 X56.545 Y111.096 E3.40709
G1 X56.847 Y111.512 E3.42560
G1 X57.036 Y111.990 E3.44411
G1 X57.093 Y112.440 E3.46045
M204 S1500
G1 X56.752 Y112.500 F7800.000
M204 S600
G1 X56.698 Y112.923 E3.47580 F2400.000
G1 X56.541 Y113.320 E3.49116
G1 X56.290 Y113.665 E3.50651
G1 X55.962 Y113.937 E3.52187
G1 X55.576 Y114.118 E3.53722
G1 X55.157 Y114.198 E3.55258
G1 X54.731 Y114.171 E3.56793
G1 X54.327 Y114.040 E3.58323
G1 X53.982 Y113.828 E3.59782
G1 X53.673 Y113.500 E3.61402
G1 X53.468 Y113.126 E3.62938
G1 X53.361 Y112.711 E3.64480
G1 X53.370 Y112.257 E3.66118
G1 X53.468 Y111.874 E3.67541
G1 X53.673 Y111.500 E3.69077
G1 X53.965 Y111.189 E3.70612
G1 X54.325 Y110.960 E3.72147
G1 X54.731 Y110.829 E3.73683
G1 X55.149 Y110.802 E3.75190 F2400.000
G1 X55.575 Y110.881 E3.76751
G1 X55.962 Y111.063 E3.78288
G1 X56.290 Y111.335 E3.79824
G1 X56.541 Y111.680 E3.81359
G1 X56.698 Y112.077 E3.82895
G1 X56.744 Y112.440 E3.84214
M204 S1500
G1 X57.089 Y112.714 F7800.000
G1 E0.84214 F2100.00000
G92 E0
G1 X69.399 Y101.134 F7800.000
G1 E3.00000 F2100.00000
M204 S600
G1 X63.141 Y101.134 E3.22530 F2400.000
G1 X58.411 Y105.864 E3.46612
G1 X58.411 Y118.072 E3.90557
G1 X64.396 Y124.057 E4.21029
G1 X85.640 Y124.057 E4.97503
G1 X91.625 Y118.072 E5.27976
G1 X91.625 Y105.864 E5.71920
G1 X86.895 Y101.134 E5.96003
G1 X80.616 Y101.134 E6.18607
G1 X80.546 Y100.915 E6.19432
G1 X80.546 Y100.546 E6.20761
G1 X92.451 Y100.546 E6.63618
G1 X99.454 Y107.549 E6.99267
G1 X99.454 Y117.451 E7.34915
G1 X92.451 Y124.454 E7.70564
G1 X57.549 Y124.454 E8.96210
G1 X50.546 Y117.451 E9.31858
G1 X50.546 Y107.549 E9.67507
G1 X57.549 Y100.546 E10.03156
G1 X69.454 Y100.546 E10.46013
G1 X69.454 Y100.929 E10.47390
G1 X69.415 Y101.076 E10.47937
M204 S1500
G1 X69.666 Y101.480 F7800.000
M204 S600
G1 X63.285 Y101.480 E10.70911 F2400.000
G1 X58.757 Y106.008 E10.93961
G1 X58.757 Y117.928 E11.36872
G1 X64.540 Y123.711 E11.66312
G1 X85.496 Y123.711 E12.41753
G1 X91.279 Y117.928 E12.71193
G1 X91.279 Y106.008 E13.14104
G1 X86.751 Y101.480 E13.37154
G1 X80.362 Y101.480 E13.60154
G1 X80.200 Y100.969 E13.62085
G1 X80.200 Y100.200 E13.64854
G1 X92.595 Y100.200 E14.09474
G1 X99.800 Y107.405 E14.46155
G1 X99.800 Y117.595 E14.82837
G1 X92.595 Y124.800 E15.19518
G1 X57.405 Y124.800 E16.46197
G1 X50.200 Y117.595 E16.82879
G1 X50.200 Y107.405 E17.19560
G1 X57.405 Y100.200 E17.56242
G1 X69.800 Y100.200 E18.00862
G1 X69.800 Y100.974 E18.03648
G1 X69.682 Y101.422 E18.05318
M204 S1500
G1 X69.338 Y101.251 F7800.000
G1 X69.280 Y100.840 F7800.000
M204 S600
G1 X63.190 Y100.840 E18.52564 F2400.000
M204 S1500
G1 X62.989 Y100.934 F7800.000
M204 S600
G1 X62.802 Y100.747 E18.53520 F2400.000
G1 X62.798 Y101.236 E18.55287
G1 X62.310 Y100.747 E18.57785
G1 X61.818 Y100.747 E18.59565
G1 X62.552 Y101.482 E18.63321
G1 X62.306 Y101.728 E18.64580
G1 X61.326 Y100.747 E18.69595
G1 X60.834 Y100.747 E18.71375
G1 X62.060 Y101.974 E18.77649
G1 X61.814 Y102.220 E18.78908
G1 X60.341 Y100.747 E18.86441
G1 X59.849 Y100.747 E18.88221
G1 X61.568 Y102.466 E18.97012
G1 X61.322 Y102.712 E18.98271
G1 X59.357 Y100.747 E19.08321
G1 X58.865 Y100.747 E19.10101
G1 X61.076 Y102.958 E19.21409
G1 X60.830 Y103.204 E19.22668
G1 X58.373 Y100.747 E19.35235
G1 X57.881 Y100.747 E19.37015
G1 X60.584 Y103.450 E19.50841
G1 X60.338 Y103.696 E19.52100
G1 X57.503 Y100.861 E19.66600
G1 X57.257 Y101.108 E19.67859
G1 X60.092 Y103.942 E19.82360
G1 X59.846 Y104.188 E19.83618
G1 X57.011 Y101.354 E19.98119
G1 X56.765 Y101.600 E19.99377
G1 X59.600 Y104.434 E20.13878
G1 X59.353 Y104.681 E20.15136
G1 X56.519 Y101.846 E20.29637
G1 X56.273 Y102.092 E20.30896
G1 X59.107 Y104.927 E20.45396
G1 X58.861 Y105.173 E20.46655
G1 X56.026 Y102.338 E20.61155
G1 X55.780 Y102.584 E20.62414
G1 X58.615 Y105.419 E20.76914
G1 X58.369 Y105.665 E20.78173
G1 X55.534 Y102.830 E20.92673
G1 X55.288 Y103.076 E20.93932
G1 X58.210 Y105.997 E21.08875
G1 X58.210 Y106.490 E21.10655
G1 X55.042 Y103.322 E21.26857
G1 X54.796 Y103.568 E21.28116
G1 X58.210 Y106.982 E21.45576
G1 X58.210 Y107.474 E21.47356
G1 X54.550 Y103.814 E21.66076
G1 X54.304 Y104.060 E21.67334
G1 X58.210 Y107.966 E21.87312
G1 X58.210 Y108.458 E21.89092
G1 X54.058 Y104.306 E22.10329
G1 X53.812 Y104.552 E22.11587
G1 X58.210 Y108.950 E22.34082
G1 X58.210 Y109.442 E22.35862
G1 X53.566 Y104.799 E22.59616
G1 X53.320 Y105.045 E22.60875
G1 X58.210 Y109.934 E22.85887
G1 X58.210 Y110.427 E22.87667
G1 X53.074 Y105.291 E23.13938
G1 X52.828 Y105.537 E23.15197
G1 X58.210 Y110.919 E23.42727
G1 X58.210 Y111.411 E23.44507
G1 X52.582 Y105.783 E23.73295
G1 X52.336 Y106.029 E23.74554
G1 X58.210 Y111.903 E24.04601
G1 X58.210 Y112.395 E24.06381
G1 X52.089 Y106.275 E24.37687
G1 X51.843 Y106.521 E24.38945
G1 X55.645 Y110.323 E24.58393
G1 X55.092 Y110.262 E24.60406
G1 X51.597 Y106.767 E24.78283
G1 X51.351 Y107.013 E24.79542
G1 X54.641 Y110.303 E24.96368
G1 X54.269 Y110.423 E24.97780
G1 X51.105 Y107.259 E25.13965
G1 X50.859 Y107.505 E25.15224
G1 X53.942 Y110.588 E25.30995
G1 X53.641 Y110.780 E25.32285
G1 X50.747 Y107.886 E25.47088
G1 X50.747 Y108.378 E25.48868
G1 X53.403 Y111.033 E25.62450
G1 X53.185 Y111.307 E25.63717
G1 X50.747 Y108.870 E25.76185
G1 X50.747 Y109.362 E25.77965
G1 X53.010 Y111.625 E25.89541
G1 X52.888 Y111.995 E25.90950
G1 X50.747 Y109.854 E26.01901
G1 X50.747 Y110.346 E26.03681
G1 X52.821 Y112.420 E26.14287
G1 X52.829 Y112.920 E26.16096
G1 X50.747 Y110.838 E26.26742
G1 X50.747 Y111.330 E26.28522
G1 X53.097 Y113.680 E26.40542
M204 S1500
G1 X53.887 Y114.470 F7800.000
M204 S600
G1 X63.670 Y124.253 E26.90583 F2400.000
G1 X64.135 Y124.226 E26.92269
G1 X54.627 Y114.718 E27.40905
G1 X55.146 Y114.745 E27.42784
G1 X58.210 Y117.809 E27.58456
G1 X58.210 Y117.316 E27.60236
G1 X55.559 Y114.666 E27.73794
G1 X55.920 Y114.534 E27.75182
G1 X58.210 Y116.824 E27.86895
G1 X58.210 Y116.332 E27.88675
G1 X56.248 Y114.371 E27.98708
G1 X56.518 Y114.148 E27.99972
G1 X58.210 Y115.840 E28.08626
G1 X58.210 Y115.348 E28.10407
G1 X56.761 Y113.899 E28.17818
G1 X56.968 Y113.614 E28.19093
G1 X58.210 Y114.856 E28.25445
G1 X58.210 Y114.364 E28.27225
G1 X57.123 Y113.277 E28.32783
G1 X57.243 Y112.905 E28.34197
G1 X58.210 Y113.872 E28.39140
G1 X58.210 Y113.379 E28.40920
G1 X57.298 Y112.468 E28.45581
G1 X57.239 Y111.917 E28.47586
G1 X58.210 Y112.887 E28.52549
M204 S1500
G1 E25.52549 F2100.00000
G92 E0
G1 X50.747 Y112.807 F7800.000
G1 E3.00000 F2100.00000
M204 S600
G1 X62.193 Y124.253 E3.58547 F2400.000
G1 X61.701 Y124.253 E3.60327
G1 X50.747 Y113.299 E4.16357
G1 X50.747 Y113.791 E4.18137
G1 X61.209 Y124.253 E4.71650
G1 X60.717 Y124.253 E4.73430
G1 X50.747 Y114.283 E5.24425
G1 X50.747 Y114.775 E5.26205
G1 X60.225 Y124.253 E5.74683
G1 X59.733 Y124.253 E5.76463
G1 X50.747 Y115.267 E6.22424
G1 X50.747 Y115.760 E6.24204
G1 X59.240 Y124.253 E6.67647
G1 X58.748 Y124.253 E6.69427
G1 X50.747 Y116.252 E7.10353
G1 X50.747 Y116.744 E7.12133
G1 X58.256 Y124.253 E7.50542
G1 X57.764 Y124.253 E7.52322
G1 X50.747 Y117.236 E7.88213
M204 S1500
G1 X50.747 Y112.315 F7800.000
M204 S600
G1 X62.685 Y124.253 E8.49278 F2400.000
G1 X63.177 Y124.253 E8.51058
G1 X50.747 Y111.823 E9.14640
M204 S1500
G1 X64.350 Y124.255 F7800.000
M204 S600
G1 X85.686 Y124.255 E9.91450 F2400.000
M204 S1500
G1 X85.887 Y124.066 F7800.000
M204 S600
G1 X86.074 Y124.253 E9.92410 F2400.000
G1 X86.569 Y124.253 E9.94207
G1 X86.127 Y123.811 E9.96477
G1 X86.374 Y123.564 E9.97748
G1 X87.063 Y124.253 E10.01288
G1 X87.557 Y124.253 E10.03085
G1 X86.621 Y123.317 E10.07896
G1 X86.869 Y123.069 E10.09167
G1 X88.052 Y124.253 E10.15249
G1 X88.546 Y124.253 E10.17046
G1 X87.116 Y122.822 E10.24398
G1 X87.363 Y122.575 E10.25668
G1 X89.041 Y124.253 E10.34291
G1 X89.535 Y124.253 E10.36088
G1 X87.610 Y122.328 E10.45982
G1 X87.857 Y122.080 E10.47252
G1 X90.030 Y124.253 E10.58416
G1 X90.524 Y124.253 E10.60213
G1 X88.105 Y121.833 E10.72648
G1 X88.352 Y121.586 E10.73918
G1 X91.019 Y124.253 E10.87623
G1 X91.513 Y124.253 E10.89420
G1 X88.599 Y121.339 E11.04396
G1 X88.846 Y121.092 E11.05666
G1 X92.008 Y124.253 E11.21913
G1 X92.442 Y124.193 E11.23508
G1 X89.094 Y120.844 E11.40718
G1 X89.341 Y120.597 E11.41989
G1 X92.690 Y123.946 E11.59200
G1 X92.937 Y123.699 E11.60470
G1 X89.588 Y120.350 E11.77681
G1 X89.835 Y120.103 E11.78952
G1 X93.184 Y123.451 E11.96162
G1 X93.431 Y123.204 E11.97433
G1 X90.083 Y119.855 E12.14644
G1 X90.330 Y119.608 E12.15914
G1 X93.679 Y122.957 E12.33125
G1 X93.926 Y122.710 E12.34395
G1 X90.577 Y119.361 E12.51606
G1 X90.824 Y119.114 E12.52877
G1 X94.173 Y122.463 E12.70087
G1 X94.420 Y122.215 E12.71358
G1 X91.071 Y118.866 E12.88569
G1 X91.319 Y118.619 E12.89839
G1 X94.668 Y121.968 E13.07050
G1 X94.915 Y121.721 E13.08321
G1 X91.566 Y118.372 E13.25531
G1 X91.813 Y118.125 E13.26802
G1 X95.162 Y121.474 E13.44013
G1 X95.409 Y121.226 E13.45283
G1 X91.826 Y117.643 E13.63698
G1 X91.826 Y117.149 E13.65494
G1 X95.656 Y120.979 E13.85179
G1 X95.904 Y120.732 E13.86450
G1 X91.826 Y116.654 E14.07405
G1 X91.826 Y116.160 E14.09202
G1 X96.151 Y120.485 E14.31428
G1 X96.398 Y120.238 E14.32699
G1 X91.826 Y115.666 E14.56196
G1 X91.826 Y115.171 E14.57992
G1 X96.645 Y119.990 E14.82760
G1 X96.893 Y119.743 E14.84030
G1 X91.826 Y114.677 E15.10068
G1 X91.826 Y114.182 E15.11865
G1 X97.140 Y119.496 E15.39173
G1 X97.387 Y119.249 E15.40444
G1 X91.826 Y113.688 E15.69023
G1 X91.826 Y113.193 E15.70820
G1 X97.634 Y119.001 E16.00669
G1 X97.881 Y118.754 E16.01940
G1 X91.826 Y112.699 E16.33060
G1 X91.826 Y112.204 E16.34857
G1 X92.928 Y113.306 E16.40518
M204 S1500
G1 X92.816 Y112.699 F7800.000
M204 S600
G1 X91.826 Y111.710 E16.45603 F2400.000
G1 X91.826 Y111.215 E16.47400
G1 X92.830 Y112.220 E16.52562
G1 X92.932 Y111.826 E16.54038
G1 X91.826 Y110.721 E16.59719
G1 X91.826 Y110.227 E16.61516
G1 X93.086 Y111.487 E16.67991
G1 X93.269 Y111.175 E16.69304
G1 X91.826 Y109.732 E16.76720
G1 X91.826 Y109.238 E16.78517
G1 X93.509 Y110.920 E16.87164
G1 X93.777 Y110.694 E16.88439
G1 X91.826 Y108.743 E16.98463
G1 X91.826 Y108.249 E17.00260
G1 X94.079 Y110.502 E17.11839
G1 X94.443 Y110.371 E17.13243
G1 X91.826 Y107.754 E17.26691
