; generated by Slic3r 1.2.9 on 2017-04-28 at 17:26:27

; external perimeters extrusion width = 0.40mm
; perimeters extrusion width = 0.40mm
; infill extrusion width = 0.40mm
; solid infill extrusion width = 0.40mm
; top infill extrusion width = 0.40mm

M107
M190 S75 ; set bed temperature
M104 S235 ; set temperature
G28 ; home all axes
G1 Z5 F5000 ; lift nozzle

M109 S235 ; wait for temperature to be reached
G21 ; set units to millimeters
G90 ; use absolute coordinates
M82 ; use absolute distances for extrusion
G92 E0
G1 Z0.250 F7800.000
G1 E-3.00000 F2100.00000
G92 E0
G1 X62.490 Y83.188 F7800.000
G1 E3.00000 F2100.00000
M204 S600
G1 X63.398 Y82.546 E3.04001 F2400.000
G1 X64.254 Y82.004 E3.07649
G1 X65.157 Y81.492 E3.11385
G1 X66.282 Y80.934 E3.15908
G1 X67.189 Y80.543 E3.19466
G1 X68.205 Y80.163 E3.23367
G1 X69.157 Y79.861 E3.26963
G1 X70.317 Y79.559 E3.31279
G1 X71.316 Y79.355 E3.34948
G1 X73.000 Y79.202 E3.41037
G1 X77.000 Y79.202 E3.55436
G1 X78.721 Y79.361 E3.61659
G1 X79.553 Y79.529 E3.64713 F2400.000
G1 X80.468 Y79.755 E3.68105
G1 X81.361 Y80.019 E3.71457
G1 X82.151 Y80.289 E3.74463
G1 X83.037 Y80.636 E3.77890
G1 X83.843 Y80.992 E3.81062
G1 X84.709 Y81.421 E3.84540
G1 X85.364 Y81.780 E3.87229
G1 X86.136 Y82.244 E3.90472
G1 X86.953 Y82.786 E3.94000
G1 X87.658 Y83.300 E3.97143
G1 X88.373 Y83.870 E4.00433
G1 X88.950 Y84.369 E4.03178
G1 X89.656 Y85.034 E4.06672
G1 X90.307 Y85.704 E4.10034
G1 X90.892 Y86.361 E4.13202
G1 X91.469 Y87.069 E4.16488
G1 X91.924 Y87.675 E4.19216
G1 X92.440 Y88.421 E4.22481
G1 X92.904 Y89.159 E4.25619
G1 X93.386 Y90.006 E4.29130
G1 X93.790 Y90.796 E4.32324
G1 X94.103 Y91.471 E4.35002
G1 X94.466 Y92.344 E4.38404
G1 X94.798 Y93.260 E4.41912
G1 X95.059 Y94.096 E4.45064
G1 X95.308 Y95.037 E4.48570
G1 X95.496 Y95.901 E4.51751
G1 X95.624 Y96.622 E4.54389
G1 X95.751 Y97.551 E4.57764
G1 X95.833 Y98.444 E4.60991
G1 X95.878 Y99.376 E4.64353
G1 X95.884 Y100.145 E4.67119
G1 X95.852 Y101.083 E4.70497
G1 X95.786 Y101.947 E4.73618
G1 X95.670 Y102.901 E4.77077
G1 X95.510 Y103.853 E4.80553
G1 X95.339 Y104.657 E4.83510
G1 X95.106 Y105.563 E4.86878
G1 X94.835 Y106.451 E4.90222
G1 X94.507 Y107.375 E4.93750
G1 X94.169 Y108.204 E4.96973
G1 X93.859 Y108.885 E4.99667
G1 X93.452 Y109.696 E5.02934
G1 X93.026 Y110.461 E5.06085
G1 X92.544 Y111.244 E5.09395
G1 X92.116 Y111.880 E5.12153
G1 X91.570 Y112.626 E5.15484
G1 X91.013 Y113.321 E5.18688
G1 X90.401 Y114.019 E5.22032
G1 X89.882 Y114.565 E5.24743
G1 X89.200 Y115.228 E5.28169
G1 X88.530 Y115.822 E5.31390
G1 X87.810 Y116.407 E5.34729
G1 X87.194 Y116.868 E5.37500
G1 X86.414 Y117.403 E5.40903
G1 X85.685 Y117.857 E5.43997
G1 X84.841 Y118.334 E5.47488
G1 X83.979 Y118.769 E5.50962
G1 X83.297 Y119.079 E5.53658
G1 X82.445 Y119.426 E5.56971
G1 X81.518 Y119.755 E5.60512
G1 X80.690 Y120.008 E5.63630
G1 X79.775 Y120.245 E5.67032
G1 X78.824 Y120.445 E5.70531
G1 X77.969 Y120.585 E5.73650
G1 X77.050 Y120.697 E5.76983
G1 X76.337 Y120.755 E5.79557
G1 X75.533 Y120.791 E5.82454
G1 X74.667 Y120.795 E5.85571
G1 X73.800 Y120.763 E5.88695
G1 X72.836 Y120.685 E5.92176
G1 X71.907 Y120.567 E5.95547
G1 X70.960 Y120.403 E5.99007
G1 X70.153 Y120.228 E6.01979
G1 X69.265 Y119.995 E6.05284
G1 X68.338 Y119.707 E6.08780
G1 X67.504 Y119.406 E6.11972
G1 X66.814 Y119.127 E6.14649
G1 X65.975 Y118.747 E6.17968
G1 X65.118 Y118.312 E6.21425
G1 X64.371 Y117.891 E6.24511
G1 X63.768 Y117.520 E6.27062
G1 X63.001 Y117.007 E6.30383
G1 X62.284 Y116.480 E6.33587
G1 X61.519 Y115.864 E6.37121
G1 X60.808 Y115.235 E6.40539
G1 X60.265 Y114.713 E6.43249
G1 X59.605 Y114.026 E6.46681
G1 X59.030 Y113.371 E6.49817
G1 X58.435 Y112.632 E6.53232
G1 X57.977 Y112.013 E6.56005
G1 X57.460 Y111.250 E6.59324
G1 X56.940 Y110.401 E6.62906
G1 X56.514 Y109.632 E6.66071
G1 X56.095 Y108.789 E6.69459
G1 X55.701 Y107.896 E6.72974
G1 X55.423 Y107.188 E6.75710
G1 X55.127 Y106.335 E6.78964
G1 X54.849 Y105.403 E6.82462
G1 X54.642 Y104.574 E6.85540
G1 X54.452 Y103.651 E6.88933
G1 X54.305 Y102.724 E6.92311
G1 X54.203 Y101.828 E6.95559
G1 X54.137 Y100.870 E6.99013
G1 X54.115 Y99.968 E7.02263
G1 X54.133 Y99.045 E7.05584
G1 X54.182 Y98.236 E7.08504
G1 X54.274 Y97.338 E7.11754
G1 X54.375 Y96.627 E7.14339
G1 X54.533 Y95.751 E7.17544
G1 X54.739 Y94.843 E7.20893
G1 X54.989 Y93.932 E7.24296
G1 X55.249 Y93.124 E7.27351
G1 X55.585 Y92.214 E7.30842
G1 X55.934 Y91.388 E7.34070
G1 X56.254 Y90.705 E7.36785
G1 X56.685 Y89.875 E7.40151
G1 X57.171 Y89.034 E7.43648
G1 X57.636 Y88.308 E7.46753
G1 X58.181 Y87.530 E7.50171
G1 X58.651 Y86.917 E7.52952
G1 X59.246 Y86.201 E7.56304
G1 X59.850 Y85.536 E7.59539
G1 X60.507 Y84.875 E7.62894
G1 X61.034 Y84.383 E7.65489
G1 X61.697 Y83.812 E7.68641
G1 X62.442 Y83.224 E7.72055
M204 S1500
G1 X62.698 Y83.465 F7800.000
M204 S600
G1 X63.589 Y82.835 E7.75982 F2400.000
G1 X64.431 Y82.301 E7.79570
G1 X65.318 Y81.799 E7.83241
G1 X66.427 Y81.248 E7.87698
G1 X67.320 Y80.863 E7.91198
G1 X68.317 Y80.491 E7.95028
G1 X69.252 Y80.194 E7.98560
G1 X70.397 Y79.896 E8.02819
G1 X71.378 Y79.695 E8.06424
G1 X73.000 Y79.549 E8.12287
G1 X77.000 Y79.549 E8.26687
G1 X78.658 Y79.702 E8.32680
G1 X79.476 Y79.867 E8.35686 F2400.000
G1 X80.376 Y80.089 E8.39022
G1 X81.254 Y80.349 E8.42318
G1 X82.033 Y80.615 E8.45282
G1 X82.905 Y80.956 E8.48652
G1 X83.698 Y81.307 E8.51775
G1 X84.550 Y81.729 E8.55195
G1 X85.190 Y82.080 E8.57826
G1 X85.951 Y82.536 E8.61017
G1 X86.754 Y83.069 E8.64487
G1 X87.449 Y83.576 E8.67587
G1 X88.152 Y84.137 E8.70825
G1 X88.717 Y84.626 E8.73510
G1 X89.412 Y85.279 E8.76945
G1 X90.053 Y85.939 E8.80255
G1 X90.629 Y86.587 E8.83379
G1 X91.197 Y87.283 E8.86613
G1 X91.642 Y87.876 E8.89282
G1 X92.150 Y88.611 E8.92496
G1 X92.608 Y89.338 E8.95590
G1 X93.082 Y90.171 E8.99042
G1 X93.480 Y90.949 E9.02187
G1 X93.786 Y91.609 E9.04807
G1 X94.142 Y92.469 E9.08156
G1 X94.469 Y93.369 E9.11605
G1 X94.727 Y94.193 E9.14713
G1 X94.972 Y95.119 E9.18160
G1 X95.157 Y95.969 E9.21292
G1 X95.282 Y96.675 E9.23872
G1 X95.407 Y97.589 E9.27192
G1 X95.488 Y98.466 E9.30363
G1 X95.532 Y99.384 E9.33673
G1 X95.537 Y100.139 E9.36391
G1 X95.507 Y101.062 E9.39713
G1 X95.441 Y101.912 E9.42785
G1 X95.328 Y102.850 E9.46187
G1 X95.170 Y103.787 E9.49605
G1 X95.002 Y104.579 E9.52520
G1 X94.773 Y105.470 E9.55833
G1 X94.506 Y106.343 E9.59120
G1 X94.183 Y107.252 E9.62591
G1 X93.850 Y108.068 E9.65764
G1 X93.547 Y108.735 E9.68399
G1 X93.147 Y109.533 E9.71614
G1 X92.726 Y110.287 E9.74722
G1 X92.252 Y111.057 E9.77980
G1 X91.834 Y111.679 E9.80678
G1 X91.296 Y112.414 E9.83957
G1 X90.747 Y113.099 E9.87116
G1 X90.144 Y113.787 E9.90407
G1 X89.637 Y114.320 E9.93058
G1 X88.965 Y114.973 E9.96431
G1 X88.305 Y115.559 E9.99607
G1 X87.597 Y116.135 E10.02894
G1 X86.993 Y116.586 E10.05604
G1 X86.226 Y117.112 E10.08955
G1 X85.507 Y117.560 E10.12005
G1 X84.677 Y118.029 E10.15436
G1 X83.828 Y118.457 E10.18858
G1 X83.161 Y118.760 E10.21495
G1 X82.323 Y119.102 E10.24755
G1 X81.411 Y119.425 E10.28237
G1 X80.594 Y119.675 E10.31312
G1 X79.695 Y119.907 E10.34656
G1 X78.759 Y120.104 E10.38098
G1 X77.918 Y120.243 E10.41169
G1 X77.014 Y120.352 E10.44446
G1 X76.317 Y120.409 E10.46963
G1 X75.523 Y120.445 E10.49824
G1 X74.674 Y120.449 E10.52879
G1 X73.821 Y120.417 E10.55954
G1 X72.873 Y120.341 E10.59378
G1 X71.959 Y120.225 E10.62692
G1 X71.028 Y120.064 E10.66095
G1 X70.233 Y119.890 E10.69025
G1 X69.360 Y119.662 E10.72274
G1 X68.447 Y119.378 E10.75713
G1 X67.626 Y119.082 E10.78855
G1 X66.952 Y118.809 E10.81474
G1 X66.125 Y118.435 E10.84742
G1 X65.283 Y118.007 E10.88141
G1 X64.547 Y117.592 E10.91183
G1 X63.956 Y117.229 E10.93682
G1 X63.201 Y116.724 E10.96950
G1 X62.494 Y116.205 E11.00109
G1 X61.742 Y115.599 E11.03583
G1 X61.042 Y114.979 E11.06949
G1 X60.511 Y114.470 E11.09599
G1 X59.861 Y113.793 E11.12977
G1 X59.294 Y113.148 E11.16069
G1 X58.709 Y112.420 E11.19431
G1 X58.261 Y111.814 E11.22144
G1 X57.751 Y111.063 E11.25411
G1 X57.240 Y110.229 E11.28934
G1 X56.820 Y109.470 E11.32055
G1 X56.408 Y108.640 E11.35390
G1 X56.020 Y107.762 E11.38846
G1 X55.749 Y107.070 E11.41523
G1 X55.457 Y106.229 E11.44726
G1 X55.184 Y105.313 E11.48165
G1 X54.979 Y104.496 E11.51200
G1 X54.793 Y103.588 E11.54537
G1 X54.648 Y102.676 E11.57859
G1 X54.548 Y101.793 E11.61057
G1 X54.483 Y100.852 E11.64454
G1 X54.461 Y99.966 E11.67644
G1 X54.479 Y99.061 E11.70904
G1 X54.527 Y98.263 E11.73783
G1 X54.618 Y97.379 E11.76982
G1 X54.717 Y96.683 E11.79510
G1 X54.873 Y95.821 E11.82666
G1 X55.075 Y94.928 E11.85960
G1 X55.321 Y94.032 E11.89306
G1 X55.577 Y93.235 E11.92319
G1 X55.908 Y92.341 E11.95751
G1 X56.251 Y91.528 E11.98928
G1 X56.564 Y90.859 E12.01585
G1 X56.988 Y90.043 E12.04898
G1 X57.466 Y89.216 E12.08336
G1 X57.924 Y88.499 E12.11397
G1 X58.461 Y87.734 E12.14763
G1 X58.921 Y87.134 E12.17484
G1 X59.506 Y86.429 E12.20783
G1 X60.102 Y85.774 E12.23972
G1 X60.749 Y85.123 E12.27275
G1 X61.265 Y84.641 E12.29817
G1 X61.919 Y84.078 E12.32923
G1 X62.651 Y83.501 E12.36277
M204 S1500
G1 X62.907 Y83.742 F7800.000
M204 S600
G1 X63.781 Y83.124 E12.40130 F2400.000
G1 X64.609 Y82.599 E12.43659
G1 X65.480 Y82.105 E12.47263
G1 X66.573 Y81.563 E12.51655
G1 X67.451 Y81.184 E12.55097
G1 X68.429 Y80.819 E12.58856
G1 X69.347 Y80.527 E12.62325
G1 X70.477 Y80.233 E12.66527
G1 X71.440 Y80.036 E12.70066
G1 X73.000 Y79.895 E12.75705
G1 X77.000 Y79.895 E12.90105
G1 X78.594 Y80.042 E12.95868
G1 X79.400 Y80.205 E12.98826 F2400.000
G1 X80.284 Y80.423 E13.02106
G1 X81.148 Y80.678 E13.05347
G1 X81.915 Y80.941 E13.08268
G1 X82.773 Y81.276 E13.11582
G1 X83.553 Y81.621 E13.14654
G1 X84.390 Y82.036 E13.18017
G1 X85.017 Y82.380 E13.20590
G1 X85.765 Y82.829 E13.23730
G1 X86.555 Y83.352 E13.27142
G1 X87.240 Y83.853 E13.30197
G1 X87.932 Y84.405 E13.33383
G1 X88.484 Y84.882 E13.36010
G1 X89.167 Y85.524 E13.39385
G1 X89.798 Y86.173 E13.42644
G1 X90.367 Y86.812 E13.45723
G1 X90.925 Y87.498 E13.48905
G1 X91.361 Y88.077 E13.51516
G1 X91.860 Y88.800 E13.54678
G1 X92.311 Y89.517 E13.57728
G1 X92.778 Y90.336 E13.61122
G1 X93.169 Y91.102 E13.64216
G1 X93.468 Y91.748 E13.66778
G1 X93.819 Y92.593 E13.70075
G1 X94.140 Y93.478 E13.73464
G1 X94.394 Y94.291 E13.76528
G1 X94.635 Y95.201 E13.79917
G1 X94.817 Y96.037 E13.82999
G1 X94.940 Y96.728 E13.85522
G1 X95.063 Y97.626 E13.88787
G1 X95.142 Y98.488 E13.91902
G1 X95.186 Y99.392 E13.95161
G1 X95.191 Y100.134 E13.97831
G1 X95.161 Y101.040 E14.01097
G1 X95.097 Y101.878 E14.04120
G1 X94.985 Y102.800 E14.07464
G1 X94.830 Y103.720 E14.10824
G1 X94.664 Y104.501 E14.13698
G1 X94.439 Y105.377 E14.16955
G1 X94.177 Y106.236 E14.20186
G1 X93.859 Y107.129 E14.23599
G1 X93.531 Y107.932 E14.26721
G1 X93.235 Y108.584 E14.29299
G1 X92.841 Y109.369 E14.32462
G1 X92.427 Y110.113 E14.35526
G1 X91.960 Y110.871 E14.38731
G1 X91.551 Y111.479 E14.41370
G1 X91.022 Y112.203 E14.44596
G1 X90.480 Y112.878 E14.47711
G1 X89.887 Y113.554 E14.50949
G1 X89.392 Y114.076 E14.53540
G1 X88.730 Y114.718 E14.56860
G1 X88.080 Y115.296 E14.59991
G1 X87.383 Y115.862 E14.63225
G1 X86.793 Y116.303 E14.65876
G1 X86.037 Y116.822 E14.69175
G1 X85.329 Y117.263 E14.72180
G1 X84.513 Y117.724 E14.75552
G1 X83.677 Y118.145 E14.78922
G1 X83.025 Y118.441 E14.81499
G1 X82.200 Y118.778 E14.84707
G1 X81.304 Y119.096 E14.88131
G1 X80.499 Y119.342 E14.91162
G1 X79.615 Y119.570 E14.94448
G1 X78.695 Y119.764 E14.97833
G1 X77.867 Y119.900 E15.00855
G1 X76.978 Y120.008 E15.04076
G1 X76.297 Y120.063 E15.06536
G1 X75.513 Y120.098 E15.09361
G1 X74.682 Y120.102 E15.12354
G1 X73.842 Y120.072 E15.15380
G1 X72.909 Y119.996 E15.18747
G1 X72.012 Y119.883 E15.22004
G1 X71.096 Y119.724 E15.25350
G1 X70.312 Y119.553 E15.28238
G1 X69.454 Y119.328 E15.31432
G1 X68.557 Y119.049 E15.34814
G1 X67.749 Y118.758 E15.37905
G1 X67.089 Y118.491 E15.40467
G1 X66.275 Y118.123 E15.43683
G1 X65.448 Y117.703 E15.47024
G1 X64.723 Y117.294 E15.50021
G1 X64.143 Y116.938 E15.52468
G1 X63.401 Y116.441 E15.55684
G1 X62.704 Y115.929 E15.58798
G1 X61.965 Y115.334 E15.62213
G1 X61.276 Y114.724 E15.65526
G1 X60.757 Y114.226 E15.68116
G1 X60.117 Y113.559 E15.71441
G1 X59.558 Y112.924 E15.74488
G1 X58.982 Y112.207 E15.77797
G1 X58.544 Y111.615 E15.80451
G1 X58.043 Y110.876 E15.83665
G1 X57.540 Y110.056 E15.87129
G1 X57.126 Y109.308 E15.90205
G1 X56.720 Y108.491 E15.93489
G1 X56.340 Y107.628 E15.96884
G1 X56.074 Y106.951 E15.99503
G1 X55.786 Y106.124 E16.02655
G1 X55.518 Y105.223 E16.06036
G1 X55.316 Y104.417 E16.09028
G1 X55.133 Y103.525 E16.12309
G1 X54.991 Y102.629 E16.15574
G1 X54.892 Y101.759 E16.18724
G1 X54.829 Y100.834 E16.22062
G1 X54.807 Y99.965 E16.25193
G1 X54.825 Y99.076 E16.28392
G1 X54.873 Y98.290 E16.31228
G1 X54.962 Y97.419 E16.34378
G1 X55.058 Y96.740 E16.36848
G1 X55.212 Y95.891 E16.39955
G1 X55.411 Y95.013 E16.43193
G1 X55.652 Y94.132 E16.46483
G1 X55.905 Y93.347 E16.49453
G1 X56.230 Y92.468 E16.52827
G1 X56.568 Y91.667 E16.55954
G1 X56.874 Y91.014 E16.58552
G1 X57.291 Y90.210 E16.61813
G1 X57.761 Y89.397 E16.65192
G1 X58.212 Y88.691 E16.68209
G1 X58.741 Y87.938 E16.71522
G1 X59.190 Y87.351 E16.74183
G1 X59.767 Y86.657 E16.77429
G1 X60.354 Y86.011 E16.80573
G1 X60.990 Y85.371 E16.83823
G1 X61.496 Y84.899 E16.86312
G1 X62.140 Y84.344 E16.89373
G1 X62.859 Y83.778 E16.92667
M204 S1500
G1 X63.115 Y84.018 F7800.000
M204 S600
G1 X63.972 Y83.412 E16.96445 F2400.000
G1 X64.786 Y82.896 E16.99914
G1 X65.641 Y82.412 E17.03453
G1 X66.718 Y81.877 E17.07780
G1 X67.581 Y81.505 E17.11164
G1 X68.541 Y81.147 E17.14851
G1 X69.442 Y80.860 E17.18257
G1 X70.557 Y80.570 E17.22401
G1 X71.502 Y80.377 E17.25876
G1 X73.000 Y80.241 E17.31290
G1 X77.000 Y80.241 E17.45690
G1 X78.531 Y80.383 E17.51224
G1 X79.323 Y80.543 E17.54134 F2400.000
G1 X80.192 Y80.757 E17.57357
G1 X81.041 Y81.008 E17.60542
G1 X81.798 Y81.267 E17.63422
G1 X82.640 Y81.596 E17.66678
G1 X83.408 Y81.936 E17.69701
G1 X84.231 Y82.344 E17.73007
G1 X84.843 Y82.680 E17.75521
G1 X85.579 Y83.121 E17.78610
G1 X86.356 Y83.636 E17.81963
G1 X87.031 Y84.129 E17.84975
G1 X87.712 Y84.672 E17.88109
G1 X88.251 Y85.138 E17.90676
G1 X88.922 Y85.769 E17.93992
G1 X89.543 Y86.408 E17.97200
G1 X90.104 Y87.038 E18.00234
G1 X90.653 Y87.712 E18.03365
G1 X91.079 Y88.279 E18.05916
G1 X91.570 Y88.990 E18.09028
G1 X92.015 Y89.696 E18.12033
G1 X92.473 Y90.502 E18.15369
G1 X92.858 Y91.255 E18.18413
G1 X93.150 Y91.886 E18.20917
G1 X93.496 Y92.718 E18.24161
G1 X93.812 Y93.588 E18.27491
G1 X94.062 Y94.388 E18.30511
G1 X94.299 Y95.283 E18.33842
G1 X94.478 Y96.106 E18.36874
G1 X94.597 Y96.780 E18.39340
G1 X94.718 Y97.663 E18.42548
G1 X94.796 Y98.510 E18.45609
G1 X94.840 Y99.400 E18.48816
G1 X94.845 Y100.128 E18.51437
G1 X94.815 Y101.019 E18.54648
G1 X94.752 Y101.843 E18.57622
G1 X94.642 Y102.749 E18.60908
G1 X94.490 Y103.654 E18.64211
G1 X94.327 Y104.424 E18.67043
G1 X94.105 Y105.285 E18.70244
G1 X93.848 Y106.128 E18.73418
G1 X93.535 Y107.006 E18.76775
G1 X93.213 Y107.796 E18.79846
G1 X92.924 Y108.434 E18.82365
G1 X92.536 Y109.206 E18.85477
G1 X92.127 Y109.939 E18.88497
G1 X91.668 Y110.685 E18.91650
G1 X91.268 Y111.279 E18.94230
G1 X90.748 Y111.991 E18.97403
G1 X90.214 Y112.656 E19.00473
G1 X89.631 Y113.322 E19.03659
G1 X89.147 Y113.831 E19.06189
G1 X88.496 Y114.464 E19.09457
G1 X87.855 Y115.033 E19.12543
G1 X87.169 Y115.590 E19.15724
G1 X86.592 Y116.021 E19.18315
G1 X85.848 Y116.531 E19.21562
G1 X85.151 Y116.966 E19.24522
G1 X84.349 Y117.419 E19.27835
G1 X83.526 Y117.834 E19.31153
G1 X82.890 Y118.123 E19.33670
G1 X82.078 Y118.454 E19.36826
G1 X81.197 Y118.766 E19.40191
G1 X80.403 Y119.009 E19.43178
G1 X79.535 Y119.233 E19.46407
G1 X78.630 Y119.424 E19.49735
G1 X77.815 Y119.558 E19.52708
G1 X76.942 Y119.663 E19.55874
G1 X76.277 Y119.717 E19.58276
G1 X75.503 Y119.752 E19.61066
G1 X74.689 Y119.756 E19.63996
G1 X73.863 Y119.726 E19.66973
G1 X72.946 Y119.652 E19.70284
G1 X72.064 Y119.540 E19.73484
G1 X71.164 Y119.384 E19.76773
G1 X70.391 Y119.216 E19.79619
G1 X69.548 Y118.995 E19.82756
G1 X68.666 Y118.721 E19.86082
G1 X67.872 Y118.434 E19.89123
G1 X67.227 Y118.173 E19.91627
G1 X66.426 Y117.811 E19.94792
G1 X65.613 Y117.398 E19.98074
G1 X64.898 Y116.995 E20.01027
G1 X64.331 Y116.647 E20.03422
G1 X63.601 Y116.158 E20.06585
G1 X62.914 Y115.654 E20.09654
G1 X62.188 Y115.069 E20.13010
G1 X61.510 Y114.469 E20.16270
