; generated by Slic3r 1.2.9 on 2017-04-28 at 17:27:13

; external perimeters extrusion width = 0.40mm
; perimeters extrusion width = 0.40mm
; infill extrusion width = 0.40mm
; solid infill extrusion width = 0.40mm
; top infill extrusion width = 0.40mm

M107
M190 S75 ; set bed temperature
M104 S235 ; set temperature
G28 ; home all axes
G1 Z5 F5000 ; lift nozzle

M109 S235 ; wait for temperature to be reached
G21 ; set units to millimeters
G90 ; use absolute coordinates
M82 ; use absolute distances for extrusion
G92 E0
G1 Z0.250 F7800.000
G1 E-3.00000 F2100.00000
G92 E0
G1 X57.978 Y72.453 F7800.000
G1 E3.00000 F2100.00000
M204 S600
G1 X60.339 Y71.181 E3.09654 F2400.000
G1 X63.397 Y70.648 E3.20828
G1 X86.881 Y70.648 E4.05368
G1 X89.533 Y71.046 E4.15021
G1 X91.951 Y72.205 E4.24675 F2400.000
G1 X93.924 Y74.021 E4.34329
G1 X95.276 Y76.337 E4.43982
G1 X95.920 Y79.687 E4.56264
G1 X95.920 Y88.563 E4.88216
G1 X95.706 Y120.383 E6.02766
G1 X95.288 Y123.032 E6.12420
G1 X94.110 Y125.441 E6.22073
G1 X92.278 Y127.399 E6.31727
G1 X89.952 Y128.734 E6.41381
G1 X86.667 Y129.352 E6.53412
G1 X63.183 Y129.352 E7.37952
G1 X60.531 Y128.954 E7.47606
G1 X58.113 Y127.795 E7.57260
G1 X56.140 Y125.978 E7.66913
G1 X54.788 Y123.663 E7.76567
G1 X54.144 Y120.385 E7.88592
G1 X53.977 Y99.569 E8.63529
G1 X53.977 Y90.677 E8.95541
G1 X54.363 Y79.375 E9.36250
G1 X54.852 Y76.738 E9.45904
G1 X56.094 Y74.361 E9.55558
G1 X57.936 Y72.496 E9.64995
M204 S1500
G1 X58.234 Y72.713 F7800.000
M204 S600
G1 X58.309 Y72.639 E9.65375 F2400.000
G1 X60.649 Y71.440 E9.74841
G1 X63.397 Y70.995 E9.84860
G1 X86.881 Y70.995 E10.69401
G1 X89.480 Y71.392 E10.78866
G1 X91.841 Y72.549 E10.88332 F2400.000
G1 X93.749 Y74.359 E10.97798
G1 X95.028 Y76.656 E11.07264
G1 X95.573 Y79.687 E11.18350
G1 X95.573 Y88.561 E11.50295
G1 X95.360 Y120.381 E12.64843
G1 X94.942 Y122.977 E12.74309
G1 X93.767 Y125.329 E12.83775
G1 X91.942 Y127.222 E12.93241
G1 X89.635 Y128.483 E13.02707
G1 X86.667 Y129.005 E13.13552
G1 X63.183 Y129.005 E13.98092
G1 X60.584 Y128.608 E14.07558
G1 X58.223 Y127.451 E14.17024
G1 X56.315 Y125.641 E14.26490
G1 X55.036 Y123.344 E14.35956
G1 X54.491 Y120.382 E14.46795
G1 X54.324 Y99.566 E15.21732
G1 X54.329 Y90.376 E15.54817
G1 X54.709 Y79.387 E15.94400
G1 X55.197 Y76.803 E16.03866
G1 X56.434 Y74.483 E16.13332
G1 X58.191 Y72.755 E16.22202
M204 S1500
G1 X58.485 Y72.977 F7800.000
M204 S600
G1 X58.639 Y72.830 E16.22970 F2400.000
G1 X60.958 Y71.705 E16.32244
G1 X63.397 Y71.341 E16.41122
G1 X86.881 Y71.341 E17.25662
G1 X89.426 Y71.739 E17.34936
G1 X91.729 Y72.894 E17.44211 F2400.000
G1 X93.570 Y74.696 E17.53485
G1 X94.774 Y76.974 E17.62759
G1 X95.227 Y79.687 E17.72664
G1 X95.227 Y88.559 E18.04601
G1 X95.013 Y120.378 E19.19147
G1 X94.596 Y122.920 E19.28421
G1 X93.423 Y125.214 E19.37696
G1 X91.607 Y127.041 E19.46970
G1 X89.319 Y128.226 E19.56244
G1 X86.667 Y128.659 E19.65917
G1 X63.183 Y128.659 E20.50457
G1 X60.638 Y128.261 E20.59732
G1 X58.335 Y127.106 E20.69006
G1 X56.494 Y125.304 E20.78280
G1 X55.290 Y123.026 E20.87554
G1 X54.837 Y120.379 E20.97221
G1 X54.670 Y99.564 E21.72158
G1 X54.675 Y90.388 E22.05190
G1 X55.055 Y79.399 E22.44773
G1 X55.541 Y76.869 E22.54048
G1 X56.775 Y74.607 E22.63322
G1 X58.442 Y73.018 E22.71612
M204 S1500
G1 E19.71612 F2100.00000
G92 E0
G1 X83.643 Y118.103 F7800.000
G1 E3.00000 F2100.00000
M204 S600
G1 X65.393 Y118.103 E3.65696 F2400.000
G1 X65.393 Y113.702 E3.81537
G1 X83.643 Y113.702 E4.47233
G1 X83.643 Y118.043 E4.62857
M204 S1500
G1 X83.296 Y117.756 F7800.000
M204 S600
G1 X65.739 Y117.756 E5.26060 F2400.000
G1 X65.739 Y114.049 E5.39406
G1 X83.296 Y114.049 E6.02609
G1 X83.296 Y117.696 E6.15740
M204 S1500
G1 X83.296 Y118.156 F7800.000
G1 X86.121 Y119.766 F7800.000
M204 S600
G1 X63.730 Y119.766 E6.96346 F2400.000
G1 X63.730 Y112.039 E7.24163
G1 X86.121 Y112.039 E8.04770
G1 X86.121 Y119.706 E8.32371
M204 S1500
G1 X86.467 Y120.113 F7800.000
M204 S600
G1 X63.383 Y120.113 E9.15472 F2400.000
G1 X63.383 Y111.693 E9.45783
G1 X86.467 Y111.693 E10.28883
G1 X86.467 Y120.053 E10.58978
M204 S1500
G1 X86.121 Y119.913 F7800.000
G1 E7.58978 F2100.00000
G92 E0
G1 X83.844 Y118.199 F7800.000
G1 E3.00000 F2100.00000
M204 S600
G1 X85.210 Y119.565 E3.06968 F2400.000
G1 X85.701 Y119.565 E3.08736
G1 X83.844 Y117.708 E3.18205
G1 X83.844 Y117.218 E3.19973
G1 X85.920 Y119.294 E3.30560
G1 X85.920 Y118.804 E3.32329
G1 X83.844 Y116.727 E3.42916
G1 X83.844 Y116.237 E3.44684
G1 X85.920 Y118.313 E3.55271
G1 X85.920 Y117.823 E3.57040
G1 X83.844 Y115.746 E3.67627
G1 X83.844 Y115.256 E3.69395
G1 X85.920 Y117.332 E3.79982
G1 X85.920 Y116.842 E3.81751
G1 X83.844 Y114.765 E3.92338
G1 X83.844 Y114.274 E3.94106
G1 X85.920 Y116.351 E4.04694
G1 X85.920 Y115.860 E4.06462
G1 X83.844 Y113.784 E4.17049
M204 S1500
G1 X83.561 Y113.502 F7800.000
M204 S600
G1 X82.299 Y112.240 E4.23482 F2400.000
G1 X82.790 Y112.240 E4.25250
G1 X85.920 Y115.370 E4.41209
G1 X85.920 Y114.879 E4.42978
G1 X83.281 Y112.240 E4.56436
G1 X83.771 Y112.240 E4.58204
G1 X85.920 Y114.389 E4.69161
G1 X85.920 Y113.898 E4.70929
G1 X84.262 Y112.240 E4.79385
G1 X84.752 Y112.240 E4.81154
G1 X85.920 Y113.408 E4.87109
G1 X85.920 Y112.917 E4.88877
G1 X85.243 Y112.240 E4.92331
G1 X85.733 Y112.240 E4.94100
G1 X85.920 Y112.427 E4.95053
M204 S1500
G1 X83.071 Y113.502 F7800.000
M204 S600
G1 X81.809 Y112.240 E5.01486 F2400.000
G1 X81.318 Y112.240 E5.03254
G1 X82.580 Y113.502 E5.09687
G1 X82.090 Y113.502 E5.11456
G1 X80.828 Y112.240 E5.17889
G1 X80.337 Y112.240 E5.19657
G1 X81.599 Y113.502 E5.26090
G1 X81.109 Y113.502 E5.27858
G1 X79.847 Y112.240 E5.34291
G1 X79.356 Y112.240 E5.36060
G1 X80.618 Y113.502 E5.42493
G1 X80.127 Y113.502 E5.44261
G1 X78.866 Y112.240 E5.50694
G1 X78.375 Y112.240 E5.52462
G1 X79.637 Y113.502 E5.58895
G1 X79.146 Y113.502 E5.60664
G1 X77.885 Y112.240 E5.67097
G1 X77.394 Y112.240 E5.68865
G1 X78.656 Y113.502 E5.75298
G1 X78.165 Y113.502 E5.77066
G1 X76.904 Y112.240 E5.83499
G1 X76.413 Y112.240 E5.85268
G1 X77.675 Y113.502 E5.91701
G1 X77.184 Y113.502 E5.93469
G1 X75.923 Y112.240 E5.99902
G1 X75.432 Y112.240 E6.01670
G1 X76.694 Y113.502 E6.08103
G1 X76.203 Y113.502 E6.09872
G1 X74.941 Y112.240 E6.16304
G1 X74.451 Y112.240 E6.18073
G1 X75.713 Y113.502 E6.24506
G1 X75.222 Y113.502 E6.26274
G1 X73.960 Y112.240 E6.32707
G1 X73.470 Y112.240 E6.34476
G1 X74.732 Y113.502 E6.40908
G1 X74.241 Y113.502 E6.42677
G1 X72.979 Y112.240 E6.49110
G1 X72.489 Y112.240 E6.50878
G1 X73.751 Y113.502 E6.57311
G1 X73.260 Y113.502 E6.59080
G1 X71.998 Y112.240 E6.65512
G1 X71.508 Y112.240 E6.67281
G1 X72.770 Y113.502 E6.73714
G1 X72.279 Y113.502 E6.75482
G1 X71.017 Y112.240 E6.81915
G1 X70.527 Y112.240 E6.83684
G1 X71.788 Y113.502 E6.90116
G1 X71.298 Y113.502 E6.91885
G1 X70.036 Y112.240 E6.98318
G1 X69.546 Y112.240 E7.00086
G1 X70.807 Y113.502 E7.06519
G1 X70.317 Y113.502 E7.08287
G1 X69.055 Y112.240 E7.14720
G1 X68.565 Y112.240 E7.16489
G1 X69.826 Y113.502 E7.22922
G1 X69.336 Y113.502 E7.24690
G1 X68.074 Y112.240 E7.31123
G1 X67.584 Y112.240 E7.32891
G1 X68.845 Y113.502 E7.39324
G1 X68.355 Y113.502 E7.41093
G1 X67.093 Y112.240 E7.47526
G1 X66.602 Y112.240 E7.49294
G1 X67.864 Y113.502 E7.55727
G1 X67.374 Y113.502 E7.57495
G1 X66.112 Y112.240 E7.63928
G1 X65.621 Y112.240 E7.65697
G1 X66.883 Y113.502 E7.72130
G1 X66.393 Y113.502 E7.73898
G1 X65.131 Y112.240 E7.80331
G1 X64.640 Y112.240 E7.82099
G1 X65.902 Y113.502 E7.88532
G1 X65.412 Y113.502 E7.90301
G1 X64.150 Y112.240 E7.96734
G1 X63.930 Y112.511 E7.97991
G1 X65.192 Y113.773 E8.04424
G1 X65.192 Y114.263 E8.06192
G1 X63.930 Y113.002 E8.12625
G1 X63.930 Y113.492 E8.14394
G1 X65.192 Y114.754 E8.20827
G1 X65.192 Y115.244 E8.22595
G1 X63.930 Y113.983 E8.29028
G1 X63.930 Y114.473 E8.30796
G1 X65.192 Y115.735 E8.37229
G1 X65.192 Y116.225 E8.38998
G1 X63.930 Y114.964 E8.45431
G1 X63.930 Y115.454 E8.47199
G1 X65.192 Y116.716 E8.53632
G1 X65.192 Y117.206 E8.55400
G1 X63.930 Y115.945 E8.61833
G1 X63.930 Y116.435 E8.63602
G1 X65.192 Y117.697 E8.70035
M204 S1500
G1 X64.117 Y119.565 F7800.000
M204 S600
G1 X63.930 Y119.378 E8.70987 F2400.000
G1 X63.930 Y118.888 E8.72756
G1 X64.608 Y119.565 E8.76210
G1 X65.098 Y119.565 E8.77978
G1 X63.930 Y118.397 E8.83933
G1 X63.930 Y117.907 E8.85701
G1 X65.589 Y119.565 E8.94157
G1 X66.079 Y119.565 E8.95926
G1 X63.930 Y117.416 E9.06882
G1 X63.930 Y116.926 E9.08651
G1 X66.570 Y119.565 E9.22108
G1 X67.061 Y119.565 E9.23877
G1 X65.799 Y118.304 E9.30310
G1 X66.289 Y118.304 E9.32078
G1 X67.551 Y119.565 E9.38511
G1 X68.042 Y119.565 E9.40280
G1 X66.780 Y118.304 E9.46713
G1 X67.270 Y118.304 E9.48481
G1 X68.532 Y119.565 E9.54914
G1 X69.023 Y119.565 E9.56682
G1 X67.761 Y118.304 E9.63115
G1 X68.251 Y118.304 E9.64884
G1 X69.513 Y119.565 E9.71317
G1 X70.004 Y119.565 E9.73085
G1 X68.742 Y118.304 E9.79518
G1 X69.233 Y118.304 E9.81287
G1 X70.494 Y119.565 E9.87720
G1 X70.985 Y119.565 E9.89488
G1 X69.723 Y118.304 E9.95921
G1 X70.214 Y118.304 E9.97689
G1 X71.475 Y119.565 E10.04122
G1 X71.966 Y119.565 E10.05891
G1 X70.704 Y118.304 E10.12324
G1 X71.195 Y118.304 E10.14092
G1 X72.456 Y119.565 E10.20525
G1 X72.947 Y119.565 E10.22294
G1 X71.685 Y118.304 E10.28727
G1 X72.176 Y118.304 E10.30495
G1 X73.437 Y119.565 E10.36928
G1 X73.928 Y119.565 E10.38697
G1 X72.666 Y118.304 E10.45129
G1 X73.157 Y118.304 E10.46898
G1 X74.419 Y119.565 E10.53331
G1 X74.909 Y119.565 E10.55099
G1 X73.647 Y118.304 E10.61532
G1 X74.138 Y118.304 E10.63301
G1 X75.400 Y119.565 E10.69734
G1 X75.890 Y119.565 E10.71502
G1 X74.628 Y118.304 E10.77935
G1 X75.119 Y118.304 E10.79704
G1 X76.381 Y119.565 E10.86136
G1 X76.871 Y119.565 E10.87905
G1 X75.609 Y118.304 E10.94338
G1 X76.100 Y118.304 E10.96106
G1 X77.362 Y119.565 E11.02539
G1 X77.852 Y119.565 E11.04308
G1 X76.590 Y118.304 E11.10741
G1 X77.081 Y118.304 E11.12509
G1 X78.343 Y119.565 E11.18942
G1 X78.833 Y119.565 E11.20711
G1 X77.572 Y118.304 E11.27143
G1 X78.062 Y118.304 E11.28912
G1 X79.324 Y119.565 E11.35345
G1 X79.814 Y119.565 E11.37113
G1 X78.553 Y118.304 E11.43546
G1 X79.043 Y118.304 E11.45315
G1 X80.305 Y119.565 E11.51748
G1 X80.795 Y119.565 E11.53516
G1 X79.534 Y118.304 E11.59949
G1 X80.024 Y118.304 E11.61718
G1 X81.286 Y119.565 E11.68150
G1 X81.776 Y119.565 E11.69919
G1 X80.515 Y118.304 E11.76352
G1 X81.005 Y118.304 E11.78120
G1 X82.267 Y119.565 E11.84553
G1 X82.758 Y119.565 E11.86322
G1 X81.496 Y118.304 E11.92755
G1 X81.986 Y118.304 E11.94523
G1 X83.248 Y119.565 E12.00956
G1 X83.739 Y119.565 E12.02725
G1 X82.477 Y118.304 E12.09157
G1 X82.967 Y118.304 E12.10926
G1 X84.229 Y119.565 E12.17359
G1 X84.720 Y119.565 E12.19127
G1 X83.458 Y118.304 E12.25560
M204 S1500
G1 E9.25560 F2100.00000
G92 E0
G1 X83.721 Y108.040 F7800.000
G1 E3.00000 F2100.00000
M204 S600
G1 X65.472 Y108.040 E3.65696 F2400.000
G1 X65.472 Y103.640 E3.81537
G1 X83.721 Y103.640 E4.47233
G1 X83.721 Y107.980 E4.62857
M204 S1500
G1 X83.375 Y107.694 F7800.000
M204 S600
G1 X65.818 Y107.694 E5.26060 F2400.000
G1 X65.818 Y103.986 E5.39406
G1 X83.375 Y103.986 E6.02609
G1 X83.375 Y107.634 E6.15739
M204 S1500
G1 X83.375 Y108.094 F7800.000
G1 X86.200 Y109.704 F7800.000
M204 S600
G1 X63.808 Y109.704 E6.96346 F2400.000
G1 X63.808 Y101.977 E7.24163
G1 X86.200 Y101.977 E8.04770
G1 X86.200 Y109.644 E8.32371
M204 S1500
G1 X86.546 Y110.050 F7800.000
M204 S600
G1 X63.462 Y110.050 E9.15472 F2400.000
G1 X63.462 Y101.630 E9.45783
G1 X86.546 Y101.630 E10.28883
G1 X86.546 Y109.990 E10.58978
M204 S1500
G1 X86.200 Y109.850 F7800.000
G1 E7.58978 F2100.00000
G92 E0
G1 X83.922 Y108.136 F7800.000
G1 E3.00000 F2100.00000
M204 S600
G1 X85.289 Y109.503 E3.06968 F2400.000
G1 X85.779 Y109.503 E3.08736
G1 X83.922 Y107.646 E3.18204
G1 X83.922 Y107.155 E3.19973
G1 X85.999 Y109.232 E3.30560
G1 X85.999 Y108.741 E3.32328
G1 X83.922 Y106.665 E3.42916
G1 X83.922 Y106.174 E3.44684
G1 X85.999 Y108.251 E3.55271
G1 X85.999 Y107.760 E3.57040
G1 X83.922 Y105.684 E3.67627
G1 X83.922 Y105.193 E3.69395
G1 X85.999 Y107.270 E3.79982
G1 X85.999 Y106.779 E3.81751
G1 X83.922 Y104.703 E3.92338
G1 X83.922 Y104.212 E3.94106
G1 X85.999 Y106.289 E4.04693
G1 X85.999 Y105.798 E4.06462
G1 X83.922 Y103.722 E4.17049
M204 S1500
G1 X83.640 Y103.439 F7800.000
M204 S600
G1 X82.378 Y102.177 E4.23482 F2400.000
G1 X82.869 Y102.177 E4.25250
G1 X85.999 Y105.308 E4.41209
G1 X85.999 Y104.817 E4.42978
G1 X83.359 Y102.177 E4.56435
G1 X83.850 Y102.177 E4.58204
G1 X85.999 Y104.326 E4.69161
G1 X85.999 Y103.836 E4.70929
G1 X84.340 Y102.177 E4.79385
G1 X84.831 Y102.177 E4.81154
G1 X85.999 Y103.345 E4.87109
G1 X85.999 Y102.855 E4.88877
G1 X85.321 Y102.177 E4.92331
G1 X85.812 Y102.177 E4.94100
G1 X85.999 Y102.364 E4.95053
M204 S1500
G1 X83.149 Y103.439 F7800.000
M204 S600
G1 X81.888 Y102.177 E5.01486 F2400.000
G1 X81.397 Y102.177 E5.03254
G1 X82.659 Y103.439 E5.09687
G1 X82.168 Y103.439 E5.11455
G1 X80.907 Y102.177 E5.17888
G1 X80.416 Y102.177 E5.19657
G1 X81.678 Y103.439 E5.26090
G1 X81.187 Y103.439 E5.27858
G1 X79.925 Y102.177 E5.34291
G1 X79.435 Y102.177 E5.36059
G1 X80.697 Y103.439 E5.42492
G1 X80.206 Y103.439 E5.44261
G1 X78.944 Y102.177 E5.50694
G1 X78.454 Y102.177 E5.52462
G1 X79.716 Y103.439 E5.58895
G1 X79.225 Y103.439 E5.60663
G1 X77.963 Y102.177 E5.67096
G1 X77.473 Y102.177 E5.68865
G1 X78.735 Y103.439 E5.75298
G1 X78.244 Y103.439 E5.77066
G1 X76.982 Y102.177 E5.83499
G1 X76.492 Y102.177 E5.85267
G1 X77.753 Y103.439 E5.91700
G1 X77.263 Y103.439 E5.93469
G1 X76.001 Y102.177 E5.99902
G1 X75.511 Y102.177 E6.01670
G1 X76.772 Y103.439 E6.08103
G1 X76.282 Y103.439 E6.09871
G1 X75.020 Y102.177 E6.16304
G1 X74.530 Y102.177 E6.18073
G1 X75.791 Y103.439 E6.24505
G1 X75.301 Y103.439 E6.26274
G1 X74.039 Y102.177 E6.32707
G1 X73.549 Y102.177 E6.34475
G1 X74.810 Y103.439 E6.40908
G1 X74.320 Y103.439 E6.42677
G1 X73.058 Y102.177 E6.49109
G1 X72.568 Y102.177 E6.50878
G1 X73.829 Y103.439 E6.57311
G1 X73.339 Y103.439 E6.59079
G1 X72.077 Y102.177 E6.65512
G1 X71.586 Y102.177 E6.67281
G1 X72.848 Y103.439 E6.73713
G1 X72.358 Y103.439 E6.75482
G1 X71.096 Y102.177 E6.81915
G1 X70.605 Y102.177 E6.83683
G1 X71.867 Y103.439 E6.90116
G1 X71.377 Y103.439 E6.91884
G1 X70.115 Y102.177 E6.98317
G1 X69.624 Y102.177 E7.00086
G1 X70.886 Y103.439 E7.06519
G1 X70.396 Y103.439 E7.08287
G1 X69.134 Y102.177 E7.14720
G1 X68.643 Y102.177 E7.16488
G1 X69.905 Y103.439 E7.22921
G1 X69.414 Y103.439 E7.24690
G1 X68.153 Y102.177 E7.31123
G1 X67.662 Y102.177 E7.32891
G1 X68.924 Y103.439 E7.39324
G1 X68.433 Y103.439 E7.41092
G1 X67.172 Y102.177 E7.47525
G1 X66.681 Y102.177 E7.49294
G1 X67.943 Y103.439 E7.55727
G1 X67.452 Y103.439 E7.57495
G1 X66.191 Y102.177 E7.63928
G1 X65.700 Y102.177 E7.65696
G1 X66.962 Y103.439 E7.72129
G1 X66.471 Y103.439 E7.73898
G1 X65.210 Y102.177 E7.80331
G1 X64.719 Y102.177 E7.82099
G1 X65.981 Y103.439 E7.88532
G1 X65.490 Y103.439 E7.90300
G1 X64.229 Y102.177 E7.96733
G1 X64.009 Y102.449 E7.97991
G1 X65.271 Y103.710 E8.04424
G1 X65.271 Y104.201 E8.06192
G1 X64.009 Y102.939 E8.12625
G1 X64.009 Y103.430 E8.14393
G1 X65.271 Y104.691 E8.20826
G1 X65.271 Y105.182 E8.22595
G1 X64.009 Y103.920 E8.29027
G1 X64.009 Y104.411 E8.30796
G1 X65.271 Y105.672 E8.37229
G1 X65.271 Y106.163 E8.38997
G1 X64.009 Y104.901 E8.45430
G1 X64.009 Y105.392 E8.47199
G1 X65.271 Y106.653 E8.53631
G1 X65.271 Y107.144 E8.55400
G1 X64.009 Y105.882 E8.61833
G1 X64.009 Y106.373 E8.63601
G1 X65.271 Y107.635 E8.70034
M204 S1500
G1 X64.196 Y109.503 F7800.000
M204 S600
G1 X64.009 Y109.316 E8.70987 F2400.000
G1 X64.009 Y108.825 E8.72755
G1 X64.687 Y109.503 E8.76209
G1 X65.177 Y109.503 E8.77978
G1 X64.009 Y108.335 E8.83933
G1 X64.009 Y107.844 E8.85701
G1 X65.668 Y109.503 E8.94157
G1 X66.158 Y109.503 E8.95925
G1 X64.009 Y107.354 E9.06882
G1 X64.009 Y106.863 E9.08650
G1 X66.649 Y109.503 E9.22108
G1 X67.139 Y109.503 E9.23876
G1 X65.878 Y108.241 E9.30309
G1 X66.368 Y108.241 E9.32078
G1 X67.630 Y109.503 E9.38511
G1 X68.120 Y109.503 E9.40279
G1 X66.859 Y108.241 E9.46712
G1 X67.349 Y108.241 E9.48480
G1 X68.611 Y109.503 E9.54913
G1 X69.101 Y109.503 E9.56682
G1 X67.840 Y108.241 E9.63115
G1 X68.330 Y108.241 E9.64883
G1 X69.592 Y109.503 E9.71316
G1 X70.082 Y109.503 E9.73084
G1 X68.821 Y108.241 E9.79517
G1 X69.311 Y108.241 E9.81286
