; generated by Slic3r 1.2.9 on 2017-04-28 at 17:28:49

; external perimeters extrusion width = 0.40mm
; perimeters extrusion width = 0.40mm
; infill extrusion width = 0.40mm
; solid infill extrusion width = 0.40mm
; top infill extrusion width = 0.40mm

M107
M190 S75 ; set bed temperature
M104 S235 ; set temperature
G28 ; home all axes
G1 Z5 F5000 ; lift nozzle

M109 S235 ; wait for temperature to be reached
G21 ; set units to millimeters
G90 ; use absolute coordinates
M82 ; use absolute distances for extrusion
G92 E0
G1 Z0.250 F7800.000
G1 E-3.00000 F2100.00000
G92 E0
G1 X52.073 Y70.024 F7800.000
G1 E3.00000 F2100.00000
M204 S600
G1 X52.742 Y69.527 E3.02998 F2400.000
G1 X55.268 Y68.628 E3.12652
G1 X57.000 Y68.461 E3.18915
G1 X89.036 Y68.461 E4.34242
G1 X91.688 Y68.859 E4.43896
G1 X94.107 Y70.017 E4.53549 F2400.000
G1 X96.079 Y71.834 E4.63203
G1 X97.471 Y74.249 E4.73237
G1 X98.076 Y76.925 E4.83113
G1 X98.050 Y78.485 E4.88731
G1 X94.280 Y114.988 E6.20835
G1 X93.229 Y123.581 E6.51999
G1 X93.026 Y124.619 E6.55805
G1 X92.018 Y127.104 E6.65459
G1 X90.325 Y129.183 E6.75113
G1 X88.097 Y130.675 E6.84766
G1 X84.239 Y131.539 E6.98996
G1 X64.000 Y131.539 E7.71855
G1 X61.348 Y131.141 E7.81509
G1 X58.929 Y129.983 E7.91163
G1 X56.957 Y128.166 E8.00816
G1 X55.605 Y125.850 E8.10470
G1 X55.069 Y123.895 E8.17768
G1 X48.142 Y79.550 E9.79342
G1 X48.016 Y78.500 E9.83149
G1 X48.118 Y75.820 E9.92802
G1 X49.002 Y73.288 E10.02456
G1 X50.590 Y71.127 E10.12109
G1 X52.025 Y70.060 E10.18549
M204 S1500
G1 X52.279 Y70.313 F7800.000
M204 S600
G1 X53.086 Y69.738 E10.22116 F2400.000
G1 X55.586 Y68.923 E10.31582
G1 X57.000 Y68.807 E10.36688
G1 X89.036 Y68.807 E11.52015
G1 X91.636 Y69.205 E11.61481
G1 X93.997 Y70.362 E11.70947 F2400.000
G1 X95.905 Y72.172 E11.80413
G1 X97.170 Y74.432 E11.89738
G1 X97.734 Y77.000 E11.99204
G1 X97.706 Y78.450 E12.04423
G1 X93.936 Y114.946 E13.36504
G1 X92.886 Y123.534 E13.67652
G1 X92.690 Y124.538 E13.71331
G1 X91.694 Y126.971 E13.80797
G1 X90.016 Y128.996 E13.90263
G1 X87.809 Y130.426 E13.99729
G1 X84.239 Y131.193 E14.12874
G1 X64.000 Y131.193 E14.85733
G1 X61.401 Y130.795 E14.95199
G1 X59.039 Y129.638 E15.04664
G1 X57.132 Y127.828 E15.14130
G1 X55.853 Y125.531 E15.23596
G1 X55.411 Y123.842 E15.29882
G1 X48.484 Y79.496 E16.91456
G1 X48.361 Y78.461 E16.95207
G1 X48.468 Y75.834 E17.04673
G1 X49.357 Y73.359 E17.14139
G1 X50.945 Y71.263 E17.23605
G1 X52.230 Y70.348 E17.29287
M204 S1500
G1 X52.477 Y70.604 F7800.000
M204 S600
G1 X53.430 Y69.956 E17.33436 F2400.000
G1 X57.000 Y69.154 E17.46608
G1 X89.036 Y69.154 E18.61936
G1 X91.582 Y69.551 E18.71210
G1 X93.885 Y70.706 E18.80484 F2400.000
G1 X95.726 Y72.508 E18.89758
G1 X96.847 Y74.557 E18.98164
G1 X97.391 Y77.075 E19.07438
G1 X97.361 Y78.414 E19.12262
G1 X93.592 Y114.904 E20.44319
G1 X92.542 Y123.488 E20.75450
G1 X92.353 Y124.456 E20.79003
G1 X91.370 Y126.838 E20.88277
G1 X89.707 Y128.806 E20.97551
G1 X87.524 Y130.173 E21.06826
G1 X84.239 Y130.846 E21.18896
G1 X64.000 Y130.846 E21.91755
G1 X61.455 Y130.449 E22.01029
G1 X59.152 Y129.294 E22.10303
G1 X57.311 Y127.492 E22.19578
G1 X56.107 Y125.214 E22.28852
G1 X55.754 Y123.788 E22.34139
G1 X48.826 Y79.443 E23.95714
G1 X48.705 Y78.423 E23.99410
G1 X48.818 Y75.849 E24.08684
G1 X49.712 Y73.433 E24.17959
G1 X51.299 Y71.404 E24.27233
G1 X52.427 Y70.637 E24.32142
M204 S1500
G1 E21.32142 F2100.00000
G92 E0
G1 X81.018 Y117.797 F7800.000
G1 E3.00000 F2100.00000
M204 S600
G1 X80.926 Y117.883 E3.00456 F2400.000
G1 X80.442 Y118.149 E3.02441
G1 X79.908 Y118.286 E3.04427
G1 X79.356 Y118.286 E3.06413
G1 X78.822 Y118.149 E3.08399
G1 X78.339 Y117.883 E3.10385
G1 X77.937 Y117.506 E3.12371
G1 X77.641 Y117.040 E3.14357
G1 X77.471 Y116.515 E3.16342
G1 X77.436 Y115.965 E3.18328
G1 X77.539 Y115.423 E3.20314
G1 X77.774 Y114.924 E3.22300
G1 X78.126 Y114.499 E3.24286
G1 X78.572 Y114.174 E3.26272
G1 X79.085 Y113.971 E3.28257
G1 X79.616 Y113.904 E3.30183 F2400.000
G1 X80.177 Y113.971 E3.32219
G1 X80.693 Y114.174 E3.34213
G1 X81.139 Y114.499 E3.36199
G1 X81.490 Y114.924 E3.38185
G1 X81.725 Y115.423 E3.40171
G1 X81.829 Y115.965 E3.42157
G1 X81.794 Y116.515 E3.44143
G1 X81.624 Y117.040 E3.46128
G1 X81.328 Y117.506 E3.48114
G1 X81.062 Y117.756 E3.49428
M204 S1500
G1 X80.781 Y117.544 F7800.000
M204 S600
G1 X80.721 Y117.601 E3.49727 F2400.000
G1 X80.314 Y117.824 E3.51397
G1 X79.864 Y117.940 E3.53068
G1 X79.400 Y117.940 E3.54739
G1 X78.951 Y117.824 E3.56410
G1 X78.544 Y117.601 E3.58081
G1 X78.206 Y117.283 E3.59752
G1 X77.957 Y116.891 E3.61422
G1 X77.814 Y116.450 E3.63093
G1 X77.784 Y115.987 E3.64764
G1 X77.871 Y115.531 E3.66435
G1 X78.069 Y115.111 E3.68106
G1 X78.365 Y114.753 E3.69776
G1 X78.740 Y114.480 E3.71447
G1 X79.172 Y114.309 E3.73118
G1 X79.617 Y114.253 E3.74734 F2400.000
G1 X80.092 Y114.309 E3.76455
G1 X80.524 Y114.480 E3.78129
G1 X80.900 Y114.753 E3.79800
G1 X81.196 Y115.111 E3.81471
G1 X81.393 Y115.531 E3.83141
G1 X81.480 Y115.987 E3.84812
G1 X81.451 Y116.450 E3.86483
G1 X81.308 Y116.891 E3.88154
G1 X81.059 Y117.283 E3.89825
G1 X80.825 Y117.503 E3.90981
M204 S1500
G1 X80.800 Y117.625 F7800.000
G1 E0.90981 F2100.00000
G92 E0
G1 X72.736 Y116.515 F7800.000
G1 E3.00000 F2100.00000
M204 S600
G1 X72.566 Y117.040 E3.01986 F2400.000
G1 X72.270 Y117.506 E3.03972
G1 X71.868 Y117.883 E3.05958
G1 X71.385 Y118.149 E3.07943
G1 X70.850 Y118.286 E3.09929
G1 X70.299 Y118.286 E3.11915
G1 X69.765 Y118.149 E3.13901
G1 X69.281 Y117.883 E3.15887
G1 X68.879 Y117.506 E3.17873
G1 X68.583 Y117.040 E3.19858
G1 X68.413 Y116.515 E3.21844
G1 X68.378 Y115.965 E3.23830
G1 X68.479 Y115.439 E3.25756
G1 X68.715 Y114.925 E3.27792
G1 X69.068 Y114.499 E3.29786
G1 X69.514 Y114.174 E3.31772
G1 X70.027 Y113.971 E3.33758
G1 X70.558 Y113.904 E3.35684 F2400.000
G1 X71.120 Y113.971 E3.37720
G1 X71.635 Y114.174 E3.39714
G1 X72.081 Y114.499 E3.41700
G1 X72.433 Y114.924 E3.43685
G1 X72.661 Y115.408 E3.45611
G1 X72.771 Y115.962 E3.47647
G1 X72.740 Y116.455 E3.49425
M204 S1500
G1 X72.393 Y116.450 F7800.000
M204 S600
G1 X72.250 Y116.891 E3.51096 F2400.000
G1 X72.001 Y117.283 E3.52767
G1 X71.663 Y117.601 E3.54438
G1 X71.256 Y117.824 E3.56109
G1 X70.807 Y117.940 E3.57779
G1 X70.343 Y117.940 E3.59450
G1 X69.893 Y117.824 E3.61121
G1 X69.486 Y117.601 E3.62792
G1 X69.148 Y117.283 E3.64463
G1 X68.899 Y116.891 E3.66134
G1 X68.756 Y116.450 E3.67804
G1 X68.727 Y115.987 E3.69475
G1 X68.811 Y115.546 E3.71092
G1 X69.011 Y115.111 E3.72812
G1 X69.307 Y114.753 E3.74486
G1 X69.683 Y114.480 E3.76157
G1 X70.114 Y114.309 E3.77828
G1 X70.560 Y114.253 E3.79444 F2400.000
G1 X71.034 Y114.309 E3.81165
G1 X71.467 Y114.480 E3.82839
G1 X71.842 Y114.753 E3.84509
G1 X72.138 Y115.111 E3.86180
G1 X72.329 Y115.517 E3.87797
G1 X72.423 Y115.986 E3.89517
G1 X72.397 Y116.390 E3.90975
M204 S1500
G1 X72.685 Y116.724 F7800.000
G1 E0.90975 F2100.00000
G92 E0
G1 X64.468 Y121.954 F7800.000
G1 E3.00000 F2100.00000
M204 S600
G1 X64.144 Y119.872 E3.07583 F2400.000
G1 X64.036 Y118.824 E3.11375
G1 X64.036 Y117.785 E3.15117
G1 X64.141 Y116.766 E3.18806
G1 X64.355 Y115.733 E3.22602
G1 X64.670 Y114.743 E3.26341
G1 X65.093 Y113.778 E3.30135
G1 X65.584 Y112.906 E3.33736
G1 X66.213 Y112.021 E3.37646
G1 X66.872 Y111.268 E3.41249
G1 X67.645 Y110.547 E3.45056
G1 X79.387 Y100.695 E4.00231
G1 X80.128 Y99.995 E4.03902
G1 X80.791 Y99.199 E4.07630
G1 X81.357 Y98.332 E4.11359
G1 X81.816 Y97.403 E4.15088
G1 X82.162 Y96.427 E4.18816
G1 X82.392 Y95.417 E4.22545
G1 X82.500 Y94.387 E4.26274
G1 X82.486 Y93.351 E4.30002
G1 X82.351 Y92.324 E4.33731
G1 X82.095 Y91.321 E4.37460
G1 X81.723 Y90.354 E4.41188
G1 X81.240 Y89.438 E4.44917
G1 X80.651 Y88.585 E4.48646
G1 X79.961 Y87.802 E4.52403
G1 X79.193 Y87.114 E4.56115
G1 X78.344 Y86.518 E4.59852
G1 X77.422 Y86.023 E4.63617
G1 X76.441 Y85.639 E4.67411
G1 X75.465 Y85.382 E4.71043
G1 X74.479 Y85.243 E4.74629
G1 X64.125 Y84.400 E5.12023
G1 X63.301 Y84.285 E5.15020
G1 X62.510 Y84.080 E5.17961
G1 X61.748 Y83.786 E5.20902
G1 X61.025 Y83.406 E5.23843
G1 X60.350 Y82.946 E5.26783
G1 X59.732 Y82.411 E5.29724
G1 X59.179 Y81.810 E5.32665
G1 X58.699 Y81.149 E5.35606
G1 X58.298 Y80.437 E5.38546
G1 X57.982 Y79.684 E5.41487
G1 X57.754 Y78.899 E5.44428
G1 X57.609 Y78.046 E5.47543
G1 X88.452 Y78.046 E6.58575
G1 X87.346 Y87.563 E6.93064
G1 X85.665 Y105.088 E7.56442
G1 X84.822 Y113.309 E7.86192
G1 X83.773 Y121.954 E8.17540
G1 X64.528 Y121.954 E8.86821
M204 S1500
G1 X64.171 Y122.300 F7800.000
M204 S600
G1 X63.801 Y119.917 E8.95504 F2400.000
G1 X63.690 Y118.842 E8.99393
G1 X63.690 Y117.767 E9.03263
G1 X63.798 Y116.712 E9.07079
G1 X64.019 Y115.645 E9.11003
G1 X64.346 Y114.621 E9.14873
G1 X64.782 Y113.623 E9.18794
G1 X65.291 Y112.721 E9.22523
G1 X65.940 Y111.806 E9.26562
G1 X66.623 Y111.026 E9.30291
G1 X67.416 Y110.287 E9.34194
G1 X79.156 Y100.436 E9.89365
G1 X79.875 Y99.757 E9.92925
G1 X80.512 Y98.993 E9.96506
G1 X81.055 Y98.160 E10.00088
G1 X81.496 Y97.268 E10.03669
G1 X81.829 Y96.330 E10.07250
G1 X82.049 Y95.360 E10.10831
G1 X82.153 Y94.371 E10.14412
G1 X82.140 Y93.376 E10.17994
G1 X82.010 Y92.390 E10.21575
G1 X81.765 Y91.426 E10.25156
G1 X81.407 Y90.498 E10.28737
G1 X80.943 Y89.618 E10.32318
G1 X80.378 Y88.799 E10.35900
G1 X79.715 Y88.047 E10.39509
G1 X78.977 Y87.386 E10.43073
G1 X78.161 Y86.813 E10.46663
G1 X77.277 Y86.338 E10.50278
G1 X76.333 Y85.969 E10.53925
G1 X75.396 Y85.722 E10.57412
G1 X74.440 Y85.587 E10.60888
G1 X64.087 Y84.744 E10.98281
G1 X63.233 Y84.625 E11.01386
G1 X62.404 Y84.410 E11.04470
G1 X61.605 Y84.101 E11.07554
G1 X60.846 Y83.703 E11.10638
G1 X60.138 Y83.221 E11.13722
G1 X59.490 Y82.660 E11.16807
G1 X58.911 Y82.029 E11.19891
G1 X58.407 Y81.336 E11.22975
G1 X57.987 Y80.589 E11.26059
G1 X57.655 Y79.800 E11.29143
G1 X57.415 Y78.977 E11.32227
G1 X57.271 Y78.127 E11.35332
G1 X57.223 Y77.700 E11.36878
G1 X88.841 Y77.700 E12.50697
G1 X87.691 Y87.599 E12.86573
G1 X86.009 Y105.122 E13.49943
G1 X85.166 Y113.347 E13.79709
G1 X84.074 Y122.300 E14.12176
G1 X64.231 Y122.300 E14.83606
M204 S1500
G1 X64.335 Y121.935 F7800.000
G1 X64.623 Y121.562 F7800.000
M204 S600
G1 X64.813 Y121.753 E14.84579 F2400.000
G1 X65.304 Y121.753 E14.86348
G1 X64.532 Y120.981 E14.90283
G1 X64.442 Y120.400 E14.92403
G1 X65.795 Y121.753 E14.99300
G1 X66.285 Y121.753 E15.01069
G1 X64.352 Y119.819 E15.10929
G1 X64.292 Y119.269 E15.12925
G1 X66.776 Y121.753 E15.25591
G1 X67.266 Y121.753 E15.27360
G1 X64.237 Y118.723 E15.42808
G1 X64.237 Y118.233 E15.44577
G1 X67.757 Y121.753 E15.62526
G1 X68.248 Y121.753 E15.64295
G1 X64.237 Y117.742 E15.84746
G1 X64.281 Y117.296 E15.86363
G1 X68.738 Y121.753 E16.09091
G1 X69.229 Y121.753 E16.10860
G1 X64.327 Y116.851 E16.35856
G1 X64.401 Y116.434 E16.37381
G1 X69.719 Y121.753 E16.64500
G1 X70.210 Y121.753 E16.66269
G1 X64.485 Y116.028 E16.95459
G1 X64.579 Y115.631 E16.96931
G1 X70.700 Y121.753 E17.28147
G1 X71.191 Y121.753 E17.29916
G1 X64.697 Y115.259 E17.63029
G1 X64.816 Y114.887 E17.64437
G1 X71.682 Y121.753 E17.99448
G1 X72.172 Y121.753 E18.01217
G1 X64.955 Y114.535 E18.38018
G1 X65.104 Y114.194 E18.39361
G1 X72.663 Y121.753 E18.77903
G1 X73.153 Y121.753 E18.79672
G1 X69.783 Y118.383 E18.96857
G1 X70.378 Y118.487 E18.99036
G1 X73.644 Y121.753 E19.15687
G1 X74.135 Y121.753 E19.17456
G1 X70.857 Y118.475 E19.34168
G1 X71.248 Y118.375 E19.35621
G1 X74.625 Y121.753 E19.52843
G1 X75.116 Y121.753 E19.54612
G1 X71.596 Y118.232 E19.72562
G1 X71.912 Y118.058 E19.73865
G1 X75.606 Y121.753 E19.92702
G1 X76.097 Y121.753 E19.94471
G1 X72.174 Y117.830 E20.14474
G1 X72.423 Y117.588 E20.15725
G1 X76.588 Y121.753 E20.36961
G1 X77.078 Y121.753 E20.38730
G1 X72.613 Y117.288 E20.61496
G1 X72.781 Y116.965 E20.62807
G1 X77.569 Y121.753 E20.87219
G1 X78.059 Y121.753 E20.88988
G1 X72.902 Y116.595 E21.15287
G1 X72.956 Y116.158 E21.16873
G1 X78.550 Y121.753 E21.45399
G1 X79.040 Y121.753 E21.47168
G1 X72.928 Y115.640 E21.78337
G1 X72.693 Y114.914 E21.81087
G1 X79.531 Y121.753 E22.15957
G1 X80.022 Y121.753 E22.17726
G1 X68.403 Y110.134 E22.76969
G1 X68.670 Y109.910 E22.78225
G1 X80.512 Y121.753 E23.38610
G1 X81.003 Y121.753 E23.40379
G1 X68.937 Y109.687 E24.01905
M204 S1500
G1 X71.746 Y113.968 F7800.000
M204 S600
G1 X68.136 Y110.358 E24.20311 F2400.000
G1 X67.870 Y110.582 E24.21567
G1 X71.037 Y113.749 E24.37717
G1 X70.513 Y113.716 E24.39609
G1 X67.610 Y110.813 E24.54413
G1 X67.356 Y111.049 E24.55665
G1 X70.078 Y113.771 E24.69543
G1 X69.717 Y113.902 E24.70924
G1 X67.102 Y111.286 E24.84261
G1 X66.863 Y111.537 E24.85512
G1 X69.383 Y114.058 E24.98364
G1 X69.099 Y114.264 E24.99630
G1 X66.634 Y111.799 E25.12200
G1 X66.405 Y112.061 E25.13454
G1 X68.845 Y114.501 E25.25896
G1 X68.623 Y114.769 E25.27152
G1 X66.196 Y112.342 E25.39528
G1 X65.992 Y112.629 E25.40797
G1 X68.447 Y115.084 E25.53317
G1 X68.293 Y115.420 E25.54651
G1 X65.788 Y112.916 E25.67421
G1 X65.605 Y113.223 E25.68712
G1 X68.212 Y115.830 E25.82005
G1 X68.193 Y116.302 E25.83708
G1 X65.428 Y113.537 E25.97808
G1 X65.254 Y113.853 E25.99109
G1 X68.298 Y116.898 E26.14635
M204 S1500
G1 X72.938 Y106.329 F7800.000
M204 S600
G1 X80.428 Y113.819 E26.52826 F2400.000
G1 X79.837 Y113.719 E26.54986
G1 X72.671 Y106.553 E26.91526
G1 X72.405 Y106.777 E26.92781
G1 X79.369 Y113.742 E27.28296
G1 X78.964 Y113.827 E27.29790
G1 X72.138 Y107.001 E27.64597
G1 X71.871 Y107.224 E27.65853
G1 X78.612 Y113.966 E28.00228
G1 X78.309 Y114.153 E28.01513
G1 X71.604 Y107.448 E28.35702
G1 X71.337 Y107.672 E28.36958
G1 X78.025 Y114.360 E28.71058
G1 X77.800 Y114.625 E28.72313
G1 X71.071 Y107.896 E29.06624
G1 X70.804 Y108.120 E29.07880
G1 X77.588 Y114.904 E29.42474
G1 X77.431 Y115.238 E29.43803
G1 X70.537 Y108.344 E29.78956
G1 X70.270 Y108.567 E29.80212
G1 X77.312 Y115.609 E30.16117
G1 X77.233 Y116.021 E30.17630
G1 X70.004 Y108.791 E30.54495
G1 X69.737 Y109.015 E30.55750
G1 X77.266 Y116.545 E30.94143
G1 X77.468 Y117.236 E30.96741
G1 X69.470 Y109.239 E31.37520
G1 X69.203 Y109.463 E31.38776
G1 X81.493 Y121.753 E32.01444
G1 X81.984 Y121.753 E32.03212
G1 X78.463 Y118.231 E32.21168
G1 X79.195 Y118.474 E32.23950
G1 X82.475 Y121.753 E32.40670
G1 X82.965 Y121.753 E32.42439
G1 X79.700 Y118.487 E32.59091
G1 X80.125 Y118.422 E32.60641
G1 X83.456 Y121.753 E32.77627
G1 X83.641 Y121.447 E32.78915
G1 X80.507 Y118.313 E32.94896
G1 X80.823 Y118.139 E32.96199
G1 X83.694 Y121.010 E33.10836
G1 X83.747 Y120.572 E33.12425
G1 X81.115 Y117.940 E33.25847
G1 X81.368 Y117.702 E33.27098
G1 X83.800 Y120.135 E33.39501
G1 X83.853 Y119.697 E33.41090
G1 X81.583 Y117.427 E33.52666
G1 X81.773 Y117.127 E33.53947
G1 X83.906 Y119.260 E33.64823
G1 X83.959 Y118.822 E33.66412
G1 X81.904 Y116.766 E33.76893
G1 X82.000 Y116.372 E33.78357
G1 X84.012 Y118.385 E33.88618
G1 X84.065 Y117.947 E33.90207
G1 X82.029 Y115.911 E34.00592
G1 X81.925 Y115.316 E34.02768
G1 X84.118 Y117.510 E34.13954
G1 X84.172 Y117.072 E34.15543
G1 X73.205 Y106.105 E34.71464
G1 X73.472 Y105.881 E34.72719
G1 X84.225 Y116.634 E35.27550
G1 X84.278 Y116.197 E35.29139
G1 X73.738 Y105.658 E35.82881
G1 X74.005 Y105.434 E35.84136
G1 X84.331 Y115.759 E36.36788
G1 X84.384 Y115.322 E36.38377
G1 X74.272 Y105.210 E36.89939
G1 X74.539 Y104.986 E36.91195
G1 X84.437 Y114.884 E37.41667
G1 X84.490 Y114.447 E37.43256
G1 X74.805 Y104.762 E37.92640
G1 X75.072 Y104.538 E37.93895
G1 X84.543 Y114.009 E38.42189
G1 X84.596 Y113.572 E38.43778
G1 X75.339 Y104.315 E38.90982
G1 X75.606 Y104.091 E38.92238
G1 X84.646 Y113.131 E39.38333
G1 X84.691 Y112.686 E39.39946
G1 X75.872 Y103.867 E39.84914
G1 X76.139 Y103.643 E39.86170
G1 X84.737 Y112.241 E40.30010
G1 X84.782 Y111.796 E40.31623
G1 X76.406 Y103.419 E40.74335
G1 X76.673 Y103.195 E40.75591
G1 X84.828 Y111.351 E41.17176
G1 X84.874 Y110.906 E41.18789
G1 X76.939 Y102.972 E41.59246
G1 X77.206 Y102.748 E41.60502
G1 X84.919 Y110.461 E41.99831
G1 X84.965 Y110.016 E42.01444
G1 X77.473 Y102.524 E42.39646
G1 X77.740 Y102.300 E42.40902
G1 X85.010 Y109.571 E42.77976
G1 X85.056 Y109.126 E42.79589
G1 X78.006 Y102.076 E43.15536
G1 X78.273 Y101.852 E43.16792
G1 X85.102 Y108.681 E43.51611
G1 X85.147 Y108.236 E43.53224
G1 X78.540 Y101.629 E43.86915
G1 X78.807 Y101.405 E43.88171
G1 X85.193 Y107.791 E44.20735
G1 X85.238 Y107.346 E44.22347
G1 X79.073 Y101.181 E44.53784
