; generated by Slic3r 1.2.9 on 2017-04-28 at 17:29:08

; external perimeters extrusion width = 0.40mm
; perimeters extrusion width = 0.40mm
; infill extrusion width = 0.40mm
; solid infill extrusion width = 0.40mm
; top infill extrusion width = 0.40mm

M107
M190 S75 ; set bed temperature
M104 S235 ; set temperature
G28 ; home all axes
G1 Z5 F5000 ; lift nozzle

M109 S235 ; wait for temperature to be reached
G21 ; set units to millimeters
G90 ; use absolute coordinates
M82 ; use absolute distances for extrusion
G92 E0
G1 Z0.250 F7800.000
G1 E-3.00000 F2100.00000
G92 E0
G1 X34.772 Y53.451 F7800.000
G1 E3.00000 F2100.00000
M204 S600
G1 X37.069 Y52.172 E3.09466 F2400.000
G1 X40.100 Y51.626 E3.20552
G1 X74.325 Y51.627 E4.43758
G1 X111.593 Y52.027 E5.77928 F2400.000
G1 X114.188 Y52.452 E5.87394
G1 X116.537 Y53.634 E5.96859
G1 X117.647 Y54.572 E6.02090
G1 X119.647 Y56.572 E6.12272
G1 X121.203 Y58.691 E6.21738
G1 X122.055 Y61.179 E6.31204
G1 X122.193 Y62.719 E6.36769
G1 X122.193 Y137.681 E9.06624
G1 X121.795 Y140.280 E9.16089
G1 X120.638 Y142.642 E9.25555
G1 X119.647 Y143.828 E9.31120
G1 X117.647 Y145.828 E9.41303
G1 X115.528 Y147.384 E9.50768
G1 X113.040 Y148.236 E9.60234
G1 X111.500 Y148.374 E9.65800
G1 X80.375 Y148.374 E10.77846
G1 X77.776 Y147.976 E10.87312
G1 X75.414 Y146.819 E10.96778
G1 X73.174 Y144.550 E11.08257
G1 X32.899 Y84.988 E13.67091
G1 X31.773 Y82.612 E13.76557
G1 X31.407 Y80.119 E13.85628
G1 X31.407 Y60.319 E14.56906
G1 X31.805 Y57.720 E14.66371
G1 X32.962 Y55.358 E14.75837
G1 X34.730 Y53.494 E14.85087
M204 S1500
G1 X35.033 Y53.707 F7800.000
M204 S600
G1 X35.108 Y53.630 E14.85475 F2400.000
G1 X37.386 Y52.426 E14.94749
G1 X40.100 Y51.973 E15.04654
G1 X74.321 Y51.973 E16.27846
G1 X111.590 Y52.373 E17.62016 F2400.000
G1 X114.131 Y52.798 E17.71290
G1 X117.402 Y54.817 E17.85129
G1 X119.402 Y56.817 E17.95311
G1 X120.920 Y58.898 E18.04585
G1 X121.732 Y61.343 E18.13859
G1 X121.846 Y62.719 E18.18829
G1 X121.846 Y137.681 E20.88684
G1 X121.449 Y140.226 E20.97958
G1 X120.294 Y142.529 E21.07232
G1 X119.402 Y143.583 E21.12201
G1 X117.402 Y145.583 E21.22383
G1 X115.321 Y147.101 E21.31658
G1 X112.876 Y147.913 E21.40932
G1 X111.500 Y148.027 E21.45901
G1 X80.375 Y148.027 E22.57948
G1 X77.830 Y147.630 E22.67222
G1 X75.527 Y146.475 E22.76496
G1 X73.461 Y144.356 E22.87148
G1 X33.186 Y84.794 E25.45983
G1 X32.090 Y82.463 E25.55257
G1 X31.754 Y80.119 E25.63781
G1 X31.754 Y60.319 E26.35059
G1 X32.151 Y57.774 E26.44333
G1 X33.306 Y55.471 E26.53607
G1 X34.991 Y53.750 E26.62277
M204 S1500
G1 E23.62277 F2100.00000
G92 E0
G1 X80.934 Y99.900 F7800.000
G1 E3.00000 F2100.00000
M204 S600
G1 X80.934 Y94.500 E3.19439 F2400.000
G1 X84.654 Y94.500 E3.32833
G1 X84.654 Y99.900 E3.52272
G1 X80.994 Y99.900 E3.65449
M204 S1500
G1 X80.534 Y99.900 F7800.000
G1 E0.65449 F2100.00000
G92 E0
G1 X89.732 Y120.142 F7800.000
G1 E3.00000 F2100.00000
M204 S600
G1 X90.092 Y120.142 E3.01297 F2400.000
G1 X90.136 Y120.291 E3.01856
G1 X90.050 Y120.346 E3.02224
G1 X89.793 Y120.608 E3.03547
G1 X89.740 Y120.201 E3.05024
M204 S1500
G1 E0.05024 F2100.00000
G92 E0
G1 X90.710 Y124.072 F7800.000
G1 E3.00000 F2100.00000
M204 S600
G1 X90.753 Y124.594 E3.01888 F2400.000
G1 X90.308 Y124.595 E3.03489
G1 X90.264 Y124.446 E3.04049
G1 X90.364 Y124.381 E3.04478
G1 X90.665 Y124.112 E3.05933
M204 S1500
G1 E0.05933 F2100.00000
G92 E0
G1 X92.079 Y133.561 F7800.000
G1 E3.00000 F2100.00000
M204 S600
G1 X93.987 Y133.561 E3.06869 F2400.000
G1 X93.987 Y138.567 E3.24890
G1 X92.537 Y138.567 E3.30107
G1 X89.421 Y136.150 E3.44305
G1 X89.421 Y138.731 E3.53593
G1 X87.513 Y138.731 E3.60461
G1 X87.513 Y133.235 E3.80244
G1 X88.978 Y133.235 E3.85518
G1 X92.079 Y135.650 E3.99664
G1 X92.079 Y133.621 E4.06966
M204 S1500
G1 X92.425 Y133.908 F7800.000
M204 S600
G1 X93.640 Y133.908 E4.11341 F2400.000
G1 X93.640 Y138.221 E4.26869
G1 X92.656 Y138.221 E4.30412
G1 X89.075 Y135.443 E4.46728
G1 X89.075 Y138.384 E4.57314
G1 X87.859 Y138.384 E4.61689
G1 X87.859 Y133.582 E4.78978
G1 X88.859 Y133.582 E4.82577
G1 X92.425 Y136.358 E4.98847
G1 X92.425 Y133.968 E5.07453
M204 S1500
G1 X92.425 Y133.508 F7800.000
G1 X89.599 Y132.067 F7800.000
M204 S600
G1 X88.459 Y131.431 E5.12150 F2400.000
G1 X88.225 Y131.244 E5.13229
G1 X87.981 Y130.970 E5.14551
G1 X87.790 Y130.659 E5.15865
G1 X87.638 Y130.290 E5.17299
G1 X87.543 Y129.865 E5.18870
G1 X87.512 Y129.373 E5.20641
G1 X87.541 Y128.933 E5.22230
G1 X87.593 Y128.650 E5.23267
G1 X87.676 Y128.371 E5.24313
G1 X87.810 Y128.072 E5.25494
G1 X88.086 Y127.643 E5.27332
G1 X87.774 Y127.643 E5.28455
G1 X87.553 Y126.746 E5.31780
G1 X87.511 Y126.153 E5.33918
G1 X87.547 Y125.762 E5.35333
G1 X87.648 Y125.434 E5.36569
G1 X87.766 Y125.214 E5.37467
G1 X87.920 Y125.019 E5.38363
G1 X88.152 Y124.830 E5.39439
G1 X88.465 Y124.682 E5.40686
G1 X88.720 Y124.634 E5.41619
G1 X88.317 Y124.378 E5.43335
G1 X88.118 Y124.198 E5.44302
G1 X87.947 Y123.985 E5.45286
G1 X87.777 Y123.684 E5.46531
G1 X87.613 Y123.220 E5.48302
G1 X87.511 Y122.323 E5.51552
G1 X87.578 Y121.508 E5.54494
G1 X87.685 Y121.115 E5.55962
G1 X87.841 Y120.774 E5.57311
G1 X88.035 Y120.500 E5.58521
G1 X88.396 Y120.162 E5.60301
G1 X87.513 Y120.190 E5.63481
G1 X87.513 Y118.014 E5.71315
G1 X87.671 Y118.006 E5.71886
G1 X87.544 Y117.558 E5.73563
G1 X87.511 Y117.175 E5.74947
G1 X87.543 Y116.773 E5.76397
G1 X87.679 Y116.334 E5.78051
G1 X87.825 Y116.085 E5.79093
G1 X87.992 Y115.881 E5.80041
G1 X88.191 Y115.706 E5.80994
G1 X88.419 Y115.564 E5.81962
G1 X88.376 Y115.413 E5.82526
G1 X87.567 Y115.413 E5.85439
G1 X87.263 Y115.393 E5.86536
G1 X86.972 Y115.329 E5.87610
G1 X86.744 Y115.246 E5.88482
G1 X86.390 Y115.018 E5.89997
G1 X86.116 Y114.686 E5.91546
G1 X86.006 Y114.456 E5.92467
G1 X85.928 Y114.204 E5.93414
G1 X85.881 Y113.755 E5.95042
G1 X85.947 Y112.527 E5.99467
G1 X87.513 Y112.527 E6.05106
G1 X87.513 Y111.480 E6.08876
G1 X88.981 Y111.029 E6.14403
G1 X88.981 Y110.076 E6.17831
G1 X87.513 Y109.628 E6.23355
G1 X87.513 Y107.267 E6.31856
G1 X88.981 Y107.743 E6.37411
G1 X88.981 Y105.467 E6.45606
G1 X87.751 Y105.467 E6.50034
G1 X89.693 Y100.461 E6.69364
G1 X90.215 Y100.461 E6.71244
G1 X90.222 Y100.259 E6.71969
G1 X90.047 Y100.248 E6.72600
G1 X89.200 Y99.973 E6.75804
G1 X88.448 Y99.496 E6.79011
G1 X87.834 Y98.839 E6.82248
G1 X87.411 Y98.068 E6.85415
G1 X87.189 Y97.206 E6.88619
G1 X87.189 Y96.316 E6.91823
G1 X87.411 Y95.454 E6.95027
G1 X87.839 Y94.674 E6.98231
G1 X88.449 Y94.025 E7.01435
G1 X89.200 Y93.548 E7.04639
G1 X90.047 Y93.273 E7.07844
G1 X90.925 Y93.218 E7.11011
G1 X91.808 Y93.383 E7.14247
G1 X92.615 Y93.763 E7.17455
G1 X93.300 Y94.330 E7.20659
G1 X93.823 Y95.050 E7.23863
G1 X94.147 Y95.868 E7.27030
G1 X94.263 Y96.761 E7.30270
G1 X94.147 Y97.653 E7.33510
G1 X93.823 Y98.471 E7.36677
G1 X93.300 Y99.192 E7.39884
G1 X92.605 Y99.763 E7.43121
G1 X91.809 Y100.138 E7.46288
G1 X91.102 Y100.272 E7.48880
G1 X91.120 Y100.461 E7.49561
G1 X91.649 Y100.461 E7.51467
G1 X93.585 Y105.467 E7.70789
G1 X91.556 Y105.467 E7.78094
G1 X90.668 Y103.230 E7.86757
G1 X89.956 Y105.026 E7.93715
G1 X91.052 Y105.026 E7.97661
G1 X91.052 Y108.076 E8.08638
G1 X90.572 Y108.076 E8.10367
G1 X90.544 Y108.251 E8.11006
G1 X93.987 Y109.369 E8.24037
G1 X93.987 Y111.723 E8.32509
G1 X90.042 Y113.004 E8.47440
G1 X90.070 Y113.179 E8.48079
G1 X94.313 Y113.179 E8.63355
G1 X94.313 Y115.413 E8.71397
G1 X92.845 Y115.413 E8.76680
G1 X92.845 Y117.533 E8.84311
G1 X89.988 Y117.533 E8.94596
G1 X89.613 Y117.561 E8.95952
G1 X89.344 Y117.629 E8.96948
G1 X89.586 Y117.818 E8.98050
G1 X89.709 Y117.860 E8.98518
G1 X90.105 Y117.908 E8.99955
G1 X92.845 Y117.908 E9.09820
G1 X92.845 Y120.142 E9.17863
G1 X91.810 Y120.142 E9.21589
G1 X92.236 Y120.489 E9.23567
G1 X92.420 Y120.703 E9.24584
G1 X92.649 Y121.128 E9.26321
G1 X92.749 Y121.435 E9.27483
G1 X92.848 Y122.283 E9.30556
G1 X92.779 Y123.002 E9.33156
G1 X92.676 Y123.367 E9.34522
G1 X92.528 Y123.681 E9.35770
G1 X92.241 Y124.104 E9.37611
G1 X92.845 Y124.104 E9.39786
G1 X92.845 Y124.813 E9.42336
G1 X93.824 Y125.174 E9.46091
G1 X93.824 Y126.827 E9.52042
G1 X92.845 Y126.827 E9.55564
G1 X92.845 Y127.643 E9.58498
G1 X92.244 Y127.643 E9.60664
G1 X92.434 Y127.880 E9.61759
G1 X92.594 Y128.156 E9.62907
G1 X92.713 Y128.457 E9.64072
G1 X92.813 Y128.891 E9.65674
G1 X92.847 Y129.358 E9.67359
G1 X92.809 Y129.839 E9.69098
G1 X92.735 Y130.147 E9.70236
G1 X92.627 Y130.423 E9.71304
G1 X92.458 Y130.713 E9.72511
G1 X92.246 Y130.970 E9.73711
G1 X91.996 Y131.187 E9.74904
G1 X91.702 Y131.372 E9.76152
G1 X91.428 Y131.497 E9.77237
G1 X91.072 Y131.608 E9.78582
G1 X89.621 Y131.770 E9.83837
G1 X89.603 Y132.007 E9.84694
M204 S1500
G1 X89.293 Y131.500 F7800.000
M204 S600
G1 X88.653 Y131.143 E9.87333 F2400.000
G1 X88.465 Y130.992 E9.88203
G1 X88.260 Y130.763 E9.89309
G1 X88.100 Y130.501 E9.90413
G1 X87.970 Y130.186 E9.91640
G1 X87.887 Y129.815 E9.93007
G1 X87.859 Y129.374 E9.94600
G1 X87.885 Y128.976 E9.96034
G1 X87.930 Y128.731 E9.96932
G1 X88.001 Y128.492 E9.97830
G1 X88.115 Y128.237 E9.98834
G1 X88.264 Y128.006 E9.99821
G1 X88.446 Y127.801 E10.00811
G1 X88.681 Y127.615 E10.01887
G1 X88.965 Y127.450 E10.03071
G1 X88.923 Y127.296 E10.03644
G1 X88.045 Y127.296 E10.06804
G1 X87.897 Y126.692 E10.09044
G1 X87.859 Y126.157 E10.10975
G1 X87.888 Y125.829 E10.12159
G1 X87.969 Y125.568 E10.13145
G1 X88.056 Y125.405 E10.13810
G1 X88.168 Y125.263 E10.14459
G1 X88.338 Y125.125 E10.15248
G1 X88.573 Y125.014 E10.16182
G1 X88.945 Y124.944 E10.17546
G1 X91.284 Y124.940 E10.25965
G1 X91.284 Y124.450 E10.27727
G1 X92.499 Y124.450 E10.32102
G1 X92.499 Y125.054 E10.34274
G1 X93.477 Y125.416 E10.38029
G1 X93.477 Y126.481 E10.41864
G1 X92.499 Y126.481 E10.45386
G1 X92.499 Y127.296 E10.48321
G1 X91.423 Y127.296 E10.52195
G1 X91.386 Y127.457 E10.52789
G1 X91.604 Y127.564 E10.53663
G1 X91.806 Y127.705 E10.54551
G1 X91.980 Y127.867 E10.55405
G1 X92.147 Y128.076 E10.56371
G1 X92.281 Y128.308 E10.57333
G1 X92.381 Y128.560 E10.58311
G1 X92.469 Y128.943 E10.59725
G1 X92.500 Y129.357 E10.61218
G1 X92.465 Y129.785 E10.62765
G1 X92.404 Y130.043 E10.63719
G1 X92.314 Y130.272 E10.64604
G1 X92.173 Y130.514 E10.65615
G1 X91.997 Y130.728 E10.66609
G1 X91.789 Y130.908 E10.67601
G1 X91.538 Y131.066 E10.68669
G1 X91.304 Y131.172 E10.69593
G1 X91.000 Y131.267 E10.70741
G1 X89.816 Y131.400 E10.75029
G1 X89.816 Y128.780 E10.84459
G1 X89.532 Y128.803 E10.85486
G1 X89.338 Y128.852 E10.86206
G1 X89.109 Y128.969 E10.87134
G1 X88.976 Y129.110 E10.87829
G1 X88.949 Y129.165 E10.88049
G1 X88.913 Y129.373 E10.88808
G1 X88.952 Y129.596 E10.89626
G1 X89.049 Y129.733 E10.90229
G1 X89.120 Y129.783 E10.90544
G1 X89.411 Y129.900 E10.91672
G1 X89.298 Y131.440 E10.97230
M204 S1500
G1 X89.151 Y131.874 F7800.000
G1 E7.97230 F2100.00000
G92 E0
G1 X91.074 Y124.273 F7800.000
G1 E3.00000 F2100.00000
M204 S600
G1 X90.959 Y122.880 E3.05031 F2400.000
G1 X90.783 Y122.865 E3.05665
G1 X90.671 Y123.310 E3.07317
G1 X90.569 Y123.570 E3.08322
G1 X90.421 Y123.824 E3.09380
G1 X90.298 Y123.975 E3.10080
G1 X90.153 Y124.105 E3.10781
G1 X89.984 Y124.214 E3.11505
G1 X89.771 Y124.302 E3.12337
G1 X89.538 Y124.349 E3.13191
G1 X89.138 Y124.349 E3.14631
G1 X88.897 Y124.296 E3.15520
G1 X88.705 Y124.214 E3.16272
G1 X88.528 Y124.101 E3.17026
G1 X88.371 Y123.960 E3.17788
G1 X88.235 Y123.790 E3.18571
G1 X88.093 Y123.540 E3.19606
G1 X87.952 Y123.141 E3.21126
G1 X87.859 Y122.317 E3.24112
G1 X87.920 Y121.569 E3.26817
G1 X88.011 Y121.233 E3.28068
G1 X88.143 Y120.948 E3.29199
G1 X88.297 Y120.728 E3.30165
G1 X88.551 Y120.491 E3.31416
G1 X88.735 Y120.377 E3.32195
G1 X88.967 Y120.277 E3.33103
G1 X89.384 Y120.151 E3.34673
G1 X89.561 Y121.516 E3.39626
G1 X89.732 Y121.526 E3.40245
G1 X89.779 Y121.341 E3.40932
G1 X90.020 Y120.871 E3.42834
G1 X90.270 Y120.617 E3.44116
G1 X90.436 Y120.510 E3.44828
G1 X90.640 Y120.429 E3.45616
G1 X90.828 Y120.389 E3.46309
G1 X91.061 Y120.374 E3.47150
G1 X91.279 Y120.388 E3.47937
G1 X91.482 Y120.433 E3.48683
G1 X91.666 Y120.506 E3.49398
G1 X91.822 Y120.598 E3.50048
G1 X91.994 Y120.738 E3.50847
G1 X92.133 Y120.901 E3.51618
G1 X92.329 Y121.265 E3.53105
G1 X92.409 Y121.509 E3.54032
G1 X92.500 Y122.286 E3.56849
G1 X92.438 Y122.937 E3.59202
G1 X92.350 Y123.245 E3.60354
G1 X92.226 Y123.509 E3.61403
G1 X92.083 Y123.720 E3.62322
G1 X91.853 Y123.945 E3.63480
G1 X91.659 Y124.067 E3.64306
G1 X91.130 Y124.253 E3.66322
M204 S1500
G1 X90.679 Y124.340 F7800.000
G1 E0.66322 F2100.00000
G92 E0
G1 X92.499 Y119.796 F7800.000
G1 E3.00000 F2100.00000
M204 S600
G1 X89.010 Y119.796 E3.12558 F2400.000
G1 X87.859 Y119.833 E3.16704
G1 X87.859 Y118.343 E3.22066
G1 X88.334 Y118.319 E3.23777
G1 X88.107 Y118.049 E3.25048
G1 X87.970 Y117.788 E3.26110
G1 X87.886 Y117.495 E3.27206
G1 X87.859 Y117.173 E3.28369
G1 X87.885 Y116.839 E3.29577
G1 X87.998 Y116.475 E3.30948
G1 X88.110 Y116.284 E3.31747
G1 X88.242 Y116.122 E3.32498
G1 X88.398 Y115.985 E3.33246
G1 X88.593 Y115.864 E3.34069
G1 X88.978 Y115.721 E3.35551
G1 X89.646 Y115.645 E3.37968
G1 X92.499 Y115.645 E3.48240
G1 X92.499 Y117.187 E3.53789
G1 X89.975 Y117.187 E3.62874
G1 X89.557 Y117.218 E3.64385
G1 X89.282 Y117.310 E3.65427
G1 X89.167 Y117.401 E3.65957
G1 X89.102 Y117.506 E3.66402
G1 X89.078 Y117.658 E3.66955
G1 X89.105 Y117.813 E3.67523
G1 X89.188 Y117.951 E3.68102
G1 X89.330 Y118.073 E3.68777
G1 X89.445 Y118.136 E3.69249
G1 X89.631 Y118.200 E3.69954
G1 X90.084 Y118.254 E3.71599
G1 X92.499 Y118.254 E3.80292
G1 X92.499 Y119.736 E3.85624
M204 S1500
G1 X92.499 Y120.196 F7800.000
G1 X92.751 Y115.067 F7800.000
M204 S600
G1 X92.751 Y113.526 E3.91173 F2400.000
G1 X93.966 Y113.526 E3.95548
G1 X93.966 Y115.067 E4.01097
G1 X92.811 Y115.067 E4.05256
M204 S1500
G1 X92.351 Y115.067 F7800.000
G1 E1.05256 F2100.00000
G92 E0
G1 X93.640 Y111.471 F7800.000
G1 E3.00000 F2100.00000
M204 S600
G1 X87.859 Y113.349 E3.21881 F2400.000
G1 X87.859 Y111.736 E3.27687
G1 X89.327 Y111.285 E3.33214
G1 X89.327 Y109.820 E3.38486
G1 X87.859 Y109.372 E3.44010
G1 X87.859 Y107.743 E3.49872
G1 X93.640 Y109.621 E3.71753
G1 X93.640 Y111.411 E3.78196
M204 S1500
G1 X93.724 Y111.862 F7800.000
G1 X92.499 Y113.526 F7800.000
M204 S600
G1 X92.499 Y115.067 E3.83745 F2400.000
G1 X87.579 Y115.067 E4.01457
G1 X87.312 Y115.049 E4.02420
G1 X87.068 Y114.996 E4.03317
G1 X86.899 Y114.934 E4.03966
G1 X86.623 Y114.756 E4.05149
G1 X86.410 Y114.498 E4.06352
G1 X86.329 Y114.329 E4.07029
G1 X86.269 Y114.135 E4.07760
G1 X86.228 Y113.746 E4.09167
G1 X86.275 Y112.873 E4.12313
G1 X87.465 Y112.873 E4.16596
G1 X87.452 Y113.362 E4.18354
G1 X87.482 Y113.462 E4.18729
G1 X87.613 Y113.507 E4.19231
G1 X87.859 Y113.524 E4.20119
G1 X87.859 Y113.383 E4.20628
G1 X87.882 Y113.526 E4.21148
G1 X92.439 Y113.526 E4.37553
M204 S1500
G1 X92.899 Y113.526 F7800.000
G1 E1.37553 F2100.00000
G92 E0
G1 X90.705 Y107.729 F7800.000
G1 E3.00000 F2100.00000
M204 S600
G1 X89.327 Y107.729 E3.04962 F2400.000
G1 X89.327 Y105.373 E3.13446
G1 X90.705 Y105.373 E3.18408
G1 X90.705 Y107.669 E3.26675
M204 S1500
G1 X90.705 Y108.129 F7800.000
G1 X91.791 Y105.120 F7800.000
M204 S600
G1 X90.668 Y102.291 E3.37635 F2400.000
G1 X89.546 Y105.120 E3.48594
G1 X88.257 Y105.120 E3.53234
G1 X89.930 Y100.807 E3.69890
G1 X91.412 Y100.807 E3.75224
G1 X93.080 Y105.120 E3.91872
G1 X91.851 Y105.120 E3.96295
M204 S1500
G1 X91.404 Y105.220 F7800.000
G1 E0.96295 F2100.00000
G92 E0
G1 X90.913 Y99.956 F7800.000
G1 E3.00000 F2100.00000
M204 S600
G1 X90.112 Y99.906 E3.02889 F2400.000
G1 X89.349 Y99.658 E3.05778
G1 X88.671 Y99.227 E3.08668
G1 X88.117 Y98.634 E3.11590
G1 X87.735 Y97.939 E3.14444
G1 X87.536 Y97.162 E3.17333
G1 X87.536 Y96.359 E3.20222
G1 X87.735 Y95.582 E3.23111
G1 X88.122 Y94.879 E3.26000
G1 X88.671 Y94.294 E3.28889
G1 X89.349 Y93.864 E3.31778
G1 X90.112 Y93.616 E3.34667
G1 X90.903 Y93.566 E3.37521 F2400.000
G1 X91.701 Y93.716 E3.40443
G1 X92.427 Y94.057 E3.43333
G1 X93.046 Y94.569 E3.46222
G1 X93.518 Y95.218 E3.49111
G1 X93.809 Y95.955 E3.51965
G1 X93.914 Y96.761 E3.54888
G1 X93.809 Y97.566 E3.57811
G1 X93.518 Y98.303 E3.60665
G1 X93.046 Y98.953 E3.63555
G1 X92.419 Y99.468 E3.66477
G1 X91.701 Y99.806 E3.69331
G1 X90.972 Y99.945 E3.72004
M204 S1500
G1 X90.720 Y100.306 F7800.000
G1 E0.72004 F2100.00000
G92 E0
G1 X105.255 Y92.442 F7800.000
