; generated by Slic3r 1.2.9 on 2017-04-28 at 17:29:50

; external perimeters extrusion width = 0.40mm
; perimeters extrusion width = 0.40mm
; infill extrusion width = 0.40mm
; solid infill extrusion width = 0.40mm
; top infill extrusion width = 0.40mm

M107
M190 S75 ; set bed temperature
M104 S235 ; set temperature
G28 ; home all axes
G1 Z5 F5000 ; lift nozzle

M109 S235 ; wait for temperature to be reached
G21 ; set units to millimeters
G90 ; use absolute coordinates
M82 ; use absolute distances for extrusion
G92 E0
G1 Z0.250 F7800.000
G1 E-3.00000 F2100.00000
G92 E0
G1 X57.834 Y77.957 F7800.000
G1 E3.00000 F2100.00000
M204 S600
G1 X60.150 Y76.605 E3.09654 F2400.000
G1 X63.500 Y75.961 E3.21935
G1 X81.500 Y75.961 E3.86733
G1 X84.152 Y76.359 E3.96387
G1 X86.571 Y77.517 E4.06040 F2400.000
G1 X88.894 Y79.800 E4.17765
G1 X89.999 Y81.387 E4.24728
G1 X91.107 Y83.205 E4.32393
G1 X92.086 Y85.063 E4.39951
G1 X92.912 Y86.896 E4.47191
G1 X93.143 Y87.466 E4.49404
G1 X93.731 Y89.059 E4.55518
G1 X93.877 Y89.506 E4.57210
G1 X94.339 Y91.053 E4.63023
G1 X94.487 Y91.617 E4.65121
G1 X94.846 Y93.185 E4.70911
G1 X94.958 Y93.755 E4.73003
G1 X95.216 Y95.343 E4.78795
G1 X95.290 Y95.920 E4.80889
G1 X95.445 Y97.521 E4.86679
G1 X95.483 Y98.101 E4.88771
G1 X95.534 Y99.709 E4.94563
G1 X95.534 Y100.291 E4.96657
G1 X95.483 Y101.899 E5.02449
G1 X95.445 Y102.479 E5.04541
G1 X95.290 Y104.080 E5.10331
G1 X95.216 Y104.657 E5.12424
G1 X94.958 Y106.244 E5.18215
G1 X94.846 Y106.815 E5.20308
G1 X94.487 Y108.383 E5.26099
G1 X94.339 Y108.947 E5.28198
G1 X93.877 Y110.495 E5.34013
G1 X93.712 Y110.994 E5.35905
G1 X93.053 Y112.771 E5.42728
G1 X92.209 Y114.682 E5.50249
G1 X91.149 Y116.720 E5.58519
G1 X90.080 Y118.486 E5.65951
G1 X88.894 Y120.199 E5.73452
G1 X87.043 Y122.140 E5.83106
G1 X84.704 Y123.452 E5.92759
G1 X81.500 Y124.039 E6.04486
G1 X63.500 Y124.039 E6.69284
G1 X60.848 Y123.641 E6.78938
G1 X58.429 Y122.483 E6.88592
G1 X56.457 Y120.666 E6.98245
G1 X55.105 Y118.350 E7.07899
G1 X54.461 Y115.000 E7.20180
G1 X54.461 Y85.000 E8.28177
G1 X54.859 Y82.348 E8.37830
G1 X56.017 Y79.929 E8.47484
G1 X57.793 Y78.001 E8.56922
M204 S1500
G1 X58.099 Y78.208 F7800.000
M204 S600
G1 X58.172 Y78.132 E8.57302 F2400.000
G1 X60.469 Y76.853 E8.66767
G1 X63.500 Y76.307 E8.77854
G1 X81.500 Y76.307 E9.42652
G1 X84.099 Y76.705 E9.52118
G1 X86.461 Y77.862 E9.61584 F2400.000
G1 X88.610 Y79.999 E9.72497
G1 X89.709 Y81.576 E9.79415
G1 X90.807 Y83.377 E9.87008
G1 X91.776 Y85.218 E9.94498
G1 X92.595 Y87.037 E10.01680
G1 X92.819 Y87.586 E10.03812
G1 X93.380 Y89.104 E10.09640
G1 X93.545 Y89.605 E10.11538
G1 X94.007 Y91.152 E10.17351
G1 X94.150 Y91.694 E10.19369
G1 X94.509 Y93.262 E10.25160
G1 X94.616 Y93.811 E10.27171
G1 X94.874 Y95.399 E10.32963
G1 X94.945 Y95.954 E10.34977
G1 X95.100 Y97.555 E10.40767
G1 X95.136 Y98.112 E10.42778
G1 X95.188 Y99.720 E10.48571
G1 X95.188 Y100.280 E10.50584
G1 X95.136 Y101.888 E10.56376
G1 X95.100 Y102.445 E10.58388
G1 X94.945 Y104.046 E10.64178
G1 X94.874 Y104.601 E10.66191
G1 X94.616 Y106.189 E10.71982
G1 X94.509 Y106.738 E10.73995
G1 X94.150 Y108.306 E10.79785
G1 X94.007 Y108.848 E10.81804
G1 X93.410 Y110.811 E10.89190
G1 X92.727 Y112.652 E10.96260
G1 X91.789 Y114.756 E11.04554
G1 X90.841 Y116.562 E11.11893
G1 X89.790 Y118.297 E11.19197
G1 X88.611 Y120.000 E11.26655
G1 X86.790 Y121.898 E11.36121
G1 X84.486 Y123.164 E11.45587
G1 X81.500 Y123.693 E11.56502
G1 X63.500 Y123.693 E12.21300
G1 X60.901 Y123.295 E12.30766
G1 X58.539 Y122.138 E12.40232
G1 X56.632 Y120.328 E12.49698
G1 X55.353 Y118.031 E12.59163
G1 X54.807 Y115.000 E12.70250
G1 X54.807 Y85.000 E13.78246
G1 X55.205 Y82.401 E13.87712
G1 X56.362 Y80.039 E13.97178
G1 X58.058 Y78.252 E14.06048
M204 S1500
G1 X58.359 Y78.463 F7800.000
M204 S600
G1 X58.508 Y78.311 E14.06816 F2400.000
G1 X60.786 Y77.107 E14.16090
G1 X63.500 Y76.654 E14.25995
G1 X81.500 Y76.654 E14.90793
G1 X84.045 Y77.051 E15.00067
G1 X86.348 Y78.206 E15.09341 F2400.000
G1 X88.327 Y80.199 E15.19450
G1 X89.419 Y81.765 E15.26324
G1 X90.506 Y83.549 E15.33845
G1 X91.467 Y85.373 E15.41267
G1 X92.320 Y87.273 E15.48762
G1 X93.093 Y89.332 E15.56681
G1 X93.675 Y91.251 E15.63901
G1 X93.812 Y91.772 E15.65838
G1 X94.171 Y93.340 E15.71629
G1 X94.274 Y93.866 E15.73560
G1 X94.532 Y95.454 E15.79352
G1 X94.601 Y95.987 E15.81285
G1 X94.756 Y97.588 E15.87076
G1 X94.790 Y98.123 E15.89007
G1 X94.842 Y99.732 E15.94799
G1 X94.842 Y100.268 E15.96732
G1 X94.790 Y101.877 E16.02524
G1 X94.756 Y102.412 E16.04456
G1 X94.601 Y104.013 E16.10246
G1 X94.532 Y104.546 E16.12179
G1 X94.274 Y106.133 E16.17969
G1 X94.171 Y106.660 E16.19902
G1 X93.812 Y108.228 E16.25693
G1 X93.675 Y108.749 E16.27631
G1 X93.213 Y110.297 E16.33446
G1 X93.059 Y110.763 E16.35215
G1 X92.410 Y112.513 E16.41933
G1 X91.580 Y114.391 E16.49323
G1 X90.545 Y116.382 E16.57401
G1 X89.552 Y118.024 E16.64312
G1 X89.258 Y118.473 E16.66243
G1 X88.327 Y119.801 E16.72080
G1 X86.538 Y121.654 E16.81354
G1 X84.269 Y122.874 E16.90628
G1 X81.500 Y123.346 E17.00739
G1 X63.500 Y123.346 E17.65537
G1 X60.955 Y122.949 E17.74811
G1 X58.652 Y121.794 E17.84085
G1 X56.811 Y119.992 E17.93359
G1 X55.607 Y117.714 E18.02634
G1 X55.154 Y115.000 E18.12538
G1 X55.154 Y85.000 E19.20535
G1 X55.551 Y82.455 E19.29809
G1 X56.706 Y80.152 E19.39083
G1 X58.317 Y78.506 E19.47374
M204 S1500
G1 E16.47374 F2100.00000
G92 E0
G1 X64.046 Y114.454 F7800.000
G1 E3.00000 F2100.00000
M204 S600
G1 X64.046 Y102.259 E3.43901 F2400.000
G1 X64.232 Y102.238 E3.44572
G1 X64.304 Y102.566 E3.45780
G1 X64.635 Y103.544 E3.49498
G1 X65.070 Y104.481 E3.53215
G1 X65.603 Y105.365 E3.56933
G1 X66.229 Y106.187 E3.60651
G1 X66.940 Y106.936 E3.64368
G1 X67.727 Y107.604 E3.68086
G1 X68.582 Y108.183 E3.71804
G1 X69.495 Y108.666 E3.75521
G1 X70.454 Y109.048 E3.79239
G1 X71.450 Y109.324 E3.82957
G1 X72.469 Y109.491 E3.86674
G1 X73.500 Y109.547 E3.90392
G1 X74.531 Y109.491 E3.94110
G1 X75.550 Y109.324 E3.97827
G1 X76.546 Y109.048 E4.01545
G1 X77.499 Y108.669 E4.05238
G1 X78.418 Y108.183 E4.08979
G1 X79.273 Y107.604 E4.12698
G1 X80.060 Y106.936 E4.16416
G1 X80.771 Y106.187 E4.20133
G1 X81.397 Y105.365 E4.23851
G1 X81.930 Y104.481 E4.27569
G1 X82.362 Y103.551 E4.31261
G1 X82.696 Y102.566 E4.35003
G1 X82.919 Y101.558 E4.38721
G1 X83.032 Y100.531 E4.42439
G1 X83.034 Y99.499 E4.46157
G1 X82.924 Y98.472 E4.49874
G1 X82.704 Y97.463 E4.53592
G1 X82.376 Y96.483 E4.57310
G1 X81.944 Y95.545 E4.61027
G1 X81.414 Y94.659 E4.64745
G1 X80.790 Y93.836 E4.68463
G1 X80.082 Y93.084 E4.72180
G1 X79.302 Y92.418 E4.75873
G1 X78.443 Y91.832 E4.79615
G1 X77.532 Y91.346 E4.83333
G1 X76.574 Y90.961 E4.87051
G1 X75.579 Y90.682 E4.90769
G1 X75.046 Y90.593 E4.92714
G1 X75.046 Y85.546 E5.10882
G1 X81.216 Y85.546 E5.33091
G1 X81.965 Y86.616 E5.37793
G1 X82.786 Y87.963 E5.43471
G1 X83.514 Y89.354 E5.49124
G1 X84.158 Y90.804 E5.54836
G1 X84.696 Y92.261 E5.60427
G1 X85.148 Y93.775 E5.66113
G1 X85.499 Y95.309 E5.71777
G1 X85.751 Y96.862 E5.77441
G1 X85.903 Y98.428 E5.83104
G1 X85.953 Y100.000 E5.88768
G1 X85.903 Y101.572 E5.94432
G1 X85.751 Y103.138 E6.00095
G1 X85.499 Y104.691 E6.05759
G1 X85.148 Y106.225 E6.11423
G1 X84.696 Y107.739 E6.17111
G1 X84.152 Y109.211 E6.22761
G1 X83.515 Y110.645 E6.28409
G1 X82.782 Y112.043 E6.34091
G1 X81.966 Y113.384 E6.39742
G1 X81.216 Y114.454 E6.44445
G1 X64.106 Y114.454 E7.06037
M204 S1500
G1 X64.046 Y97.737 F7800.000
M204 S600
G1 X64.046 Y85.546 E7.49923 F2400.000
G1 X71.954 Y85.546 E7.78389
G1 X71.954 Y90.593 E7.96556
G1 X71.421 Y90.682 E7.98502
G1 X70.426 Y90.961 E8.02219
G1 X69.468 Y91.346 E8.05937
G1 X68.557 Y91.832 E8.09655
G1 X67.704 Y92.414 E8.13372
G1 X66.918 Y93.084 E8.17090
G1 X66.210 Y93.836 E8.20808
G1 X65.586 Y94.659 E8.24525
G1 X65.056 Y95.545 E8.28243
G1 X64.624 Y96.483 E8.31961
G1 X64.296 Y97.463 E8.35678
G1 X64.232 Y97.757 E8.36764
G1 X64.106 Y97.744 E8.37220
M204 S1500
G1 E5.37220 F2100.00000
G92 E0
G1 X72.300 Y90.886 F7800.000
G1 E3.00000 F2100.00000
M204 S600
G1 X71.496 Y91.021 E3.02934 F2400.000
G1 X70.538 Y91.290 E3.06516
G1 X69.614 Y91.660 E3.10099
G1 X68.736 Y92.129 E3.13682
G1 X67.914 Y92.689 E3.17264
G1 X67.157 Y93.336 E3.20847
G1 X66.474 Y94.060 E3.24430
G1 X65.874 Y94.853 E3.28012
G1 X65.363 Y95.707 E3.31595
G1 X64.947 Y96.611 E3.35177
G1 X64.631 Y97.555 E3.38760
G1 X64.418 Y98.527 E3.42343
G1 X64.312 Y99.517 E3.45925
G1 X64.314 Y100.512 E3.49508
G1 X64.423 Y101.501 E3.53090
G1 X64.638 Y102.473 E3.56673
G1 X64.957 Y103.415 E3.60256
G1 X65.376 Y104.318 E3.63838
G1 X65.890 Y105.170 E3.67421
G1 X66.493 Y105.962 E3.71003
G1 X67.178 Y106.684 E3.74586
G1 X67.937 Y107.328 E3.78169
G1 X68.761 Y107.886 E3.81751
G1 X69.640 Y108.352 E3.85334
G1 X70.565 Y108.720 E3.88916
G1 X71.524 Y108.986 E3.92499
G1 X72.506 Y109.146 E3.96082
G1 X73.500 Y109.200 E3.99664
G1 X74.494 Y109.146 E4.03247
G1 X75.476 Y108.986 E4.06829
G1 X76.435 Y108.720 E4.10412
G1 X77.353 Y108.354 E4.13970
G1 X78.239 Y107.886 E4.17577
G1 X79.063 Y107.328 E4.21160
G1 X79.822 Y106.684 E4.24742
G1 X80.507 Y105.962 E4.28325
G1 X81.110 Y105.170 E4.31908
G1 X81.624 Y104.318 E4.35490
G1 X82.040 Y103.422 E4.39048
G1 X82.362 Y102.473 E4.42655
G1 X82.577 Y101.501 E4.46238
G1 X82.686 Y100.512 E4.49820
G1 X82.688 Y99.517 E4.53403
G1 X82.582 Y98.527 E4.56986
G1 X82.369 Y97.555 E4.60568
G1 X82.053 Y96.611 E4.64151
G1 X81.637 Y95.707 E4.67733
G1 X81.126 Y94.853 E4.71316
G1 X80.526 Y94.060 E4.74899
G1 X79.843 Y93.336 E4.78481
G1 X79.091 Y92.694 E4.82039
G1 X78.264 Y92.129 E4.85646
G1 X77.386 Y91.660 E4.89229
G1 X76.462 Y91.290 E4.92812
G1 X75.504 Y91.021 E4.96394
G1 X74.700 Y90.886 E4.99328
G1 X74.700 Y85.200 E5.19798
G1 X81.396 Y85.200 E5.43903
G1 X82.255 Y86.426 E5.49294
G1 X83.087 Y87.793 E5.55053
G1 X83.826 Y89.203 E5.60785
G1 X84.479 Y90.674 E5.66578
G1 X85.025 Y92.152 E5.72249
G1 X85.483 Y93.687 E5.78015
G1 X85.839 Y95.242 E5.83759
G1 X86.095 Y96.817 E5.89503
G1 X86.249 Y98.405 E5.95247
G1 X86.300 Y100.000 E6.00991
G1 X86.249 Y101.595 E6.06735
G1 X86.095 Y103.183 E6.12479
G1 X85.839 Y104.758 E6.18223
G1 X85.483 Y106.313 E6.23967
G1 X85.025 Y107.849 E6.29736
G1 X84.473 Y109.342 E6.35466
G1 X83.827 Y110.796 E6.41195
G1 X83.084 Y112.214 E6.46957
G1 X82.256 Y113.574 E6.52688
G1 X81.396 Y114.800 E6.58080
G1 X63.700 Y114.800 E7.21783
G1 X63.700 Y85.200 E8.28340
G1 X72.300 Y85.200 E8.59299
G1 X72.300 Y90.826 E8.79553
M204 S1500
G1 X71.934 Y90.726 F7800.000
G1 X71.753 Y85.934 F7800.000
M204 S600
G1 X71.566 Y85.747 E8.80531 F2400.000
G1 X71.063 Y85.747 E8.82392
G1 X71.753 Y86.437 E8.86002
G1 X71.753 Y86.941 E8.87863
G1 X70.559 Y85.747 E8.94104
G1 X70.056 Y85.747 E8.95966
G1 X71.753 Y87.444 E9.04839
G1 X71.753 Y87.947 E9.06701
G1 X69.553 Y85.747 E9.18206
G1 X69.050 Y85.747 E9.20068
G1 X71.753 Y88.450 E9.34205
G1 X71.753 Y88.954 E9.36067
G1 X68.546 Y85.747 E9.52837
G1 X68.043 Y85.747 E9.54698
G1 X71.753 Y89.457 E9.74100
G1 X71.753 Y89.960 E9.75961
G1 X67.540 Y85.747 E9.97995
G1 X67.037 Y85.747 E9.99856
G1 X71.720 Y90.430 E10.24349
G1 X71.309 Y90.523 E10.25907
G1 X66.534 Y85.747 E10.50883
G1 X66.030 Y85.747 E10.52744
G1 X70.916 Y90.633 E10.78298
G1 X70.523 Y90.743 E10.79807
G1 X65.527 Y85.747 E11.05937
G1 X65.024 Y85.747 E11.07798
G1 X70.154 Y90.878 E11.34632
G1 X69.795 Y91.022 E11.36063
G1 X64.521 Y85.747 E11.63651
G1 X64.247 Y85.977 E11.64972
G1 X69.436 Y91.166 E11.92113
G1 X69.107 Y91.340 E11.93490
G1 X64.247 Y86.480 E12.18909
G1 X64.247 Y86.983 E12.20771
G1 X68.779 Y91.515 E12.44474
G1 X68.454 Y91.694 E12.45844
G1 X64.247 Y87.487 E12.67848
G1 X64.247 Y87.990 E12.69709
G1 X68.155 Y91.898 E12.90148
G1 X67.856 Y92.102 E12.91488
G1 X64.247 Y88.493 E13.10361
G1 X64.247 Y88.996 E13.12222
G1 X67.561 Y92.311 E13.29557
G1 X67.290 Y92.542 E13.30877
G1 X64.247 Y89.500 E13.46792
G1 X64.247 Y90.003 E13.48653
G1 X67.019 Y92.774 E13.63148
G1 X66.753 Y93.011 E13.64466
G1 X64.247 Y90.506 E13.77570
G1 X64.247 Y91.009 E13.79431
G1 X66.508 Y93.270 E13.91257
G1 X66.264 Y93.529 E13.92574
G1 X64.247 Y91.512 E14.03123
G1 X64.247 Y92.016 E14.04984
G1 X66.026 Y93.794 E14.14287
G1 X65.809 Y94.081 E14.15616
G1 X64.247 Y92.519 E14.23785
G1 X64.247 Y93.022 E14.25646
G1 X65.592 Y94.367 E14.32682
G1 X65.383 Y94.661 E14.34016
G1 X64.247 Y93.525 E14.39957
G1 X64.247 Y94.029 E14.41818
G1 X65.195 Y94.976 E14.46772
G1 X65.006 Y95.291 E14.48129
G1 X64.247 Y94.532 E14.52098
G1 X64.247 Y95.035 E14.53959
G1 X64.828 Y95.616 E14.56999
G1 X64.440 Y95.731 E14.58496
G1 X64.247 Y95.538 E14.59506
M204 S1500
G1 X64.437 Y95.954 F7800.000
M204 S600
G1 X64.344 Y96.380 E14.61075 F2400.000
G1 X64.230 Y97.084 E14.63645
M204 S1500
G1 X64.121 Y97.920 F7800.000
M204 S600
G1 X64.061 Y98.479 E14.68013 F2400.000
G1 X64.006 Y99.508 E14.76002
G1 X64.007 Y100.536 E14.83980
G1 X64.063 Y101.550 E14.91857
G1 X64.120 Y102.076 E14.95962
M204 S1500
G1 X64.230 Y102.917 F7800.000
M204 S600
G1 X64.350 Y103.651 E14.98637 F2400.000
G1 X64.437 Y104.045 E15.00090
M204 S1500
G1 X64.247 Y105.157 F7800.000
M204 S600
G1 X73.343 Y114.253 E15.46884 F2400.000
G1 X72.848 Y114.253 E15.48684
G1 X64.247 Y105.652 E15.92931
G1 X64.247 Y106.147 E15.94732
G1 X72.353 Y114.253 E16.36433
G1 X71.858 Y114.253 E16.38233
G1 X64.247 Y106.642 E16.77388
G1 X64.247 Y107.137 E16.79189
G1 X71.363 Y114.253 E17.15797
G1 X70.868 Y114.253 E17.17598
G1 X64.247 Y107.632 E17.51660
G1 X64.247 Y108.126 E17.53460
G1 X70.374 Y114.253 E17.84977
G1 X69.879 Y114.253 E17.86777
G1 X64.247 Y108.621 E18.15747
G1 X64.247 Y109.116 E18.17547
G1 X69.384 Y114.253 E18.43971
G1 X68.889 Y114.253 E18.45771
G1 X64.247 Y109.611 E18.69649
G1 X64.247 Y110.106 E18.71449
G1 X68.394 Y114.253 E18.92780
G1 X67.899 Y114.253 E18.94581
G1 X64.247 Y110.601 E19.13366
G1 X64.247 Y111.096 E19.15166
G1 X67.404 Y114.253 E19.31405
G1 X66.909 Y114.253 E19.33206
G1 X64.247 Y111.591 E19.46898
G1 X64.247 Y112.086 E19.48698
G1 X66.414 Y114.253 E19.59845
G1 X65.919 Y114.253 E19.61645
G1 X64.247 Y112.581 E19.70245
G1 X64.247 Y113.076 E19.72046
G1 X65.424 Y114.253 E19.78099
G1 X64.929 Y114.253 E19.79900
G1 X64.247 Y113.571 E19.83408
G1 X64.247 Y114.066 E19.85208
G1 X64.434 Y114.253 E19.86169
M204 S1500
G1 X68.491 Y108.411 F7800.000
M204 S600
G1 X74.333 Y114.253 E20.16222 F2400.000
G1 X73.838 Y114.253 E20.18023
G1 X64.247 Y104.662 E20.67362
G1 X64.338 Y104.258 E20.68869
G1 X65.108 Y105.028 E20.72830
M204 S1500
G1 X69.492 Y108.916 F7800.000
M204 S600
G1 X74.828 Y114.253 E21.00284 F2400.000
G1 X75.323 Y114.253 E21.02084
G1 X70.310 Y109.240 E21.27872
G1 X70.995 Y109.430 E21.30457
G1 X75.818 Y114.253 E21.55267
G1 X76.313 Y114.253 E21.57068
G1 X71.631 Y109.571 E21.81155
G1 X72.223 Y109.668 E21.83336
G1 X76.808 Y114.253 E22.06924
G1 X77.303 Y114.253 E22.08725
G1 X72.763 Y109.712 E22.32082
G1 X73.286 Y109.741 E22.33988
G1 X77.798 Y114.253 E22.57199
G1 X78.293 Y114.253 E22.58999
G1 X73.770 Y109.730 E22.82267
G1 X74.239 Y109.704 E22.83977
G1 X78.788 Y114.253 E23.07376
G1 X79.283 Y114.253 E23.09176
G1 X74.688 Y109.658 E23.32813
G1 X75.113 Y109.588 E23.34381
G1 X79.778 Y114.253 E23.58375
G1 X80.273 Y114.253 E23.60176
G1 X75.538 Y109.519 E23.84530
G1 X75.926 Y109.411 E23.85993
G1 X80.767 Y114.253 E24.10900
G1 X81.189 Y114.180 E24.12458
G1 X76.313 Y109.304 E24.37541
G1 X76.689 Y109.184 E24.38974
G1 X81.398 Y113.894 E24.63202
G1 X81.602 Y113.603 E24.64495
G1 X77.043 Y109.043 E24.87951
G1 X77.397 Y108.902 E24.89337
G1 X81.806 Y113.312 E25.12021
G1 X81.994 Y113.004 E25.13331
G1 X77.733 Y108.743 E25.35251
G1 X78.057 Y108.572 E25.36583
G1 X82.181 Y112.697 E25.57801
G1 X82.368 Y112.389 E25.59111
G1 X78.380 Y108.401 E25.79627
G1 X78.685 Y108.210 E25.80934
G1 X82.556 Y112.081 E26.00848
G1 X82.732 Y111.762 E26.02173
G1 X78.980 Y108.011 E26.21473
G1 X79.275 Y107.811 E26.22770
G1 X82.902 Y111.437 E26.41427
G1 X83.072 Y111.113 E26.42761
G1 X79.551 Y107.592 E26.60873
G1 X79.819 Y107.365 E26.62150
G1 X83.242 Y110.788 E26.79760
G1 X83.405 Y110.456 E26.81106
G1 X80.087 Y107.138 E26.98175
G1 X80.337 Y106.893 E26.99448
G1 X83.557 Y110.113 E27.16015
G1 X83.709 Y109.770 E27.17379
G1 X80.578 Y106.639 E27.33491
G1 X80.819 Y106.385 E27.34764
G1 X83.862 Y109.428 E27.50419
G1 X84.009 Y109.080 E27.51793
G1 X81.042 Y106.114 E27.67053
G1 X81.256 Y105.833 E27.68338
