; generated by Slic3r 1.2.9 on 2017-04-28 at 17:30:53

; external perimeters extrusion width = 0.40mm
; perimeters extrusion width = 0.40mm
; infill extrusion width = 0.40mm
; solid infill extrusion width = 0.40mm
; top infill extrusion width = 0.40mm

M107
M190 S75 ; set bed temperature
M104 S235 ; set temperature
G28 ; home all axes
G1 Z5 F5000 ; lift nozzle

M109 S235 ; wait for temperature to be reached
G21 ; set units to millimeters
G90 ; use absolute coordinates
M82 ; use absolute distances for extrusion
G92 E0
G1 Z0.250 F7800.000
G1 E-3.00000 F2100.00000
G92 E0
G1 X59.678 Y54.512 F7800.000
G1 E3.00000 F2100.00000
M204 S600
G1 X61.456 Y52.574 E3.09466 F2400.000
G1 X63.731 Y51.257 E3.18932
G1 X66.900 Y50.658 E3.30542
G1 X77.500 Y50.658 E3.68700
G1 X80.099 Y51.056 E3.78166
G1 X82.461 Y52.213 E3.87632 F2400.000
G1 X83.547 Y53.106 E3.92695
G1 X115.947 Y84.479 E5.55051
G1 X117.537 Y86.573 E5.64516
G1 X118.429 Y89.047 E5.73982
G1 X118.593 Y90.724 E5.80049
G1 X118.593 Y102.351 E6.21904
G1 X118.195 Y104.950 E6.31370
G1 X117.038 Y107.312 E6.40836
G1 X114.273 Y109.864 E6.54383
G1 X48.473 Y148.162 E9.28456
G1 X46.026 Y149.126 E9.37922
G1 X44.100 Y149.342 E9.44899
G1 X40.100 Y149.342 E9.59299
G1 X37.501 Y148.944 E9.68765
G1 X35.140 Y147.787 E9.78231
G1 X33.232 Y145.977 E9.87696
G1 X31.953 Y143.680 E9.97162
G1 X31.407 Y140.649 E10.08249
G1 X31.407 Y99.351 E11.56917
G1 X31.805 Y96.752 E11.66383
G1 X32.879 Y94.512 E11.75322
G1 X59.645 Y54.562 E13.48434
M204 S1500
G1 X59.966 Y54.705 F7800.000
M204 S600
G1 X61.713 Y52.812 E13.57708 F2400.000
G1 X63.955 Y51.542 E13.66982
G1 X66.900 Y51.005 E13.77761
G1 X77.500 Y51.005 E14.15919
G1 X80.045 Y51.402 E14.25193
G1 X83.306 Y53.355 E14.38875 F2400.000
G1 X115.706 Y84.728 E16.01231
G1 X117.258 Y86.784 E16.10505
G1 X118.109 Y89.216 E16.19779
G1 X118.246 Y90.724 E16.25230
G1 X118.246 Y102.351 E16.67086
G1 X117.849 Y104.896 E16.76360
G1 X116.694 Y107.199 E16.85634
G1 X114.098 Y109.564 E16.98274
G1 X48.299 Y147.863 E19.72347
G1 X45.899 Y148.799 E19.81621
G1 X44.100 Y148.995 E19.88135
G1 X40.100 Y148.995 E20.02534
G1 X37.555 Y148.598 E20.11808
G1 X35.252 Y147.443 E20.21083
G1 X33.411 Y145.641 E20.30357
G1 X32.207 Y143.363 E20.39631
G1 X31.754 Y140.649 E20.49536
G1 X31.754 Y99.351 E21.98204
G1 X32.151 Y96.806 E22.07478
G1 X33.166 Y94.705 E22.15876
G1 X59.933 Y54.755 E23.88987
M204 S1500
G1 E20.88987 F2100.00000
G92 E0
G1 X105.092 Y97.342 F7800.000
G1 E3.00000 F2100.00000
M204 S600
G1 X104.736 Y97.157 E3.01444 F2400.000
G1 X104.396 Y96.886 E3.03008
G1 X104.117 Y96.550 E3.04582
G1 X103.912 Y96.168 E3.06143
G1 X103.791 Y95.762 E3.07668
G1 X103.751 Y95.351 E3.09156
G1 X103.792 Y94.937 E3.10652
G1 X103.909 Y94.543 E3.12132
G1 X104.094 Y94.187 E3.13576
G1 X104.365 Y93.847 E3.15141
G1 X104.701 Y93.568 E3.16714
G1 X105.083 Y93.363 E3.18274
G1 X105.487 Y93.242 E3.19793
G1 X105.873 Y93.203 E3.21188 F2400.000
G1 X106.286 Y93.237 E3.22680
G1 X106.682 Y93.349 E3.24164
G1 X107.063 Y93.543 E3.25702
G1 X107.404 Y93.815 E3.27273
G1 X107.683 Y94.152 E3.28847
G1 X107.888 Y94.534 E3.30407
G1 X108.009 Y94.940 E3.31932
G1 X108.049 Y95.349 E3.33413
G1 X108.013 Y95.740 E3.34827
G1 X107.892 Y96.157 E3.36390
G1 X107.707 Y96.515 E3.37840
G1 X107.435 Y96.855 E3.39405
G1 X107.099 Y97.134 E3.40979
G1 X106.717 Y97.339 E3.42539
G1 X106.311 Y97.460 E3.44064
G1 X105.900 Y97.500 E3.45553
G1 X105.486 Y97.459 E3.47049
G1 X105.150 Y97.359 E3.48313
M204 S1500
G1 X105.222 Y97.019 F7800.000
M204 S600
G1 X104.925 Y96.865 E3.49517 F2400.000
G1 X104.640 Y96.638 E3.50832
G1 X104.405 Y96.356 E3.52152
G1 X104.234 Y96.035 E3.53460
G1 X104.132 Y95.695 E3.54738
G1 X104.099 Y95.351 E3.55984
G1 X104.133 Y95.004 E3.57239
G1 X104.232 Y94.673 E3.58480
G1 X104.386 Y94.376 E3.59684
G1 X104.613 Y94.091 E3.61000
G1 X104.895 Y93.856 E3.62319
G1 X105.216 Y93.685 E3.63627
G1 X105.555 Y93.583 E3.64903
G1 X105.876 Y93.550 E3.66064 F2400.000
G1 X106.223 Y93.579 E3.67319
G1 X106.555 Y93.673 E3.68560
G1 X106.874 Y93.836 E3.69849
G1 X107.160 Y94.064 E3.71167
G1 X107.395 Y94.346 E3.72486
G1 X107.566 Y94.666 E3.73794
G1 X107.668 Y95.007 E3.75073
G1 X107.701 Y95.350 E3.76316
G1 X107.672 Y95.676 E3.77492
G1 X107.569 Y96.028 E3.78813
G1 X107.415 Y96.326 E3.80019
G1 X107.187 Y96.611 E3.81334
G1 X106.905 Y96.846 E3.82654
G1 X106.584 Y97.017 E3.83962
G1 X106.244 Y97.119 E3.85240
G1 X105.900 Y97.152 E3.86486
G1 X105.553 Y97.118 E3.87741
G1 X105.280 Y97.037 E3.88766
M204 S1500
G1 X104.952 Y97.217 F7800.000
G1 E0.88766 F2100.00000
G92 E0
G1 X76.049 Y95.349 F7800.000
G1 E3.00000 F2100.00000
M204 S600
G1 X76.013 Y95.740 E3.01413 F2400.000
G1 X75.892 Y96.157 E3.02977
G1 X75.707 Y96.515 E3.04427
G1 X75.435 Y96.855 E3.05992
G1 X75.099 Y97.134 E3.07565
G1 X74.717 Y97.339 E3.09126
G1 X74.311 Y97.460 E3.10651
G1 X73.900 Y97.500 E3.12139
G1 X73.486 Y97.459 E3.13636
G1 X73.092 Y97.342 E3.15115
G1 X72.736 Y97.157 E3.16559
G1 X72.396 Y96.886 E3.18123
G1 X72.117 Y96.550 E3.19697
G1 X71.912 Y96.168 E3.21258
G1 X71.791 Y95.762 E3.22783
G1 X71.751 Y95.352 E3.24265
G1 X71.787 Y94.964 E3.25670
G1 X71.898 Y94.569 E3.27147
G1 X72.093 Y94.188 E3.28685
G1 X72.365 Y93.847 E3.30256
G1 X72.701 Y93.568 E3.31830
G1 X73.083 Y93.363 E3.33390
G1 X73.487 Y93.242 E3.34909
G1 X73.873 Y93.203 E3.36303 F2400.000
G1 X74.286 Y93.237 E3.37795
G1 X74.682 Y93.349 E3.39280
G1 X75.063 Y93.543 E3.40817
G1 X75.404 Y93.815 E3.42388
G1 X75.683 Y94.152 E3.43962
G1 X75.888 Y94.534 E3.45522
G1 X76.009 Y94.940 E3.47047
G1 X76.043 Y95.290 E3.48313
M204 S1500
G1 X75.701 Y95.350 F7800.000
M204 S600
G1 X75.672 Y95.676 E3.49489 F2400.000
G1 X75.569 Y96.028 E3.50810
G1 X75.415 Y96.326 E3.52016
G1 X75.187 Y96.611 E3.53332
G1 X74.905 Y96.846 E3.54651
G1 X74.584 Y97.017 E3.55959
G1 X74.244 Y97.119 E3.57237
G1 X73.900 Y97.152 E3.58483
G1 X73.553 Y97.118 E3.59738
G1 X73.222 Y97.019 E3.60980
G1 X72.925 Y96.865 E3.62184
G1 X72.640 Y96.638 E3.63499
G1 X72.405 Y96.356 E3.64818
G1 X72.234 Y96.035 E3.66127
G1 X72.132 Y95.695 E3.67405
G1 X72.099 Y95.352 E3.68648
G1 X72.129 Y95.027 E3.69821
G1 X72.222 Y94.696 E3.71059
G1 X72.385 Y94.377 E3.72349
G1 X72.613 Y94.091 E3.73667
G1 X72.895 Y93.856 E3.74986
G1 X73.216 Y93.685 E3.76294
G1 X73.555 Y93.583 E3.77570
G1 X73.876 Y93.550 E3.78731 F2400.000
G1 X74.223 Y93.579 E3.79986
G1 X74.555 Y93.673 E3.81227
G1 X74.874 Y93.836 E3.82516
G1 X75.160 Y94.064 E3.83834
G1 X75.395 Y94.346 E3.85153
G1 X75.566 Y94.666 E3.86461
G1 X75.668 Y95.007 E3.87740
G1 X75.695 Y95.291 E3.88767
M204 S1500
G1 X75.979 Y95.522 F7800.000
G1 E0.88767 F2100.00000
G92 E0
G1 X73.902 Y65.500 F7800.000
G1 E3.00000 F2100.00000
M204 S600
G1 X73.513 Y65.464 E3.01406 F2400.000
G1 X73.118 Y65.353 E3.02883
G1 X72.737 Y65.158 E3.04421
G1 X72.396 Y64.886 E3.05992
G1 X72.117 Y64.550 E3.07566
G1 X71.912 Y64.168 E3.09126
G1 X71.791 Y63.762 E3.10651
G1 X71.751 Y63.351 E3.12139
G1 X71.792 Y62.937 E3.13636
G1 X71.909 Y62.543 E3.15116
G1 X72.094 Y62.187 E3.16559
G1 X72.365 Y61.847 E3.18124
G1 X72.701 Y61.568 E3.19698
G1 X73.083 Y61.363 E3.21258
G1 X73.487 Y61.242 E3.22777
G1 X73.873 Y61.203 E3.24171 F2400.000
G1 X74.286 Y61.237 E3.25663
G1 X74.682 Y61.349 E3.27148
G1 X75.063 Y61.543 E3.28685
G1 X75.404 Y61.816 E3.30256
G1 X75.683 Y62.152 E3.31830
G1 X75.888 Y62.534 E3.33390
G1 X76.009 Y62.940 E3.34915
G1 X76.049 Y63.349 E3.36397
G1 X76.013 Y63.740 E3.37810
G1 X75.892 Y64.157 E3.39374
G1 X75.707 Y64.515 E3.40824
G1 X75.435 Y64.855 E3.42389
G1 X75.099 Y65.134 E3.43962
G1 X74.717 Y65.339 E3.45523
G1 X74.311 Y65.460 E3.47047
G1 X73.961 Y65.494 E3.48313
M204 S1500
G1 X73.901 Y65.152 F7800.000
M204 S600
G1 X73.576 Y65.122 E3.49487 F2400.000
G1 X73.245 Y65.029 E3.50725
G1 X72.926 Y64.866 E3.52014
G1 X72.640 Y64.638 E3.53332
G1 X72.405 Y64.356 E3.54651
G1 X72.234 Y64.035 E3.55960
G1 X72.132 Y63.695 E3.57238
G1 X72.099 Y63.351 E3.58483
G1 X72.133 Y63.004 E3.59738
G1 X72.232 Y62.673 E3.60980
G1 X72.386 Y62.376 E3.62184
G1 X72.613 Y62.091 E3.63499
G1 X72.895 Y61.856 E3.64819
G1 X73.216 Y61.685 E3.66127
G1 X73.555 Y61.583 E3.67403
G1 X73.876 Y61.550 E3.68564 F2400.000
G1 X74.223 Y61.579 E3.69818
G1 X74.555 Y61.673 E3.71060
G1 X74.874 Y61.836 E3.72349
G1 X75.160 Y62.064 E3.73667
G1 X75.395 Y62.346 E3.74986
G1 X75.566 Y62.666 E3.76294
G1 X75.668 Y63.007 E3.77572
G1 X75.701 Y63.350 E3.78816
G1 X75.672 Y63.676 E3.79991
G1 X75.569 Y64.028 E3.81312
G1 X75.415 Y64.326 E3.82519
G1 X75.187 Y64.611 E3.83834
G1 X74.905 Y64.846 E3.85153
G1 X74.584 Y65.017 E3.86462
G1 X74.244 Y65.119 E3.87740
G1 X73.960 Y65.146 E3.88767
M204 S1500
G1 X73.730 Y65.429 F7800.000
G1 E0.88767 F2100.00000
G92 E0
G1 X67.446 Y99.897 F7800.000
G1 E3.00000 F2100.00000
M204 S600
G1 X67.446 Y59.897 E4.43995 F2400.000
G1 X76.954 Y59.897 E4.78221
G1 X76.954 Y64.692 E4.95482
G1 X76.395 Y65.214 E4.98236
G1 X75.714 Y65.918 E5.01761
G1 X75.173 Y66.531 E5.04703
G1 X74.552 Y67.305 E5.08276
G1 X73.952 Y68.136 E5.11965
G1 X73.516 Y68.806 E5.14842
G1 X73.009 Y69.665 E5.18434
G1 X72.534 Y70.577 E5.22134
G1 X72.119 Y71.487 E5.25736
G1 X71.810 Y72.256 E5.28719
G1 X71.482 Y73.199 E5.32313
G1 X71.196 Y74.181 E5.35996
G1 X70.968 Y75.145 E5.39562
G1 X70.818 Y75.949 E5.42504
G1 X70.681 Y76.919 E5.46030
G1 X70.593 Y77.914 E5.49628
G1 X70.555 Y78.903 E5.53192
G1 X70.568 Y79.892 E5.56750
G1 X70.615 Y80.701 E5.59670
G1 X70.718 Y81.681 E5.63217
G1 X70.877 Y82.689 E5.66891
G1 X71.089 Y83.694 E5.70586
G1 X71.345 Y84.657 E5.74173
G1 X71.586 Y85.420 E5.77053
G1 X71.930 Y86.357 E5.80647
G1 X72.252 Y87.121 E5.83632
G1 X72.683 Y88.023 E5.87232
G1 X73.173 Y88.925 E5.90927
G1 X73.692 Y89.774 E5.94509
G1 X74.153 Y90.454 E5.97467
G1 X74.744 Y91.244 E6.01017
G1 X75.370 Y92.000 E6.04550
G1 X76.064 Y92.755 E6.08243
G1 X76.792 Y93.468 E6.11911
G1 X77.725 Y94.281 E6.16365
G1 X78.524 Y94.901 E6.20005
G1 X79.382 Y95.497 E6.23769
G1 X80.426 Y96.135 E6.28172
G1 X81.356 Y96.632 E6.31968
G1 X82.285 Y97.067 E6.35663
G1 X83.239 Y97.454 E6.39366
G1 X84.239 Y97.798 E6.43173
G1 X85.447 Y98.136 E6.47689
G1 X86.450 Y98.354 E6.51386
G1 X87.459 Y98.518 E6.55064
G1 X88.496 Y98.631 E6.58818
G1 X89.505 Y98.688 E6.62457
G1 X90.699 Y98.688 E6.66757
G1 X91.716 Y98.631 E6.70422
G1 X92.754 Y98.516 E6.74182
G1 X93.941 Y98.316 E6.78516
G1 X94.960 Y98.084 E6.82279
G1 X95.945 Y97.803 E6.85966
G1 X96.943 Y97.460 E6.89764
G1 X98.077 Y96.996 E6.94173
G1 X99.029 Y96.539 E6.97978
G1 X99.932 Y96.045 E7.01684
G1 X100.831 Y95.488 E7.05488
G1 X101.833 Y94.784 E7.09897
G1 X102.656 Y94.132 E7.13676
G1 X103.417 Y93.459 E7.17335
G1 X104.157 Y92.733 E7.21065
G1 X104.835 Y91.994 E7.24676
G1 X105.427 Y91.270 E7.28043
G1 X109.353 Y91.270 E7.42176
G1 X109.353 Y101.805 E7.80098
G1 X72.172 Y101.805 E9.13947
G1 X43.554 Y130.423 E10.59642
G1 X43.554 Y140.103 E10.94489
G1 X40.647 Y140.103 E11.04955
G1 X40.647 Y99.897 E12.49690
G1 X67.386 Y99.897 E13.45950
M204 S1500
G1 X67.100 Y99.551 F7800.000
M204 S600
G1 X67.100 Y59.551 E14.89946 F2400.000
G1 X77.300 Y59.551 E15.26664
G1 X77.300 Y64.843 E15.45715
G1 X76.637 Y65.462 E15.48978
G1 X75.969 Y66.153 E15.52442
G1 X75.438 Y66.754 E15.55328
G1 X74.828 Y67.515 E15.58839
G1 X74.238 Y68.332 E15.62467
G1 X73.810 Y68.988 E15.65287
G1 X73.312 Y69.833 E15.68817
G1 X72.846 Y70.729 E15.72453
G1 X72.437 Y71.623 E15.75992
G1 X72.135 Y72.378 E15.78918
G1 X71.812 Y73.304 E15.82450
G1 X71.531 Y74.269 E15.86069
G1 X71.307 Y75.217 E15.89574
G1 X71.160 Y76.005 E15.92458
G1 X71.026 Y76.958 E15.95925
G1 X70.938 Y77.936 E15.99459
G1 X70.902 Y78.908 E16.02960
G1 X70.914 Y79.879 E16.06457
G1 X70.961 Y80.673 E16.09320
G1 X71.062 Y81.636 E16.12807
G1 X71.217 Y82.627 E16.16416
G1 X71.426 Y83.613 E16.20045
G1 X71.678 Y84.560 E16.23571
G1 X71.914 Y85.308 E16.26395
G1 X72.253 Y86.230 E16.29930
G1 X72.568 Y86.979 E16.32858
G1 X72.992 Y87.866 E16.36396
G1 X73.473 Y88.752 E16.40026
G1 X73.984 Y89.586 E16.43547
G1 X74.436 Y90.253 E16.46448
G1 X75.016 Y91.030 E16.49938
G1 X75.631 Y91.772 E16.53406
G1 X76.313 Y92.514 E16.57035
G1 X77.028 Y93.213 E16.60634
G1 X77.945 Y94.013 E16.65016
G1 X78.729 Y94.621 E16.68587
G1 X79.572 Y95.207 E16.72282
G1 X80.598 Y95.835 E16.76613
G1 X81.511 Y96.323 E16.80339
G1 X82.424 Y96.750 E16.83969
G1 X83.360 Y97.129 E16.87605
G1 X84.342 Y97.467 E16.91343
G1 X85.530 Y97.799 E16.95785
G1 X86.515 Y98.013 E16.99413
G1 X87.506 Y98.175 E17.03025
G1 X88.524 Y98.286 E17.06714
G1 X89.514 Y98.342 E17.10285
G1 X90.689 Y98.342 E17.14514
G1 X91.687 Y98.285 E17.18111
G1 X92.706 Y98.173 E17.21803
G1 X93.874 Y97.976 E17.26065
G1 X94.874 Y97.748 E17.29759
G1 X95.841 Y97.472 E17.33379
G1 X96.821 Y97.136 E17.37108
G1 X97.936 Y96.679 E17.41445
G1 X98.871 Y96.230 E17.45180
G1 X99.758 Y95.745 E17.48819
G1 X100.640 Y95.199 E17.52554
G1 X101.626 Y94.507 E17.56889
G1 X102.433 Y93.866 E17.60599
G1 X103.181 Y93.205 E17.64193
G1 X103.908 Y92.492 E17.67858
G1 X104.573 Y91.767 E17.71401
G1 X105.263 Y90.924 E17.75323
G1 X109.700 Y90.924 E17.91294
G1 X109.700 Y102.151 E18.31709
G1 X72.315 Y102.151 E19.66288
G1 X43.900 Y130.566 E21.10951
G1 X43.900 Y140.449 E21.46528
G1 X40.300 Y140.449 E21.59487
G1 X40.300 Y99.551 E23.06716
G1 X67.040 Y99.551 E24.02977
M204 S1500
G1 X67.500 Y99.551 F7800.000
G1 X67.647 Y99.742 F7800.000
M204 S600
G1 X70.820 Y102.915 E24.19169 F2400.000
G1 X71.066 Y102.670 E24.20422
G1 X67.647 Y99.251 E24.37868
G1 X67.647 Y98.760 E24.39639
G1 X71.311 Y102.424 E24.58338
G1 X71.557 Y102.179 E24.59590
G1 X67.647 Y98.269 E24.79542
G1 X67.647 Y97.778 E24.81313
G1 X71.802 Y101.933 E25.02517
G1 X72.048 Y101.688 E25.03770
G1 X67.647 Y97.287 E25.26226
G1 X67.647 Y96.796 E25.27998
G1 X72.455 Y101.604 E25.52532
G1 X72.946 Y101.604 E25.54304
G1 X67.647 Y96.305 E25.81344
G1 X67.647 Y95.814 E25.83115
G1 X73.437 Y101.604 E26.12660
G1 X73.928 Y101.604 E26.14432
G1 X67.647 Y95.323 E26.46483
G1 X67.647 Y94.832 E26.48254
G1 X74.419 Y101.604 E26.82811
G1 X74.910 Y101.604 E26.84582
G1 X67.647 Y94.341 E27.21644
G1 X67.647 Y93.850 E27.23416
G1 X75.401 Y101.604 E27.62983
G1 X75.892 Y101.604 E27.64755
G1 X67.647 Y93.359 E28.06828
G1 X67.647 Y92.868 E28.08599
G1 X76.383 Y101.604 E28.53178
G1 X76.874 Y101.604 E28.54949
G1 X72.664 Y97.393 E28.76435
M204 S1500
G1 X73.424 Y97.663 F7800.000
M204 S600
G1 X77.365 Y101.604 E28.96546 F2400.000
G1 X77.856 Y101.604 E28.98318
G1 X73.943 Y97.691 E29.18286
G1 X74.375 Y97.632 E29.19860
G1 X78.347 Y101.604 E29.40128
G1 X78.838 Y101.604 E29.41899
G1 X74.752 Y97.518 E29.62748
G1 X75.072 Y97.347 E29.64057
G1 X79.329 Y101.604 E29.85778
G1 X79.820 Y101.604 E29.87550
G1 X75.358 Y97.142 E30.10320
G1 X75.613 Y96.906 E30.11574
G1 X80.311 Y101.604 E30.35545
G1 X80.802 Y101.604 E30.37317
G1 X75.831 Y96.633 E30.62682
G1 X76.006 Y96.317 E30.63985
G1 X81.293 Y101.604 E30.90962
G1 X81.784 Y101.604 E30.92733
G1 X76.140 Y95.960 E31.21532
G1 X76.226 Y95.555 E31.23028
G1 X82.275 Y101.604 E31.53897
G1 X82.766 Y101.604 E31.55668
G1 X76.231 Y95.069 E31.89015
M204 S1500
G1 X76.095 Y94.442 F7800.000
M204 S600
G1 X83.257 Y101.604 E32.25559 F2400.000
M204 S1500
G1 X84.045 Y97.973 F7800.000
M204 S600
G1 X87.675 Y101.604 E32.44086 F2400.000
G1 X88.166 Y101.604 E32.45858
G1 X84.730 Y98.167 E32.63395
G1 X85.403 Y98.349 E32.65911
G1 X88.657 Y101.604 E32.82519
G1 X89.148 Y101.604 E32.84291
G1 X86.030 Y98.486 E33.00202
G1 X86.636 Y98.601 E33.02427
G1 X89.639 Y101.604 E33.17753
G1 X90.130 Y101.604 E33.19524
G1 X87.223 Y98.696 E33.34362
G1 X87.782 Y98.764 E33.36393
G1 X90.621 Y101.604 E33.50884
G1 X91.112 Y101.604 E33.52656
G1 X88.333 Y98.824 E33.66840
G1 X88.857 Y98.857 E33.68735
G1 X91.603 Y101.604 E33.82750
G1 X92.094 Y101.604 E33.84521
G1 X89.377 Y98.887 E33.98387
G1 X89.871 Y98.889 E34.00168
G1 X92.585 Y101.604 E34.14020
G1 X93.076 Y101.604 E34.15792
G1 X90.362 Y98.889 E34.29644
G1 X90.841 Y98.877 E34.31374
G1 X93.567 Y101.604 E34.45287
G1 X94.058 Y101.604 E34.47058
G1 X91.305 Y98.851 E34.61105
G1 X91.765 Y98.820 E34.62768
G1 X94.549 Y101.604 E34.76975
G1 X95.040 Y101.604 E34.78747
G1 X92.207 Y98.771 E34.93202
G1 X92.650 Y98.722 E34.94808
G1 X95.531 Y101.604 E35.09512
G1 X96.022 Y101.604 E35.11283
G1 X93.073 Y98.655 E35.26331
G1 X93.493 Y98.584 E35.27868
G1 X96.513 Y101.604 E35.43277
G1 X97.004 Y101.604 E35.45049
G1 X93.914 Y98.513 E35.60819
