; generated by Slic3r 1.2.9 on 2017-04-28 at 17:21:36

; external perimeters extrusion width = 0.40mm
; perimeters extrusion width = 0.40mm
; infill extrusion width = 0.40mm
; solid infill extrusion width = 0.40mm
; top infill extrusion width = 0.40mm

M107
M190 S75 ; set bed temperature
M104 S235 ; set temperature
G28 ; home all axes
G1 Z5 F5000 ; lift nozzle

M109 S235 ; wait for temperature to be reached
G21 ; set units to millimeters
G90 ; use absolute coordinates
M82 ; use absolute distances for extrusion
G92 E0
G1 Z0.250 F7800.000
G1 E-3.00000 F2100.00000
G92 E0
G1 X55.344 Y57.326 F7800.000
G1 E3.00000 F2100.00000
M204 S600
G1 X56.720 Y55.997 E3.06887 F2400.000
G1 X58.904 Y54.441 E3.16541
G1 X61.449 Y53.595 E3.26194
G1 X62.998 Y53.461 E3.31793
G1 X95.095 Y53.461 E4.47337
G1 X97.747 Y53.859 E4.56990
G1 X100.050 Y54.940 E4.66149 F2400.000
G1 X102.050 Y56.726 E4.75802
G1 X103.438 Y59.021 E4.85456
G1 X104.092 Y61.621 E4.95110
G1 X104.117 Y63.064 E5.00302
G1 X100.365 Y123.175 E7.17117
G1 X99.285 Y138.069 E7.70875
G1 X99.016 Y139.725 E7.76913
G1 X97.978 Y142.197 E7.86567
G1 X96.260 Y144.256 E7.96220
G1 X94.013 Y145.721 E8.05874
G1 X90.255 Y146.539 E8.19721
G1 X69.998 Y146.539 E8.92642
G1 X67.346 Y146.141 E9.02296
G1 X64.928 Y144.983 E9.11950
G1 X62.985 Y143.202 E9.21438
G1 X44.155 Y120.041 E10.28891
G1 X42.791 Y117.733 E10.38544
G1 X42.130 Y114.412 E10.50733
G1 X41.963 Y93.596 E11.25670
G1 X41.963 Y84.704 E11.57682
G1 X42.349 Y73.402 E11.98392
G1 X42.838 Y70.765 E12.08045
G1 X44.079 Y68.388 E12.17699
G1 X45.104 Y67.211 E12.23316
G1 X55.300 Y57.367 E12.74337
M204 S1500
G1 X55.584 Y57.575 F7800.000
M204 S600
G1 X56.961 Y56.246 E12.81224 F2400.000
G1 X59.107 Y54.727 E12.90690
G1 X61.609 Y53.919 E13.00155
G1 X62.998 Y53.807 E13.05172
G1 X95.095 Y53.807 E14.20716
G1 X97.694 Y54.205 E14.30182
G1 X99.860 Y55.230 E14.38807 F2400.000
G1 X101.816 Y56.987 E14.48273
G1 X103.157 Y59.249 E14.57739
G1 X103.771 Y63.042 E14.71572
G1 X100.018 Y123.180 E16.88484
G1 X98.940 Y138.041 E17.42122
G1 X98.680 Y139.639 E17.47951
G1 X97.655 Y142.061 E17.57417
G1 X95.953 Y144.065 E17.66883
G1 X93.729 Y145.468 E17.76349
G1 X90.255 Y146.193 E17.89124
G1 X69.998 Y146.193 E18.62046
G1 X67.399 Y145.795 E18.71512
G1 X65.038 Y144.638 E18.80978
G1 X63.253 Y142.984 E18.89738
G1 X44.424 Y119.823 E19.97191
G1 X43.093 Y117.555 E20.06656
G1 X42.476 Y114.409 E20.18197
G1 X42.309 Y93.593 E20.93134
G1 X42.309 Y84.704 E21.25136
G1 X42.695 Y73.414 E21.65803
G1 X43.182 Y70.830 E21.75269
G1 X44.420 Y68.510 E21.84734
G1 X45.345 Y67.460 E21.89769
G1 X55.541 Y57.617 E22.40790
M204 S1500
G1 X55.825 Y57.824 F7800.000
M204 S600
G1 X57.201 Y56.495 E22.47677 F2400.000
G1 X59.309 Y55.013 E22.56951
G1 X62.998 Y54.154 E22.70589
G1 X95.095 Y54.154 E23.86133
G1 X97.640 Y54.551 E23.95407
G1 X99.670 Y55.519 E24.03503 F2400.000
G1 X101.581 Y57.247 E24.12777
G1 X102.874 Y59.475 E24.22051
G1 X103.426 Y63.020 E24.34967
G1 X99.672 Y123.157 E26.51875
G1 X98.595 Y138.013 E27.05494
G1 X98.344 Y139.554 E27.11114
G1 X97.333 Y141.923 E27.20388
G1 X95.646 Y143.871 E27.29662
G1 X93.447 Y145.212 E27.38937
G1 X90.255 Y145.846 E27.50651
G1 X69.998 Y145.846 E28.23573
G1 X67.453 Y145.449 E28.32847
G1 X65.150 Y144.294 E28.42121
G1 X63.522 Y142.765 E28.50161
G1 X44.693 Y119.604 E29.57613
G1 X43.395 Y117.379 E29.66888
G1 X42.823 Y114.406 E29.77784
G1 X42.656 Y93.591 E30.52721
G1 X42.655 Y84.704 E30.84713
G1 X43.041 Y73.426 E31.25336
G1 X43.526 Y70.895 E31.34611
G1 X45.585 Y67.710 E31.48266
G1 X55.782 Y57.866 E31.99286
M204 S1500
G1 E28.99286 F2100.00000
G92 E0
G1 X87.496 Y129.939 F7800.000
G1 E3.00000 F2100.00000
M204 S600
G1 X87.723 Y130.423 E3.01926 F2400.000
G1 X87.827 Y130.965 E3.03912
G1 X87.792 Y131.515 E3.05898
G1 X87.622 Y132.040 E3.07884
G1 X87.326 Y132.506 E3.09869
G1 X86.924 Y132.883 E3.11855
G1 X86.441 Y133.149 E3.13841
G1 X85.906 Y133.286 E3.15827
G1 X85.355 Y133.286 E3.17813
G1 X84.820 Y133.149 E3.19799
G1 X84.337 Y132.883 E3.21784
G1 X83.935 Y132.506 E3.23770
G1 X83.648 Y132.054 E3.25696
G1 X83.468 Y131.515 E3.27740
G1 X83.437 Y130.948 E3.29785
G1 X83.538 Y130.423 E3.31711
G1 X83.772 Y129.924 E3.33696
G1 X84.124 Y129.499 E3.35682
G1 X84.572 Y129.173 E3.37676
G1 X85.100 Y128.969 E3.39712
G1 X85.630 Y128.902 E3.41638 F2400.000
G1 X86.178 Y128.971 E3.43624
G1 X86.691 Y129.174 E3.45610
G1 X87.139 Y129.500 E3.47604
G1 X87.458 Y129.892 E3.49424
M204 S1500
G1 X87.200 Y130.124 F7800.000
M204 S600
G1 X87.391 Y130.531 E3.51040 F2400.000
G1 X87.478 Y130.987 E3.52711
G1 X87.449 Y131.450 E3.54382
G1 X87.306 Y131.891 E3.56053
G1 X87.057 Y132.283 E3.57723
G1 X86.719 Y132.601 E3.59394
G1 X86.312 Y132.824 E3.61065
G1 X85.863 Y132.940 E3.62736
G1 X85.398 Y132.940 E3.64407
G1 X84.949 Y132.824 E3.66077
G1 X84.542 Y132.601 E3.67748
G1 X84.204 Y132.283 E3.69419
G1 X83.963 Y131.904 E3.71035
G1 X83.811 Y131.450 E3.72759
G1 X83.785 Y130.972 E3.74483
G1 X83.870 Y130.531 E3.76099
G1 X84.067 Y130.111 E3.77770
G1 X84.363 Y129.753 E3.79441
G1 X84.739 Y129.480 E3.81115
G1 X85.185 Y129.308 E3.82836
G1 X85.630 Y129.251 E3.84452 F2400.000
G1 X86.091 Y129.309 E3.86123
G1 X86.523 Y129.480 E3.87793
G1 X86.899 Y129.754 E3.89467
G1 X87.162 Y130.078 E3.90972
M204 S1500
G1 X87.600 Y130.126 F7800.000
G1 E0.90972 F2100.00000
G92 E0
G1 X78.769 Y130.965 F7800.000
G1 E3.00000 F2100.00000
M204 S600
G1 X78.735 Y131.515 E3.01986 F2400.000
G1 X78.564 Y132.040 E3.03972
G1 X78.268 Y132.506 E3.05958
G1 X77.866 Y132.883 E3.07943
G1 X77.383 Y133.149 E3.09929
G1 X76.849 Y133.286 E3.11915
G1 X76.297 Y133.286 E3.13901
G1 X75.763 Y133.149 E3.15887
G1 X75.279 Y132.883 E3.17873
G1 X74.877 Y132.506 E3.19858
G1 X74.582 Y132.040 E3.21844
G1 X74.410 Y131.513 E3.23838
G1 X74.380 Y130.948 E3.25874
G1 X74.480 Y130.423 E3.27800
G1 X74.715 Y129.924 E3.29786
G1 X75.066 Y129.499 E3.31772
G1 X75.515 Y129.173 E3.33766
G1 X76.042 Y128.969 E3.35802
G1 X76.573 Y128.902 E3.37728 F2400.000
G1 X77.120 Y128.971 E3.39714
G1 X77.633 Y129.174 E3.41700
G1 X78.081 Y129.500 E3.43694
G1 X78.438 Y129.939 E3.45729
G1 X78.666 Y130.423 E3.47656
G1 X78.758 Y130.906 E3.49425
M204 S1500
G1 X78.421 Y130.987 F7800.000
M204 S600
G1 X78.392 Y131.450 E3.51096 F2400.000
G1 X78.248 Y131.891 E3.52767
G1 X77.999 Y132.283 E3.54438
G1 X77.661 Y132.601 E3.56109
G1 X77.254 Y132.824 E3.57779
G1 X76.805 Y132.940 E3.59450
G1 X76.341 Y132.940 E3.61121
G1 X75.891 Y132.824 E3.62792
G1 X75.484 Y132.601 E3.64463
G1 X75.146 Y132.283 E3.66134
G1 X74.897 Y131.891 E3.67804
G1 X74.754 Y131.449 E3.69478
G1 X74.728 Y130.972 E3.71199
G1 X74.812 Y130.531 E3.72815
G1 X75.009 Y130.111 E3.74486
G1 X75.305 Y129.753 E3.76157
G1 X75.682 Y129.480 E3.77831
G1 X76.127 Y129.308 E3.79552
G1 X76.573 Y129.251 E3.81168 F2400.000
G1 X77.033 Y129.309 E3.82839
G1 X77.465 Y129.480 E3.84509
G1 X77.841 Y129.754 E3.86183
G1 X78.143 Y130.124 E3.87904
G1 X78.334 Y130.531 E3.89520
G1 X78.410 Y130.928 E3.90975
M204 S1500
G1 X78.771 Y131.179 F7800.000
G1 E0.90975 F2100.00000
G92 E0
G1 X70.496 Y136.954 F7800.000
G1 E3.00000 F2100.00000
M204 S600
G1 X69.817 Y129.678 E3.26307 F2400.000
G1 X69.853 Y128.051 E3.32164
G1 X70.250 Y126.506 E3.37907
G1 X71.005 Y125.064 E3.43764
G1 X88.878 Y98.775 E4.58204
G1 X89.612 Y97.600 E4.63189
G1 X90.259 Y96.364 E4.68212
G1 X90.810 Y95.082 E4.73235
G1 X91.261 Y93.762 E4.78258
G1 X91.610 Y92.411 E4.83281
G1 X91.854 Y91.037 E4.88304
G1 X91.993 Y89.649 E4.93327
G1 X92.025 Y88.254 E4.98350
G1 X91.951 Y86.861 E5.03373
G1 X91.770 Y85.477 E5.08396
G1 X91.484 Y84.111 E5.13419
G1 X91.095 Y82.772 E5.18442
G1 X90.604 Y81.465 E5.23465
G1 X90.014 Y80.201 E5.28488
G1 X89.330 Y78.985 E5.33510
G1 X88.555 Y77.824 E5.38533
G1 X87.693 Y76.727 E5.43556
G1 X86.750 Y75.699 E5.48580
G1 X85.726 Y74.741 E5.53627
G1 X84.650 Y73.878 E5.58591
G1 X83.479 Y73.079 E5.63698
G1 X82.279 Y72.388 E5.68682
G1 X81.019 Y71.786 E5.73706
G1 X79.734 Y71.288 E5.78669
G1 X68.851 Y67.545 E6.20100
G1 X67.765 Y67.087 E6.24342
G1 X66.767 Y66.496 E6.28518
G1 X65.857 Y65.776 E6.32694
G1 X65.053 Y64.940 E6.36870
G1 X64.370 Y64.002 E6.41046
G1 X63.854 Y63.046 E6.44957
G1 X94.509 Y63.047 E7.55311
G1 X93.377 Y78.906 E8.12546
G1 X91.671 Y108.236 E9.18309
G1 X90.798 Y122.575 E9.70025
G1 X89.747 Y136.954 E10.21924
G1 X70.556 Y136.954 E10.91010
M204 S1500
G1 X70.180 Y137.300 F7800.000
M204 S600
G1 X69.470 Y129.690 E11.18524 F2400.000
G1 X69.507 Y128.003 E11.24597
G1 X69.925 Y126.381 E11.30628
G1 X70.707 Y124.886 E11.36701
G1 X88.587 Y98.585 E12.51189
G1 X89.311 Y97.428 E12.56103
G1 X89.946 Y96.215 E12.61030
G1 X90.486 Y94.958 E12.65958
G1 X90.929 Y93.662 E12.70885
G1 X91.271 Y92.337 E12.75813
G1 X91.511 Y90.990 E12.80740
G1 X91.647 Y89.628 E12.85668
G1 X91.679 Y88.259 E12.90595
G1 X91.606 Y86.892 E12.95523
G1 X91.428 Y85.535 E13.00450
G1 X91.148 Y84.195 E13.05378
G1 X90.766 Y82.881 E13.10305
G1 X90.284 Y81.600 E13.15233
G1 X89.706 Y80.359 E13.20160
G1 X89.035 Y79.166 E13.25087
G1 X88.274 Y78.028 E13.30015
G1 X87.429 Y76.951 E13.34942
G1 X86.504 Y75.942 E13.39870
G1 X85.499 Y75.003 E13.44822
G1 X84.444 Y74.157 E13.49691
G1 X83.294 Y73.372 E13.54702
G1 X82.117 Y72.695 E13.59590
G1 X80.882 Y72.104 E13.64520
G1 X79.615 Y71.614 E13.69411
G1 X68.727 Y67.869 E14.10860
G1 X67.609 Y67.397 E14.15229
G1 X66.570 Y66.782 E14.19574
G1 X65.624 Y66.033 E14.23919
G1 X64.787 Y65.163 E14.28264
G1 X64.076 Y64.188 E14.32610
G1 X63.500 Y63.119 E14.36979
G1 X63.309 Y62.700 E14.38637
G1 X94.881 Y62.700 E15.52292
G1 X93.723 Y78.928 E16.10858
G1 X92.017 Y108.256 E17.16614
G1 X91.144 Y122.598 E17.68340
G1 X90.069 Y137.300 E18.21406
G1 X70.240 Y137.300 E18.92786
M204 S1500
G1 X70.359 Y136.942 F7800.000
G1 X70.857 Y136.753 F7800.000
M204 S600
G1 X70.668 Y136.564 E18.93752 F2400.000
G1 X70.618 Y136.021 E18.95721
G1 X71.349 Y136.753 E18.99460
G1 X71.841 Y136.753 E19.01238
G1 X70.567 Y135.479 E19.07749
G1 X70.517 Y134.936 E19.09718
G1 X72.333 Y136.753 E19.19002
G1 X72.825 Y136.753 E19.20780
G1 X70.466 Y134.394 E19.32837
G1 X70.415 Y133.852 E19.34806
G1 X73.316 Y136.753 E19.49636
G1 X73.808 Y136.753 E19.51414
G1 X70.365 Y133.309 E19.69016
G1 X70.314 Y132.767 E19.70985
G1 X74.300 Y136.753 E19.91360
G1 X74.792 Y136.753 E19.93138
G1 X70.263 Y132.224 E20.16286
G1 X70.213 Y131.682 E20.18255
G1 X75.284 Y136.753 E20.44176
G1 X75.775 Y136.753 E20.45954
G1 X70.162 Y131.139 E20.74647
G1 X70.112 Y130.597 E20.76616
G1 X76.267 Y136.753 E21.08082
G1 X76.759 Y136.753 E21.09860
G1 X70.061 Y130.055 E21.44099
G1 X70.020 Y129.521 E21.46032
G1 X77.251 Y136.753 E21.82996
G1 X77.743 Y136.753 E21.84774
G1 X70.030 Y129.040 E22.24198
G1 X70.041 Y128.559 E22.25938
G1 X78.234 Y136.753 E22.67822
M204 S1500
G1 X78.908 Y130.541 F7800.000
M204 S600
G1 X85.120 Y136.753 E22.99573 F2400.000
G1 X84.628 Y136.753 E23.01351
G1 X78.959 Y131.083 E23.30331
G1 X78.919 Y131.536 E23.31972
G1 X84.136 Y136.753 E23.58641
G1 X83.644 Y136.753 E23.60418
G1 X78.798 Y131.907 E23.85189
G1 X78.641 Y132.241 E23.86525
G1 X83.153 Y136.753 E24.09586
G1 X82.661 Y136.753 E24.11364
G1 X78.450 Y132.542 E24.32887
G1 X78.210 Y132.794 E24.34144
G1 X82.169 Y136.753 E24.54379
G1 X81.677 Y136.753 E24.56157
G1 X77.957 Y133.032 E24.75174
G1 X77.640 Y133.207 E24.76482
G1 X81.185 Y136.753 E24.94607
G1 X80.694 Y136.753 E24.96384
G1 X77.302 Y133.361 E25.13722
G1 X76.910 Y133.461 E25.15183
G1 X80.202 Y136.753 E25.32007
G1 X79.710 Y136.753 E25.33785
G1 X76.444 Y133.487 E25.50478
G1 X75.871 Y133.405 E25.52571
G1 X79.218 Y136.753 E25.69682
G1 X78.726 Y136.753 E25.71459
G1 X70.051 Y128.078 E26.15803
G1 X70.140 Y127.675 E26.17294
G1 X74.264 Y131.799 E26.38376
G1 X74.190 Y131.233 E26.40441
G1 X70.241 Y127.284 E26.60626
G1 X70.342 Y126.893 E26.62086
G1 X74.221 Y130.772 E26.81918
G1 X74.310 Y130.369 E26.83410
G1 X70.448 Y126.507 E27.03153
G1 X70.617 Y126.184 E27.04470
G1 X74.467 Y130.035 E27.24154
G1 X74.654 Y129.729 E27.25447
G1 X70.785 Y125.861 E27.45220
G1 X70.954 Y125.538 E27.46537
G1 X74.876 Y129.460 E27.66585
G1 X75.140 Y129.233 E27.67845
G1 X71.123 Y125.215 E27.88380
G1 X71.315 Y124.915 E27.89667
G1 X75.425 Y129.026 E28.10680
G1 X75.773 Y128.881 E28.12040
G1 X71.514 Y124.622 E28.33810
G1 X71.713 Y124.329 E28.35090
G1 X76.146 Y128.762 E28.57750
G1 X76.582 Y128.707 E28.59341
G1 X71.912 Y124.037 E28.83216
G1 X72.111 Y123.744 E28.84496
G1 X77.127 Y128.760 E29.10136
M204 S1500
G1 X77.930 Y129.071 F7800.000
M204 S600
G1 X72.310 Y123.451 E29.38864 F2400.000
G1 X72.509 Y123.158 E29.40144
G1 X86.103 Y136.753 E30.09635
G1 X86.595 Y136.753 E30.11413
G1 X72.708 Y122.865 E30.82400
G1 X72.907 Y122.573 E30.83680
G1 X87.087 Y136.753 E31.56164
M204 S1500
G1 X85.612 Y136.753 F7800.000
M204 S600
G1 X78.618 Y129.759 E31.91914 F2400.000
M204 S1500
G1 E28.91914 F2100.00000
G92 E0
G1 X89.899 Y132.188 F7800.000
G1 E3.00000 F2100.00000
M204 S600
G1 X87.858 Y130.147 E3.10435 F2400.000
G1 X88.014 Y130.795 E3.12846
G1 X89.866 Y132.646 E3.22310
G1 X89.832 Y133.105 E3.23970
G1 X88.004 Y131.276 E3.33315
G1 X87.926 Y131.691 E3.34838
G1 X89.799 Y133.563 E3.44409
G1 X89.765 Y134.021 E3.46070
G1 X87.806 Y132.062 E3.56085
G1 X87.619 Y132.367 E3.57378
G1 X89.732 Y134.479 E3.68177
G1 X89.698 Y134.938 E3.69837
G1 X87.416 Y132.655 E3.81504
G1 X87.162 Y132.894 E3.82761
G1 X89.665 Y135.396 E3.95553
G1 X89.631 Y135.854 E3.97214
G1 X86.882 Y133.105 E4.11264
G1 X86.565 Y133.280 E4.12573
G1 X89.598 Y136.313 E4.28075
G1 X89.536 Y136.743 E4.29647
G1 X86.196 Y133.403 E4.46722
G1 X85.789 Y133.487 E4.48226
G1 X89.054 Y136.753 E4.64919
G1 X88.562 Y136.753 E4.66696
G1 X85.297 Y133.487 E4.83389
G1 X84.652 Y133.335 E4.85782
G1 X88.071 Y136.753 E5.03255
G1 X87.579 Y136.753 E5.05033
G1 X73.106 Y122.280 E5.79013
G1 X73.305 Y121.987 E5.80293
G1 X83.426 Y132.108 E6.32028
G1 X83.259 Y131.450 E6.34482
G1 X73.504 Y121.694 E6.84348
G1 X73.703 Y121.402 E6.85628
G1 X83.246 Y130.945 E7.34409
G1 X83.325 Y130.532 E7.35929
G1 X73.902 Y121.109 E7.84096
G1 X74.101 Y120.816 E7.85375
G1 X83.459 Y130.174 E8.33211
G1 X83.618 Y129.842 E8.34544
G1 X74.300 Y120.523 E8.82176
G1 X74.499 Y120.231 E8.83456
G1 X83.841 Y129.572 E9.31209
G1 X84.079 Y129.319 E9.32467
G1 X74.698 Y119.938 E9.80420
G1 X74.897 Y119.645 E9.81699
G1 X84.364 Y129.112 E10.30091
G1 X84.682 Y128.938 E10.31401
G1 X75.096 Y119.352 E10.80402
G1 X75.295 Y119.060 E10.81682
G1 X85.037 Y128.801 E11.31478
G1 X85.458 Y128.730 E11.33021
G1 X75.494 Y118.767 E11.83951
G1 X75.693 Y118.474 E11.85231
G1 X85.950 Y128.730 E12.37657
G1 X86.598 Y128.887 E12.40070
G1 X75.892 Y118.181 E12.94796
G1 X76.092 Y117.888 E12.96076
G1 X89.933 Y131.730 E13.66828
G1 X89.966 Y131.271 E13.68489
G1 X76.291 Y117.596 E14.38395
G1 X76.490 Y117.303 E14.39674
G1 X90.000 Y130.813 E15.08734
G1 X90.033 Y130.355 E15.10395
G1 X76.689 Y117.010 E15.78609
G1 X76.888 Y116.717 E15.79889
G1 X90.067 Y129.897 E16.47257
G1 X90.100 Y129.438 E16.48918
G1 X77.087 Y116.425 E17.15439
G1 X77.286 Y116.132 E17.16719
G1 X90.134 Y128.980 E17.82395
G1 X90.167 Y128.522 E17.84055
G1 X77.485 Y115.839 E18.48885
G1 X77.684 Y115.546 E18.50165
G1 X90.201 Y128.063 E19.14148
G1 X90.234 Y127.605 E19.15809
G1 X77.883 Y115.254 E19.78946
G1 X78.082 Y114.961 E19.80226
G1 X90.268 Y127.147 E20.42517
G1 X90.301 Y126.688 E20.44178
G1 X78.281 Y114.668 E21.05623
G1 X78.480 Y114.375 E21.06903
G1 X90.335 Y126.230 E21.67502
G1 X90.368 Y125.772 E21.69163
G1 X78.679 Y114.082 E22.28916
G1 X78.878 Y113.790 E22.30195
G1 X90.402 Y125.314 E22.89102
G1 X90.435 Y124.855 E22.90763
G1 X79.077 Y113.497 E23.48824
G1 X79.276 Y113.204 E23.50104
G1 X90.469 Y124.397 E24.07318
G1 X90.502 Y123.939 E24.08979
G1 X79.475 Y112.911 E24.65348
G1 X79.674 Y112.619 E24.66628
G1 X90.536 Y123.480 E25.22150
G1 X90.570 Y123.022 E25.23811
G1 X79.873 Y112.326 E25.78487
G1 X80.072 Y112.033 E25.79767
G1 X90.602 Y122.563 E26.33593
G1 X90.630 Y122.100 E26.35272
G1 X80.271 Y111.740 E26.88225
G1 X80.470 Y111.448 E26.89505
G1 X90.659 Y121.636 E27.41585
G1 X90.687 Y121.172 E27.43264
G1 X80.669 Y111.155 E27.94471
G1 X80.868 Y110.862 E27.95750
G1 X90.715 Y120.709 E28.46084
G1 X90.743 Y120.245 E28.47763
G1 X81.067 Y110.569 E28.97223
G1 X81.266 Y110.276 E28.98503
G1 X90.772 Y119.782 E29.47090
G1 X90.800 Y119.318 E29.48769
G1 X81.465 Y109.984 E29.96483
G1 X81.665 Y109.691 E29.97762
