; generated by Slic3r 1.2.9 on 2016-07-18 at 17:24:34

; external perimeters extrusion width = 0.40mm
; perimeters extrusion width = 0.40mm
; infill extrusion width = 0.40mm
; solid infill extrusion width = 0.40mm
; top infill extrusion width = 0.40mm

M107
M104 S185 ; set temperature
G28 ; home all axes
M109 S185 ; wait for temperature to be reached
G21 ; set units to millimeters
G90 ; use absolute coordinates
M82 ; use absolute distances for extrusion
G92 E0
G1 Z0.250 F10800.000
G1 E-2.50000 F2100.00000
G92 E0
G1 X74.995 Y73.455 F10800.000
G1 E2.50000 F2100.00000
M204 S600
G1 X77.292 Y72.176 E2.59466 F2400.000
G1 X80.323 Y71.630 E2.70552
G1 X130.323 Y71.630 E4.50547
G1 X132.922 Y72.028 E4.60012
G1 X135.284 Y73.185 E4.69478 F2400.000
G1 X137.191 Y74.995 E4.78944
G1 X138.470 Y77.292 E4.88410
G1 X139.016 Y80.323 E4.99496
G1 X139.016 Y130.323 E6.79491
G1 X138.618 Y132.922 E6.88956
G1 X137.461 Y135.284 E6.98422
G1 X135.652 Y137.191 E7.07888
G1 X133.354 Y138.470 E7.17354
G1 X130.323 Y139.016 E7.28440
G1 X80.323 Y139.016 E9.08435
G1 X77.724 Y138.618 E9.17901
G1 X75.362 Y137.461 E9.27366
G1 X73.455 Y135.652 E9.36832
G1 X72.176 Y133.354 E9.46298
G1 X71.630 Y130.323 E9.57385
G1 X71.630 Y80.323 E11.37379
G1 X72.028 Y77.724 E11.46845
G1 X73.185 Y75.362 E11.56310
G1 X74.953 Y73.499 E11.65560
M204 S1500
G1 E9.15560 F2100.00000
G92 E0
G1 X75.214 Y73.754 F10800.000
G1 E2.50000 F2100.00000
M204 S600
G1 X75.332 Y73.634 E2.50604 F2400.000
G1 X77.609 Y72.430 E2.59878
G1 X80.323 Y71.977 E2.69783
G1 X130.323 Y71.977 E4.49777
G1 X132.868 Y72.374 E4.59051
G1 X135.171 Y73.529 E4.68326 F2400.000
G1 X137.012 Y75.332 E4.77600
G1 X138.216 Y77.609 E4.86874
G1 X138.669 Y80.323 E4.96779
G1 X138.669 Y130.323 E6.76773
G1 X138.272 Y132.868 E6.86047
G1 X137.117 Y135.171 E6.95322
G1 X135.315 Y137.012 E7.04596
G1 X133.037 Y138.216 E7.13870
G1 X130.323 Y138.669 E7.23775
G1 X80.323 Y138.669 E9.03769
G1 X77.778 Y138.272 E9.13043
G1 X75.475 Y137.117 E9.22318
G1 X73.634 Y135.315 E9.31592
G1 X72.430 Y133.037 E9.40866
G1 X71.977 Y130.323 E9.50771
G1 X71.977 Y80.323 E11.30765
G1 X72.374 Y77.778 E11.40039
G1 X73.529 Y75.475 E11.49314
G1 X75.172 Y73.797 E11.57768
M204 S1500
G1 E9.07768 F2100.00000
G92 E0
G1 X80.523 Y80.523 F10800.000
G1 E2.50000 F2100.00000
M204 S600
G1 X130.123 Y80.523 E4.28554 F2400.000
G1 X130.123 Y130.123 E6.07109
G1 X80.523 Y130.123 E7.85663 F2400.000
G1 X80.523 Y80.583 E9.64001
M204 S1500
G1 X81.401 Y129.922 F10800.000
M204 S600
G1 X80.724 Y129.245 E9.67449 F2400.000
G1 X80.724 Y128.755 E9.69215
G1 X81.891 Y129.922 E9.75160
G1 X82.381 Y129.922 E9.76925
G1 X80.724 Y128.265 E9.85367
G1 X80.724 Y127.775 E9.87132
G1 X82.871 Y129.922 E9.98071
G1 X83.361 Y129.922 E9.99836
G1 X80.724 Y127.285 E10.13271
G1 X80.724 Y126.795 E10.15037
G1 X83.851 Y129.922 E10.30968
G1 X84.342 Y129.922 E10.32734
G1 X80.724 Y126.305 E10.51162
G1 X80.724 Y125.814 E10.52928
G1 X84.832 Y129.922 E10.73853
G1 X85.322 Y129.922 E10.75618
G1 X80.724 Y125.324 E10.99040
G1 X80.724 Y124.834 E11.00806
G1 X85.812 Y129.922 E11.26724
G1 X86.302 Y129.922 E11.28490
G1 X80.724 Y124.344 E11.56905
G1 X80.724 Y123.854 E11.58670
G1 X86.792 Y129.922 E11.89582
G1 X87.282 Y129.922 E11.91348
G1 X80.724 Y123.364 E12.24756
G1 X80.724 Y122.874 E12.26522
G1 X87.772 Y129.922 E12.62427
G1 X88.262 Y129.922 E12.64193
G1 X80.724 Y122.384 E13.02595
G1 X80.724 Y121.894 E13.04360
G1 X88.753 Y129.922 E13.45259
G1 X89.243 Y129.922 E13.47024
G1 X80.724 Y121.403 E13.90420
G1 X80.724 Y120.913 E13.92185
G1 X89.733 Y129.922 E14.38077
G1 X90.223 Y129.922 E14.39843
G1 X80.724 Y120.423 E14.88232
G1 X80.724 Y119.933 E14.89997
G1 X90.713 Y129.922 E15.40883
G1 X91.203 Y129.922 E15.42648
G1 X80.724 Y119.443 E15.96031
G1 X80.724 Y118.953 E15.97796
G1 X91.693 Y129.922 E16.53675
G1 X92.183 Y129.922 E16.55440
G1 X80.724 Y118.463 E17.13816
G1 X80.724 Y117.973 E17.15582
G1 X92.674 Y129.922 E17.76454
G1 X93.164 Y129.922 E17.78219
G1 X80.724 Y117.483 E18.41589
G1 X80.724 Y116.992 E18.43354
G1 X93.654 Y129.922 E19.09220
G1 X94.144 Y129.922 E19.10985
G1 X80.724 Y116.502 E19.79348
G1 X80.724 Y116.012 E19.81113
G1 X94.634 Y129.922 E20.51972
G1 X95.124 Y129.922 E20.53738
G1 X80.724 Y115.522 E21.27094
G1 X80.724 Y115.032 E21.28859
G1 X95.614 Y129.922 E22.04712
G1 X96.104 Y129.922 E22.06477
G1 X80.724 Y114.542 E22.84827
G1 X80.724 Y114.052 E22.86592
G1 X96.594 Y129.922 E23.67438
G1 X97.085 Y129.922 E23.69204
G1 X80.724 Y113.562 E24.52546
G1 X80.724 Y113.072 E24.54312
G1 X97.575 Y129.922 E25.40151
G1 X98.065 Y129.922 E25.41917
G1 X80.724 Y112.581 E26.30253
G1 X80.724 Y112.091 E26.32018
G1 X98.555 Y129.922 E27.22851
G1 X99.045 Y129.922 E27.24616
G1 X80.724 Y111.601 E28.17946
G1 X80.724 Y111.111 E28.19711
G1 X99.535 Y129.922 E29.15538
G1 X100.025 Y129.922 E29.17303
G1 X80.724 Y110.621 E30.15626
G1 X80.724 Y110.131 E30.17391
G1 X100.515 Y129.922 E31.18211
G1 X101.005 Y129.922 E31.19977
G1 X80.724 Y109.641 E32.23293
G1 X80.724 Y109.151 E32.25058
G1 X101.496 Y129.922 E33.30871
G1 X101.986 Y129.922 E33.32637
G1 X80.724 Y108.661 E34.40947
G1 X80.724 Y108.170 E34.42712
G1 X102.476 Y129.922 E35.53518
G1 X102.966 Y129.922 E35.55284
G1 X80.724 Y107.680 E36.68587
G1 X80.724 Y107.190 E36.70353
G1 X103.456 Y129.922 E37.86152
G1 X103.946 Y129.922 E37.87918
G1 X80.724 Y106.700 E39.06214
G1 X80.724 Y106.210 E39.07980
G1 X104.436 Y129.922 E40.28773
G1 X104.926 Y129.922 E40.30539
G1 X80.724 Y105.720 E41.53829
G1 X80.724 Y105.230 E41.55594
G1 X105.416 Y129.922 E42.81381
G1 X105.907 Y129.922 E42.83146
G1 X80.724 Y104.740 E44.11430
G1 X80.724 Y104.250 E44.13195
G1 X106.397 Y129.922 E45.43975
G1 X106.887 Y129.922 E45.45740
G1 X80.724 Y103.759 E46.79017
G1 X80.724 Y103.269 E46.80783
G1 X107.377 Y129.922 E48.16556
G1 X107.867 Y129.922 E48.18322
G1 X80.724 Y102.779 E49.56592
G1 X80.724 Y102.289 E49.58357
G1 X108.357 Y129.922 E50.99124
G1 X108.847 Y129.922 E51.00890
G1 X80.724 Y101.799 E52.44153
G1 X80.724 Y101.309 E52.45919
G1 X109.337 Y129.922 E53.91679
G1 X109.827 Y129.922 E53.93444
G1 X80.724 Y100.819 E55.41701
G1 X80.724 Y100.329 E55.43467
G1 X110.318 Y129.922 E56.94221
G1 X110.808 Y129.922 E56.95986
G1 X80.724 Y99.838 E58.49236
G1 X80.724 Y99.348 E58.51002
G1 X111.298 Y129.922 E60.06749
G1 X111.788 Y129.922 E60.08514
G1 X80.724 Y98.858 E61.66758
G1 X80.724 Y98.368 E61.68524
G1 X112.278 Y129.922 E63.29264
G1 X112.768 Y129.922 E63.31030
G1 X80.724 Y97.878 E64.94267
G1 X80.724 Y97.388 E64.96032
G1 X113.258 Y129.922 E66.61766
G1 X113.748 Y129.922 E66.63532
G1 X80.724 Y96.898 E68.31762
G1 X80.724 Y96.408 E68.33528
G1 X114.238 Y129.922 E70.04255
G1 X114.729 Y129.922 E70.06021
G1 X80.724 Y95.918 E71.79245
G1 X80.724 Y95.427 E71.81010
G1 X115.219 Y129.922 E73.56731
G1 X115.709 Y129.922 E73.58496
G1 X80.724 Y94.937 E75.36714
G1 X80.724 Y94.447 E75.38479
G1 X116.199 Y129.922 E77.19193
G1 X116.689 Y129.922 E77.20959
G1 X80.724 Y93.957 E79.04170
G1 X80.724 Y93.467 E79.05935
G1 X117.179 Y129.922 E80.91643
G1 X117.669 Y129.922 E80.93408
G1 X80.724 Y92.977 E82.81612
G1 X80.724 Y92.487 E82.83378
G1 X118.159 Y129.922 E84.74079
G1 X118.650 Y129.922 E84.75844
G1 X80.724 Y91.997 E86.69042
G1 X80.724 Y91.507 E86.70807
G1 X119.140 Y129.922 E88.66502
G1 X119.630 Y129.922 E88.68267
G1 X80.724 Y91.016 E90.66458
G1 X80.724 Y90.526 E90.68224
G1 X120.120 Y129.922 E92.68911
G1 X120.610 Y129.922 E92.70677
G1 X80.724 Y90.036 E94.73861
G1 X80.724 Y89.546 E94.75627
G1 X121.100 Y129.922 E96.81308
G1 X121.590 Y129.922 E96.83073
G1 X80.724 Y89.056 E98.91251
G1 X80.724 Y88.566 E98.93017
G1 X122.080 Y129.922 E101.03691
G1 X122.570 Y129.922 E101.05457
G1 X80.724 Y88.076 E103.18628
G1 X80.724 Y87.586 E103.20393
G1 X123.061 Y129.922 E105.36061
G1 X123.551 Y129.922 E105.37827
G1 X80.724 Y87.096 E107.55991
G1 X80.724 Y86.605 E107.57757
G1 X124.041 Y129.922 E109.78418
G1 X124.531 Y129.922 E109.80184
G1 X80.724 Y86.115 E112.03342
G1 X80.724 Y85.625 E112.05107
G1 X125.021 Y129.922 E114.30762
G1 X125.511 Y129.922 E114.32528
G1 X80.724 Y85.135 E116.60679
G1 X80.724 Y84.645 E116.62444
G1 X126.001 Y129.922 E118.93093
G1 X126.491 Y129.922 E118.94858
G1 X80.724 Y84.155 E121.28003
G1 X80.724 Y83.665 E121.29768
G1 X126.981 Y129.922 E123.65410
G1 X127.472 Y129.922 E123.67176
G1 X80.724 Y83.175 E126.05314
G1 X80.724 Y82.685 E126.07079
G1 X127.962 Y129.922 E128.47714
G1 X128.452 Y129.922 E128.49480
G1 X80.724 Y82.194 E130.92611
G1 X80.724 Y81.704 E130.94377
G1 X128.942 Y129.922 E133.40005
G1 X129.432 Y129.922 E133.41771
G1 X80.724 Y81.214 E135.89896
G1 X80.744 Y80.744 E135.91591
G1 X129.902 Y129.902 E138.42009
G1 X129.922 Y129.432 E138.43704
G1 X81.214 Y80.724 E140.91830
G1 X81.704 Y80.724 E140.93596
G1 X129.922 Y128.942 E143.39225
G1 X129.922 Y128.452 E143.40990
G1 X82.194 Y80.724 E145.84123
G1 X82.684 Y80.724 E145.85888
G1 X129.922 Y127.962 E148.26524
G1 X129.922 Y127.472 E148.28289
G1 X83.174 Y80.724 E150.66428
G1 X83.665 Y80.724 E150.68194
G1 X129.922 Y126.982 E153.03836
G1 X129.922 Y126.491 E153.05602
G1 X84.155 Y80.724 E155.38747
G1 X84.645 Y80.724 E155.40513
G1 X129.922 Y126.001 E157.71162
G1 X129.922 Y125.511 E157.72927
G1 X85.135 Y80.724 E160.01080
G1 X85.625 Y80.724 E160.02845
G1 X129.922 Y125.021 E162.28501
G1 X129.922 Y124.531 E162.30266
G1 X86.115 Y80.724 E164.53425
G1 X86.605 Y80.724 E164.55190
G1 X129.922 Y124.041 E166.75853
G1 X129.922 Y123.551 E166.77618
G1 X87.095 Y80.724 E168.95783
G1 X87.586 Y80.724 E168.97549
G1 X129.922 Y123.061 E171.13218
G1 X129.922 Y122.571 E171.14983
G1 X88.076 Y80.724 E173.28155
G1 X88.566 Y80.724 E173.29921
G1 X129.922 Y122.080 E175.40596
G1 X129.922 Y121.590 E175.42361
G1 X89.056 Y80.724 E177.50540
G1 X89.546 Y80.724 E177.52305
G1 X129.922 Y121.100 E179.57987
G1 X129.922 Y120.610 E179.59753
G1 X90.036 Y80.724 E181.62938
G1 X90.526 Y80.724 E181.64704
G1 X129.922 Y120.120 E183.65392
G1 X129.922 Y119.630 E183.67158
G1 X91.016 Y80.724 E185.65349
G1 X91.506 Y80.724 E185.67115
G1 X129.922 Y119.140 E187.62810
G1 X129.922 Y118.650 E187.64575
G1 X91.997 Y80.724 E189.57774
G1 X92.487 Y80.724 E189.59539
G1 X129.922 Y118.160 E191.50241
G1 X129.922 Y117.669 E191.52006
G1 X92.977 Y80.724 E193.40212
G1 X93.467 Y80.724 E193.41977
G1 X129.922 Y117.179 E195.27685
G1 X129.922 Y116.689 E195.29451
G1 X93.957 Y80.724 E197.12662
G1 X94.447 Y80.724 E197.14428
G1 X129.922 Y116.199 E198.95143
G1 X129.922 Y115.709 E198.96908
G1 X94.937 Y80.724 E200.75126
G1 X95.427 Y80.724 E200.76892
G1 X129.922 Y115.219 E202.52613
G1 X129.922 Y114.729 E202.54379
G1 X95.917 Y80.724 E204.27604
G1 X96.408 Y80.724 E204.29369
G1 X129.922 Y114.239 E206.00097
G1 X129.922 Y113.749 E206.01863
G1 X96.898 Y80.724 E207.70094
G1 X97.388 Y80.724 E207.71859
G1 X129.922 Y113.258 E209.37594
G1 X129.922 Y112.768 E209.39360
G1 X97.878 Y80.724 E211.02598
G1 X98.368 Y80.724 E211.04363
G1 X129.922 Y112.278 E212.65104
G1 X129.922 Y111.788 E212.66870
G1 X98.858 Y80.724 E214.25114
G1 X99.348 Y80.724 E214.26880
G1 X129.922 Y111.298 E215.82628
G1 X129.922 Y110.808 E215.84393
G1 X99.838 Y80.724 E217.37644
G1 X100.328 Y80.724 E217.39410
G1 X129.922 Y110.318 E218.90164
G1 X129.922 Y109.828 E218.91930
G1 X100.819 Y80.724 E220.40187
G1 X101.309 Y80.724 E220.41953
G1 X129.922 Y109.338 E221.87714
G1 X129.922 Y108.847 E221.89479
G1 X101.799 Y80.724 E223.32744
G1 X102.289 Y80.724 E223.34509
G1 X129.922 Y108.357 E224.75277
G1 X129.922 Y107.867 E224.77042
G1 X102.779 Y80.724 E226.15313
G1 X103.269 Y80.724 E226.17079
G1 X129.922 Y107.377 E227.52853
G1 X129.922 Y106.887 E227.54618
G1 X103.759 Y80.724 E228.87896
G1 X104.249 Y80.724 E228.89662
G1 X129.922 Y106.397 E230.20442
G1 X129.922 Y105.907 E230.22208
G1 X104.739 Y80.724 E231.50492
G1 X105.230 Y80.724 E231.52257
G1 X129.922 Y105.417 E232.78045
G1 X129.922 Y104.926 E232.79810
G1 X105.720 Y80.724 E234.03101
G1 X106.210 Y80.724 E234.04867
G1 X129.922 Y104.436 E235.25661
G1 X129.922 Y103.946 E235.27426
G1 X106.700 Y80.724 E236.45723
G1 X107.190 Y80.724 E236.47489
G1 X129.922 Y103.456 E237.63289
G1 X129.922 Y102.966 E237.65055
G1 X107.680 Y80.724 E238.78359
G1 X108.170 Y80.724 E238.80124
G1 X129.922 Y102.476 E239.90932
G1 X129.922 Y101.986 E239.92697
G1 X108.660 Y80.724 E241.01008
G1 X109.150 Y80.724 E241.02773
G1 X129.922 Y101.496 E242.08587
G1 X129.922 Y101.006 E242.10352
G1 X109.641 Y80.724 E243.13669
G1 X110.131 Y80.724 E243.15435
G1 X129.922 Y100.515 E244.16255
G1 X129.922 Y100.025 E244.18021
G1 X110.621 Y80.724 E245.16344
G1 X111.111 Y80.724 E245.18110
G1 X129.922 Y99.535 E246.13937
G1 X129.922 Y99.045 E246.15702
G1 X111.601 Y80.724 E247.09033
G1 X112.091 Y80.724 E247.10798
G1 X129.922 Y98.555 E248.01632
G1 X129.922 Y98.065 E248.03397
G1 X112.581 Y80.724 E248.91734
G1 X113.071 Y80.724 E248.93500
G1 X129.922 Y97.575 E249.79340
G1 X129.922 Y97.085 E249.81105
G1 X113.562 Y80.724 E250.64449
G1 X114.052 Y80.724 E250.66214
G1 X129.922 Y96.595 E251.47061
G1 X129.922 Y96.104 E251.48826
G1 X114.542 Y80.724 E252.27176
G1 X115.032 Y80.724 E252.28942
G1 X129.922 Y95.614 E253.04795
G1 X129.922 Y95.124 E253.06561
G1 X115.522 Y80.724 E253.79917
G1 X116.012 Y80.724 E253.81683
G1 X129.922 Y94.634 E254.52543
G1 X129.922 Y94.144 E254.54308
G1 X116.502 Y80.724 E255.22672
G1 X116.992 Y80.724 E255.24437
G1 X129.922 Y93.654 E255.90304
G1 X129.922 Y93.164 E255.92069
G1 X117.482 Y80.724 E256.55439
G1 X117.973 Y80.724 E256.57204
G1 X129.922 Y92.674 E257.18078
G1 X129.922 Y92.184 E257.19843
G1 X118.463 Y80.724 E257.78220
G1 X118.953 Y80.724 E257.79985
G1 X129.922 Y91.693 E258.35865
G1 X129.922 Y91.203 E258.37630
G1 X119.443 Y80.724 E258.91013
G1 X119.933 Y80.724 E258.92779
G1 X129.922 Y90.713 E259.43665
G1 X129.922 Y90.223 E259.45431
G1 X120.423 Y80.724 E259.93820
G1 X120.913 Y80.724 E259.95586
G1 X129.922 Y89.733 E260.41479
G1 X129.922 Y89.243 E260.43244
G1 X121.403 Y80.724 E260.86640
G1 X121.893 Y80.724 E260.88406
G1 X129.922 Y88.753 E261.29305
G1 X129.922 Y88.263 E261.31071
G1 X122.384 Y80.724 E261.69474
G1 X122.874 Y80.724 E261.71239
G1 X129.922 Y87.773 E262.07145
G1 X129.922 Y87.282 E262.08911
G1 X123.364 Y80.724 E262.42320
G1 X123.854 Y80.724 E262.44086
G1 X129.922 Y86.792 E262.74998
G1 X129.922 Y86.302 E262.76764
G1 X124.344 Y80.724 E263.05180
G1 X124.834 Y80.724 E263.06945
G1 X129.922 Y85.812 E263.32865
G1 X129.922 Y85.322 E263.34630
G1 X125.324 Y80.724 E263.58053
G1 X125.814 Y80.724 E263.59818
G1 X129.922 Y84.832 E263.80744
G1 X129.922 Y84.342 E263.82509
G1 X126.304 Y80.724 E264.00939
G1 X126.795 Y80.724 E264.02704
G1 X129.922 Y83.852 E264.18637
G1 X129.922 Y83.362 E264.20402
G1 X127.285 Y80.724 E264.33838
G1 X127.775 Y80.724 E264.35603
G1 X129.922 Y82.871 E264.46543
G1 X129.922 Y82.381 E264.48308
G1 X128.265 Y80.724 E264.56750
G1 X128.755 Y80.724 E264.58516
G1 X129.922 Y81.891 E264.64462
G1 X129.922 Y81.401 E264.66227
G1 X129.245 Y80.724 E264.69676
G1 X129.735 Y80.724 E264.71441
G1 X129.922 Y80.911 E264.72394
M204 S1500
M106 S127.5
G1 Z0.500 F10800.000
G1 E262.22394 F2100.00000
G92 E0
G1 X130.123 Y80.911 F10800.000
G1 E2.50000 F2100.00000
M204 S800
G1 X130.123 Y130.123 E4.27158 F1500.000
G1 X80.523 Y130.123 E6.05712 F1500.000
G1 X80.523 Y80.523 E7.84267
G1 X130.123 Y80.523 E9.62821
G1 X130.123 Y80.851 E9.64001
M204 S1500
G1 E7.14001 F2100.00000
G92 E0
G1 X129.735 Y129.922 F10800.000
G1 E2.50000 F2100.00000
M204 S1800
G1 X129.922 Y129.735 E2.50952 F2700.000
G1 X129.922 Y129.245 E2.52718
G1 X129.245 Y129.922 E2.56167
G1 X128.755 Y129.922 E2.57932
G1 X129.922 Y128.755 E2.63878
G1 X129.922 Y128.265 E2.65643
G1 X128.265 Y129.922 E2.74086
G1 X127.775 Y129.922 E2.75851
G1 X129.922 Y127.775 E2.86790
G1 X129.922 Y127.285 E2.88556
G1 X127.285 Y129.922 E3.01992
G1 X126.795 Y129.922 E3.03757
G1 X129.922 Y126.795 E3.19690
G1 X129.922 Y126.304 E3.21455
G1 X126.304 Y129.922 E3.39884
G1 X125.814 Y129.922 E3.41650
G1 X129.922 Y125.814 E3.62576
G1 X129.922 Y125.324 E3.64341
G1 X125.324 Y129.922 E3.87764
G1 X124.834 Y129.922 E3.89529
G1 X129.922 Y124.834 E4.15449
G1 X129.922 Y124.344 E4.17214
G1 X124.344 Y129.922 E4.45630
G1 X123.854 Y129.922 E4.47395
G1 X129.922 Y123.854 E4.78308
G1 X129.922 Y123.364 E4.80074
G1 X123.364 Y129.922 E5.13483
G1 X122.874 Y129.922 E5.15249
G1 X129.922 Y122.874 E5.51155
