; generated by Slic3r 1.2.9 on 2017-04-28 at 17:08:12

; external perimeters extrusion width = 0.40mm
; perimeters extrusion width = 0.40mm
; infill extrusion width = 0.40mm
; solid infill extrusion width = 0.40mm
; top infill extrusion width = 0.40mm

M107
M190 S75 ; set bed temperature
M104 S235 ; set temperature
G28 ; home all axes
G1 Z5 F5000 ; lift nozzle

M109 S235 ; wait for temperature to be reached
G21 ; set units to millimeters
G90 ; use absolute coordinates
M82 ; use absolute distances for extrusion
G92 E0
G1 Z0.250 F7800.000
G1 E-3.00000 F2100.00000
G92 E0
G1 X55.922 Y71.138 F7800.000
G1 E3.00000 F2100.00000
M204 S600
G1 X58.071 Y69.534 E3.09654 F2400.000
G1 X60.596 Y68.631 E3.19307
G1 X62.343 Y68.461 E3.25626
G1 X94.379 Y68.461 E4.40953
G1 X97.031 Y68.859 E4.50607
G1 X99.450 Y70.017 E4.60260 F2400.000
G1 X101.422 Y71.834 E4.69914
G1 X102.814 Y74.249 E4.79947
G1 X103.419 Y76.925 E4.89823
G1 X103.393 Y78.485 E4.95442
G1 X99.623 Y114.988 E6.27545
G1 X98.571 Y123.583 E6.58716
G1 X98.369 Y124.619 E6.62518
G1 X97.361 Y127.104 E6.72172
G1 X95.668 Y129.184 E6.81825
G1 X93.439 Y130.675 E6.91479
G1 X89.582 Y131.539 E7.05707
G1 X69.343 Y131.539 E7.78566
G1 X51.287 Y130.806 E8.43620
G1 X48.653 Y130.300 E8.53274
G1 X46.284 Y129.044 E8.62927
G1 X44.388 Y127.147 E8.72581
G1 X43.132 Y124.778 E8.82235
G1 X42.618 Y121.775 E8.93204
G1 X42.618 Y88.285 E10.13762
G1 X43.016 Y85.633 E10.23416
G1 X44.174 Y83.215 E10.33069
G1 X45.236 Y81.923 E10.39088
G1 X55.880 Y71.181 E10.93527
M204 S1500
G1 X56.168 Y71.382 F7800.000
M204 S600
G1 X58.280 Y69.815 E11.02993 F2400.000
G1 X60.763 Y68.952 E11.12459
G1 X62.343 Y68.807 E11.18168
G1 X94.379 Y68.807 E12.33496
G1 X96.979 Y69.205 E12.42961
G1 X99.340 Y70.362 E12.52427 F2400.000
G1 X101.247 Y72.172 E12.61893
G1 X102.513 Y74.432 E12.71218
G1 X103.076 Y77.000 E12.80683
G1 X103.049 Y78.450 E12.85904
G1 X99.279 Y114.946 E14.17984
G1 X98.228 Y123.536 E14.49138
G1 X98.033 Y124.538 E14.52813
G1 X97.037 Y126.972 E14.62279
G1 X95.358 Y128.996 E14.71745
G1 X93.152 Y130.426 E14.81210
G1 X89.582 Y131.193 E14.94354
G1 X69.343 Y131.193 E15.67213
G1 X51.301 Y130.460 E16.32216
G1 X48.720 Y129.956 E16.41682
G1 X46.408 Y128.704 E16.51147
G1 X44.576 Y126.817 E16.60613
G1 X43.393 Y124.469 E16.70079
G1 X42.964 Y121.775 E16.79901
G1 X42.964 Y88.285 E18.00459
G1 X43.362 Y85.686 E18.09925
G1 X44.519 Y83.325 E18.19391
G1 X45.482 Y82.167 E18.24812
G1 X56.126 Y71.424 E18.79251
M204 S1500
G1 X56.414 Y71.626 F7800.000
M204 S600
G1 X58.488 Y70.097 E18.88525 F2400.000
G1 X60.929 Y69.274 E18.97799
G1 X62.343 Y69.154 E19.02907
G1 X94.379 Y69.154 E20.18235
G1 X96.925 Y69.551 E20.27509
G1 X99.228 Y70.706 E20.36783 F2400.000
G1 X101.069 Y72.508 E20.46058
G1 X102.190 Y74.556 E20.54462
G1 X102.734 Y77.074 E20.63736
G1 X102.704 Y78.414 E20.68561
G1 X98.935 Y114.904 E22.00618
G1 X97.885 Y123.489 E22.31755
G1 X97.696 Y124.457 E22.35304
G1 X96.713 Y126.838 E22.44578
G1 X95.050 Y128.806 E22.53852
G1 X92.866 Y130.173 E22.63127
G1 X89.582 Y130.846 E22.75195
G1 X69.343 Y130.846 E23.48054
G1 X51.315 Y130.114 E24.13006
G1 X48.788 Y129.612 E24.22280
G1 X46.535 Y128.364 E24.31554
G1 X44.769 Y126.488 E24.40828
G1 X43.660 Y124.163 E24.50103
G1 X43.311 Y121.775 E24.58791
G1 X43.311 Y88.285 E25.79349
G1 X43.708 Y85.740 E25.88623
G1 X44.863 Y83.437 E25.97897
G1 X45.728 Y82.411 E26.02728
G1 X56.372 Y71.668 E26.57167
M204 S1500
G1 E23.57167 F2100.00000
G92 E0
G1 X86.254 Y117.891 F7800.000
G1 E3.00000 F2100.00000
M204 S600
G1 X85.785 Y118.149 E3.01926 F2400.000
G1 X85.251 Y118.286 E3.03912
G1 X84.699 Y118.286 E3.05898
G1 X84.165 Y118.149 E3.07884
G1 X83.682 Y117.883 E3.09869
G1 X83.280 Y117.506 E3.11855
G1 X82.984 Y117.040 E3.13841
G1 X82.814 Y116.515 E3.15827
G1 X82.779 Y115.965 E3.17813
G1 X82.882 Y115.423 E3.19799
G1 X83.117 Y114.924 E3.21784
G1 X83.469 Y114.499 E3.23770
G1 X83.915 Y114.174 E3.25756
G1 X84.428 Y113.971 E3.27742
G1 X84.959 Y113.904 E3.29668 F2400.000
G1 X85.520 Y113.971 E3.31704
G1 X86.035 Y114.174 E3.33698
G1 X86.482 Y114.499 E3.35684
G1 X86.833 Y114.924 E3.37670
G1 X87.068 Y115.423 E3.39656
G1 X87.172 Y115.965 E3.41641
G1 X87.137 Y116.515 E3.43627
G1 X86.966 Y117.040 E3.45613
G1 X86.670 Y117.508 E3.47607
G1 X86.298 Y117.851 E3.49427
M204 S1500
G1 X86.050 Y117.608 F7800.000
M204 S600
G1 X85.657 Y117.824 E3.51043 F2400.000
G1 X85.207 Y117.940 E3.52714
G1 X84.743 Y117.940 E3.54385
G1 X84.294 Y117.824 E3.56056
G1 X83.887 Y117.601 E3.57727
G1 X83.549 Y117.283 E3.59397
G1 X83.300 Y116.891 E3.61068
G1 X83.156 Y116.450 E3.62739
G1 X83.127 Y115.987 E3.64410
G1 X83.214 Y115.531 E3.66081
G1 X83.412 Y115.111 E3.67751
G1 X83.708 Y114.753 E3.69422
G1 X84.083 Y114.480 E3.71093
G1 X84.515 Y114.309 E3.72764
G1 X84.960 Y114.253 E3.74380 F2400.000
G1 X85.435 Y114.309 E3.76101
G1 X85.867 Y114.480 E3.77775
G1 X86.243 Y114.753 E3.79446
G1 X86.539 Y115.111 E3.81116
G1 X86.736 Y115.531 E3.82787
G1 X86.823 Y115.987 E3.84458
G1 X86.794 Y116.450 E3.86129
G1 X86.651 Y116.891 E3.87800
G1 X86.401 Y117.284 E3.89474
G1 X86.094 Y117.567 E3.90978
M204 S1500
G1 X86.074 Y118.007 F7800.000
G1 E0.90978 F2100.00000
G92 E0
G1 X78.079 Y116.515 F7800.000
G1 E3.00000 F2100.00000
M204 S600
G1 X77.909 Y117.040 E3.01986 F2400.000
G1 X77.612 Y117.508 E3.03980
G1 X77.197 Y117.891 E3.06016
G1 X76.728 Y118.149 E3.07942
G1 X76.193 Y118.286 E3.09928
G1 X75.642 Y118.286 E3.11913
G1 X75.107 Y118.149 E3.13899
G1 X74.624 Y117.883 E3.15885
G1 X74.222 Y117.506 E3.17871
G1 X73.926 Y117.040 E3.19857
G1 X73.756 Y116.515 E3.21843
G1 X73.721 Y115.965 E3.23828
G1 X73.825 Y115.423 E3.25814
G1 X74.059 Y114.924 E3.27800
G1 X74.411 Y114.499 E3.29786
G1 X74.857 Y114.174 E3.31772
G1 X75.370 Y113.971 E3.33758
G1 X75.901 Y113.904 E3.35684 F2400.000
G1 X76.463 Y113.971 E3.37720
G1 X76.978 Y114.174 E3.39714
G1 X77.424 Y114.499 E3.41699
G1 X77.776 Y114.924 E3.43685
G1 X78.011 Y115.423 E3.45671
G1 X78.114 Y115.965 E3.47657
G1 X78.083 Y116.455 E3.49427
M204 S1500
G1 X77.736 Y116.450 F7800.000
M204 S600
G1 X77.593 Y116.891 E3.51098 F2400.000
G1 X77.344 Y117.284 E3.52772
G1 X76.993 Y117.608 E3.54492
G1 X76.599 Y117.824 E3.56109
G1 X76.150 Y117.940 E3.57779
G1 X75.686 Y117.940 E3.59450
G1 X75.236 Y117.824 E3.61121
G1 X74.829 Y117.601 E3.62792
G1 X74.491 Y117.283 E3.64463
G1 X74.242 Y116.891 E3.66134
G1 X74.099 Y116.450 E3.67804
G1 X74.070 Y115.987 E3.69475
G1 X74.157 Y115.531 E3.71146
G1 X74.354 Y115.111 E3.72817
G1 X74.650 Y114.753 E3.74488
G1 X75.026 Y114.480 E3.76158
G1 X75.457 Y114.309 E3.77829
G1 X75.903 Y114.253 E3.79446 F2400.000
G1 X76.377 Y114.309 E3.81166
G1 X76.810 Y114.480 E3.82840
G1 X77.185 Y114.753 E3.84511
G1 X77.481 Y115.111 E3.86182
G1 X77.679 Y115.531 E3.87853
G1 X77.766 Y115.987 E3.89524
G1 X77.740 Y116.390 E3.90978
M204 S1500
G1 X78.028 Y116.724 F7800.000
G1 E0.90978 F2100.00000
G92 E0
G1 X69.811 Y121.954 F7800.000
G1 E3.00000 F2100.00000
M204 S600
G1 X69.487 Y119.872 E3.07583 F2400.000
G1 X69.379 Y118.824 E3.11375
G1 X69.379 Y117.785 E3.15117
G1 X69.484 Y116.766 E3.18806
G1 X69.698 Y115.733 E3.22601
G1 X70.013 Y114.743 E3.26341
G1 X70.435 Y113.778 E3.30135
G1 X70.927 Y112.906 E3.33736
G1 X71.556 Y112.021 E3.37646
G1 X72.215 Y111.268 E3.41249
G1 X72.988 Y110.547 E3.45056
G1 X84.730 Y100.695 E4.00231
G1 X85.471 Y99.995 E4.03902
G1 X86.134 Y99.199 E4.07630
G1 X86.700 Y98.332 E4.11359
G1 X87.159 Y97.403 E4.15088
G1 X87.505 Y96.427 E4.18816
G1 X87.734 Y95.417 E4.22545
G1 X87.843 Y94.387 E4.26274
G1 X87.829 Y93.351 E4.30002
G1 X87.694 Y92.324 E4.33731
G1 X87.438 Y91.321 E4.37460
G1 X87.066 Y90.354 E4.41188
G1 X86.582 Y89.438 E4.44917
G1 X85.994 Y88.585 E4.48646
G1 X85.304 Y87.802 E4.52403
G1 X84.536 Y87.114 E4.56115
G1 X83.686 Y86.518 E4.59852
G1 X82.765 Y86.023 E4.63617
G1 X81.784 Y85.639 E4.67411
G1 X80.808 Y85.382 E4.71043
G1 X79.822 Y85.243 E4.74629
G1 X69.468 Y84.400 E5.12023
G1 X68.644 Y84.285 E5.15020
G1 X67.853 Y84.080 E5.17961
G1 X67.091 Y83.786 E5.20902
G1 X66.368 Y83.406 E5.23843
G1 X65.693 Y82.946 E5.26783
G1 X65.075 Y82.411 E5.29724
G1 X64.522 Y81.810 E5.32665
G1 X64.042 Y81.149 E5.35606
G1 X63.641 Y80.437 E5.38546
G1 X63.325 Y79.684 E5.41487
G1 X63.096 Y78.899 E5.44428
G1 X62.952 Y78.046 E5.47543
G1 X93.795 Y78.046 E6.58575
G1 X92.689 Y87.563 E6.93064
G1 X91.008 Y105.088 E7.56442
G1 X90.165 Y113.309 E7.86192
G1 X89.116 Y121.954 E8.17540
G1 X69.871 Y121.954 E8.86821
M204 S1500
G1 X69.514 Y122.300 F7800.000
M204 S600
G1 X69.143 Y119.917 E8.95504 F2400.000
G1 X69.033 Y118.842 E8.99393
G1 X69.032 Y117.767 E9.03263
G1 X69.141 Y116.712 E9.07079
G1 X69.362 Y115.645 E9.11003
G1 X69.689 Y114.621 E9.14873
G1 X70.125 Y113.623 E9.18794
G1 X70.634 Y112.721 E9.22523
G1 X71.283 Y111.806 E9.26562
G1 X71.966 Y111.026 E9.30291
G1 X72.759 Y110.287 E9.34194
G1 X84.499 Y100.436 E9.89365
G1 X85.218 Y99.757 E9.92925
G1 X85.855 Y98.993 E9.96506
G1 X86.398 Y98.160 E10.00087
G1 X86.839 Y97.268 E10.03669
G1 X87.172 Y96.330 E10.07250
G1 X87.392 Y95.360 E10.10831
G1 X87.496 Y94.371 E10.14412
G1 X87.483 Y93.376 E10.17993
G1 X87.353 Y92.390 E10.21575
G1 X87.107 Y91.426 E10.25156
G1 X86.750 Y90.498 E10.28737
G1 X86.286 Y89.618 E10.32318
G1 X85.721 Y88.799 E10.35900
G1 X85.058 Y88.047 E10.39509
G1 X84.320 Y87.386 E10.43073
G1 X83.504 Y86.813 E10.46663
G1 X82.620 Y86.338 E10.50278
G1 X81.676 Y85.969 E10.53925
G1 X80.739 Y85.722 E10.57412
G1 X79.783 Y85.587 E10.60888
G1 X69.430 Y84.744 E10.98281
G1 X68.576 Y84.625 E11.01386
G1 X67.747 Y84.410 E11.04470
G1 X66.948 Y84.101 E11.07554
G1 X66.189 Y83.703 E11.10638
G1 X65.481 Y83.221 E11.13722
G1 X64.833 Y82.660 E11.16807
G1 X64.254 Y82.029 E11.19891
G1 X63.750 Y81.336 E11.22975
G1 X63.330 Y80.589 E11.26059
G1 X62.998 Y79.800 E11.29143
G1 X62.758 Y78.977 E11.32227
G1 X62.614 Y78.127 E11.35332
G1 X62.566 Y77.700 E11.36878
G1 X94.184 Y77.700 E12.50697
G1 X93.034 Y87.599 E12.86573
G1 X91.352 Y105.122 E13.49943
G1 X90.509 Y113.347 E13.79709
G1 X89.416 Y122.300 E14.12176
G1 X69.574 Y122.300 E14.83606
M204 S1500
G1 X69.678 Y121.935 F7800.000
G1 X69.966 Y121.562 F7800.000
M204 S600
G1 X70.156 Y121.753 E14.84579 F2400.000
G1 X70.647 Y121.753 E14.86348
G1 X69.875 Y120.981 E14.90283
G1 X69.785 Y120.400 E14.92403
G1 X71.138 Y121.753 E14.99300
G1 X71.628 Y121.753 E15.01069
G1 X69.694 Y119.819 E15.10929
G1 X69.635 Y119.269 E15.12925
G1 X72.119 Y121.753 E15.25591
G1 X72.609 Y121.753 E15.27360
G1 X69.580 Y118.723 E15.42808
G1 X69.580 Y118.233 E15.44577
G1 X73.100 Y121.753 E15.62526
G1 X73.590 Y121.753 E15.64295
G1 X69.580 Y117.742 E15.84746
G1 X69.624 Y117.296 E15.86364
G1 X74.081 Y121.753 E16.09091
G1 X74.572 Y121.753 E16.10860
G1 X69.670 Y116.851 E16.35856
G1 X69.744 Y116.434 E16.37381
G1 X75.062 Y121.753 E16.64500
G1 X75.553 Y121.753 E16.66269
G1 X69.828 Y116.028 E16.95460
G1 X69.921 Y115.631 E16.96931
G1 X76.043 Y121.753 E17.28147
G1 X76.534 Y121.753 E17.29916
G1 X70.040 Y115.259 E17.63030
G1 X70.159 Y114.887 E17.64437
G1 X77.025 Y121.753 E17.99448
G1 X77.515 Y121.753 E18.01217
G1 X70.298 Y114.535 E18.38018
M204 S1500
G1 X73.479 Y110.358 F7800.000
M204 S600
G1 X77.089 Y113.968 E18.56424 F2400.000
G1 X76.380 Y113.749 E18.59099
G1 X73.213 Y110.582 E18.75250
G1 X72.953 Y110.813 E18.76503
G1 X75.856 Y113.716 E18.91307
G1 X75.421 Y113.771 E18.92890
G1 X72.699 Y111.049 E19.06768
G1 X72.445 Y111.286 E19.08019
G1 X75.060 Y113.901 E19.21356
G1 X74.726 Y114.058 E19.22687
G1 X72.205 Y111.537 E19.35539
G1 X71.977 Y111.799 E19.36792
G1 X74.442 Y114.264 E19.49362
G1 X74.188 Y114.501 E19.50614
G1 X71.748 Y112.061 E19.63056
G1 X71.538 Y112.342 E19.64320
G1 X73.966 Y114.769 E19.76696
G1 X73.789 Y115.083 E19.77995
G1 X71.335 Y112.629 E19.90511
G1 X71.131 Y112.916 E19.91780
G1 X73.634 Y115.418 E20.04541
G1 X73.555 Y115.830 E20.06053
G1 X70.948 Y113.223 E20.19346
G1 X70.771 Y113.537 E20.20645
G1 X73.536 Y116.302 E20.34745
G1 X73.641 Y116.898 E20.36925
G1 X70.596 Y113.853 E20.52450
G1 X70.447 Y114.194 E20.53793
G1 X78.006 Y121.753 E20.92335
G1 X78.496 Y121.753 E20.94103
G1 X75.126 Y118.383 E21.11288
G1 X75.721 Y118.487 E21.13468
G1 X78.987 Y121.753 E21.30119
G1 X79.478 Y121.753 E21.31888
G1 X76.200 Y118.475 E21.48599
G1 X76.591 Y118.375 E21.50052
G1 X79.968 Y121.753 E21.67275
G1 X80.459 Y121.753 E21.69043
G1 X76.938 Y118.232 E21.86994
G1 X77.255 Y118.058 E21.88296
G1 X80.949 Y121.753 E22.07134
G1 X81.440 Y121.753 E22.08903
G1 X77.516 Y117.829 E22.28912
G1 X77.766 Y117.588 E22.30163
G1 X81.930 Y121.753 E22.51399
G1 X82.421 Y121.753 E22.53168
G1 X77.956 Y117.288 E22.75934
G1 X78.124 Y116.965 E22.77245
G1 X82.912 Y121.753 E23.01657
G1 X83.402 Y121.753 E23.03426
G1 X78.245 Y116.595 E23.29725
G1 X78.299 Y116.158 E23.31311
G1 X83.893 Y121.753 E23.59837
G1 X84.383 Y121.753 E23.61606
G1 X78.272 Y115.641 E23.92768
G1 X78.036 Y114.914 E23.95525
G1 X84.874 Y121.753 E24.30394
G1 X85.365 Y121.753 E24.32163
G1 X73.746 Y110.134 E24.91407
G1 X74.013 Y109.910 E24.92662
G1 X85.855 Y121.753 E25.53047
G1 X86.346 Y121.753 E25.54816
G1 X74.280 Y109.687 E26.16343
M204 S1500
G1 X78.281 Y106.329 F7800.000
M204 S600
G1 X85.771 Y113.819 E26.54534 F2400.000
G1 X85.180 Y113.719 E26.56694
G1 X78.014 Y106.553 E26.93234
G1 X77.747 Y106.777 E26.94489
G1 X84.712 Y113.742 E27.30004
G1 X84.307 Y113.827 E27.31498
G1 X77.481 Y107.001 E27.66305
G1 X77.214 Y107.224 E27.67560
G1 X83.955 Y113.966 E28.01936
G1 X83.652 Y114.153 E28.03221
G1 X76.947 Y107.448 E28.37410
G1 X76.680 Y107.672 E28.38666
G1 X83.368 Y114.360 E28.72766
G1 X83.143 Y114.625 E28.74021
G1 X76.414 Y107.896 E29.08332
G1 X76.147 Y108.120 E29.09588
G1 X82.931 Y114.904 E29.44182
G1 X82.774 Y115.238 E29.45511
G1 X75.880 Y108.344 E29.80664
G1 X75.613 Y108.567 E29.81920
G1 X82.655 Y115.609 E30.17825
G1 X82.576 Y116.021 E30.19338
G1 X75.347 Y108.791 E30.56203
G1 X75.080 Y109.015 E30.57458
G1 X82.609 Y116.545 E30.95852
G1 X82.811 Y117.236 E30.98449
G1 X74.813 Y109.239 E31.39229
G1 X74.546 Y109.463 E31.40484
G1 X86.836 Y121.753 E32.03152
G1 X87.327 Y121.753 E32.04921
G1 X83.806 Y118.232 E32.22876
G1 X84.538 Y118.474 E32.25658
G1 X87.818 Y121.753 E32.42379
G1 X88.308 Y121.753 E32.44148
G1 X85.043 Y118.487 E32.60799
G1 X85.468 Y118.422 E32.62350
G1 X88.799 Y121.753 E32.79336
G1 X88.984 Y121.447 E32.80624
G1 X85.850 Y118.313 E32.96605
G1 X86.166 Y118.139 E32.97907
G1 X89.037 Y121.010 E33.12544
G1 X89.090 Y120.572 E33.14133
G1 X86.455 Y117.938 E33.27566
G1 X86.710 Y117.702 E33.28818
G1 X89.143 Y120.135 E33.41221
G1 X89.196 Y119.697 E33.42810
G1 X86.926 Y117.427 E33.54386
G1 X87.116 Y117.127 E33.55668
G1 X89.249 Y119.260 E33.66543
G1 X89.302 Y118.822 E33.68132
G1 X87.246 Y116.766 E33.78614
G1 X87.343 Y116.372 E33.80078
G1 X89.355 Y118.385 E33.90339
G1 X89.408 Y117.947 E33.91928
G1 X87.372 Y115.911 E34.02312
G1 X87.268 Y115.316 E34.04489
G1 X89.461 Y117.510 E34.15675
G1 X89.514 Y117.072 E34.17264
G1 X78.548 Y106.105 E34.73185
G1 X78.814 Y105.881 E34.74440
G1 X89.568 Y116.634 E35.29271
G1 X89.621 Y116.197 E35.30860
G1 X79.081 Y105.658 E35.84602
G1 X79.348 Y105.434 E35.85857
G1 X89.674 Y115.759 E36.38509
G1 X89.727 Y115.322 E36.40098
G1 X79.615 Y105.210 E36.91660
G1 X79.881 Y104.986 E36.92916
G1 X89.780 Y114.884 E37.43389
G1 X89.833 Y114.447 E37.44978
G1 X80.148 Y104.762 E37.94361
G1 X80.415 Y104.538 E37.95616
G1 X89.886 Y114.009 E38.43910
G1 X89.939 Y113.572 E38.45499
G1 X80.682 Y104.315 E38.92703
G1 X80.948 Y104.091 E38.93959
G1 X89.988 Y113.131 E39.40054
G1 X90.034 Y112.686 E39.41667
G1 X81.215 Y103.867 E39.86635
G1 X81.482 Y103.643 E39.87891
G1 X90.080 Y112.241 E40.31731
G1 X90.125 Y111.796 E40.33344
G1 X81.749 Y103.419 E40.76057
G1 X82.015 Y103.195 E40.77312
G1 X90.171 Y111.351 E41.18897
G1 X90.216 Y110.906 E41.20510
G1 X82.282 Y102.972 E41.60968
G1 X82.549 Y102.748 E41.62223
G1 X90.262 Y110.461 E42.01553
G1 X90.308 Y110.016 E42.03166
G1 X82.816 Y102.524 E42.41368
G1 X83.082 Y102.300 E42.42623
G1 X90.353 Y109.571 E42.79698
G1 X90.399 Y109.126 E42.81311
G1 X83.349 Y102.076 E43.17258
G1 X83.616 Y101.852 E43.18513
G1 X90.445 Y108.681 E43.53332
G1 X90.490 Y108.236 E43.54945
G1 X83.883 Y101.629 E43.88637
G1 X84.150 Y101.405 E43.89892
G1 X90.536 Y107.791 E44.22456
G1 X90.581 Y107.346 E44.24069
G1 X84.416 Y101.181 E44.55505
G1 X84.683 Y100.957 E44.56761
