; generated by Slic3r 1.3.0-dev on 2017-10-16 at 17:52:30

; Printer Config Notes: 
; ""
; 
; external perimeters extrusion width = 0.40mm (2.16mm^3/s)
; perimeters extrusion width = 0.40mm (3.90mm^3/s)
; infill extrusion width = 0.40mm (4.76mm^3/s)
; solid infill extrusion width = 0.40mm (4.76mm^3/s)
; top infill extrusion width = 0.40mm (3.46mm^3/s)

; external perimeters extrusion width = 0.40mm (2.16mm^3/s)
; perimeters extrusion width = 0.40mm (3.90mm^3/s)
; infill extrusion width = 0.40mm (4.76mm^3/s)
; solid infill extrusion width = 0.40mm (4.76mm^3/s)
; top infill extrusion width = 0.40mm (3.46mm^3/s)

M107
M190 S75 ; set bed temperature and wait for it to be reached
M104 S235 ; set temperature
G28 ; home all axes
G1 Z5 F5000 ; lift nozzle


; Filament gcode

; Filament gcode

M109 S235 ; set temperature and wait for it to be reached
G21 ; set units to millimeters
G90 ; use absolute coordinates
M82 ; use absolute distances for extrusion
G92 E0
G1 E-2.50000 F3600.00000
G92 E0
G1 Z0.250 F9600.000
G1 X26.982 Y16.739 F9600.000
G1 E2.50000 F3600.00000
M204 S600
G1 F1200
G1 X28.711 Y15.398 E2.57880
G1 X31.486 Y14.722 E2.68160
G1 X92.486 Y14.722 E4.87753
G1 X94.639 Y15.119 E4.95633
G1 X96.509 Y16.257 E5.03512
G1 X97.850 Y17.987 E5.11392
G1 X98.525 Y20.762 E5.21672
G1 X98.525 Y104.762 E8.24062
G1 X98.128 Y106.914 E8.31942
G1 X96.990 Y108.784 E8.39822
G1 X95.261 Y110.125 E8.47702
G1 X92.486 Y110.801 E8.57982
G1 X31.486 Y110.801 E10.77575
G1 X29.333 Y110.404 E10.85455
G1 X27.464 Y109.266 E10.93334
G1 X26.122 Y107.536 E11.01214
G1 X25.447 Y104.762 E11.11494
G1 X25.447 Y20.762 E14.13884
G1 X25.844 Y18.609 E14.21764
G1 X26.950 Y16.790 E14.29428
M204 S800
G1 X27.324 Y16.878 F9600.000
M204 S600
G1 F1200
G1 X29.038 Y15.622 E14.37076
G1 X31.486 Y15.069 E14.46111
G1 X92.486 Y15.069 E16.65704
G1 X94.573 Y15.465 E16.73353
G1 X96.370 Y16.600 E16.81001
G1 X97.626 Y18.314 E16.88650
G1 X98.179 Y20.762 E16.97685
G1 X98.179 Y104.762 E20.00075
G1 X97.782 Y106.849 E20.07723
G1 X96.648 Y108.645 E20.15372
G1 X94.934 Y109.901 E20.23020
G1 X92.486 Y110.454 E20.32055
G1 X31.486 Y110.454 E22.51648
G1 X29.399 Y110.058 E22.59297
G1 X27.602 Y108.924 E22.66945
G1 X26.347 Y107.210 E22.74594
G1 X25.793 Y104.762 E22.83628
G1 X25.793 Y20.762 E25.86019
G1 X26.190 Y18.674 E25.93667
G1 X27.292 Y16.928 E26.01100
M204 S800
G1 X27.666 Y17.021 F9600.000
M204 S600
G1 F1200
G1 X29.362 Y15.855 E26.08510
G1 X31.486 Y15.415 E26.16317
G1 X92.486 Y15.415 E28.35910
G1 X94.506 Y15.811 E28.43321
G1 X96.226 Y16.941 E28.50731
G1 X97.392 Y18.638 E28.58141
G1 X97.832 Y20.762 E28.65948
G1 X97.832 Y104.762 E31.68339
G1 X97.436 Y106.781 E31.75749
G1 X96.306 Y108.502 E31.83159
G1 X94.610 Y109.668 E31.90569
G1 X92.486 Y110.108 E31.98376
G1 X31.486 Y110.108 E34.17969
G1 X29.466 Y109.712 E34.25379
G1 X27.746 Y108.582 E34.32789
G1 X26.580 Y106.885 E34.40199
G1 X26.140 Y104.762 E34.48007
G1 X26.140 Y20.762 E37.50397
G1 X26.536 Y18.742 E37.57807
G1 X27.633 Y17.071 E37.65002
M204 S800
G1 E35.15002 F3600.00000
G92 E0
G1 X58.940 Y89.215 F9600.000
G1 E2.50000 F3600.00000
M204 S600
G1 F1200
G1 X65.032 Y89.215 E2.71933
G1 X65.032 Y95.308 E2.93866
G1 X58.940 Y95.308 E3.15799
G1 X58.940 Y89.275 E3.37516
M204 S800
G1 X59.286 Y89.562 F9600.000
M204 S600
G1 F1200
G1 X64.686 Y89.562 E3.56955
G1 X64.686 Y94.962 E3.76394
G1 X59.286 Y94.962 E3.95834
G1 X59.286 Y89.622 E4.15057
M204 S800
G1 X59.183 Y89.175 F9600.000
G1 E1.65057 F3600.00000
G92 E0
G1 X44.940 Y77.708 F9600.000
G1 E2.50000 F3600.00000
M204 S600
G1 F1200
G1 X44.940 Y78.488 E2.52808
G1 X48.760 Y82.308 E2.72256
G1 X75.212 Y82.308 E3.67482
G1 X79.032 Y78.488 E3.86930
G1 X79.032 Y77.708 E3.89738
G1 X91.940 Y77.708 E4.36202
G1 X91.940 Y104.215 E5.31626
G1 X32.032 Y104.215 E7.47285
G1 X32.032 Y77.708 E8.42709
G1 X44.880 Y77.708 E8.88957
M204 S800
G1 X45.286 Y77.362 F9600.000
M204 S600
G1 F1200
G1 X45.286 Y78.344 E8.92496
G1 X48.903 Y81.962 E9.10911
G1 X75.069 Y81.962 E10.05104
G1 X78.686 Y78.344 E10.23519
G1 X78.686 Y77.362 E10.27057
G1 X92.286 Y77.362 E10.76016
G1 X92.286 Y104.562 E11.73932
G1 X31.686 Y104.562 E13.92086
G1 X31.686 Y77.362 E14.90003
G1 X45.226 Y77.362 E15.38745
M204 S800
G1 X45.224 Y77.757 F9600.000
G1 E12.88745 F3600.00000
G92 E0
G1 X46.068 Y80.179 F9600.000
G1 E2.50000 F3600.00000
M204 S600
G1 F1200
G1 X46.142 Y80.106 E2.50378
G1 X45.894 Y79.859 E2.51647
G1 X45.574 Y80.179 E2.53294
G1 X45.080 Y80.179 E2.55089
G1 X45.647 Y79.612 E2.58005
G1 X45.400 Y79.365 E2.59275
G1 X44.585 Y80.179 E2.63460
G1 X44.091 Y80.179 E2.65255
G1 X45.153 Y79.118 E2.70710
G1 X44.906 Y78.870 E2.71979
G1 X43.597 Y80.179 E2.78703
G1 X43.103 Y80.179 E2.80498
G1 X44.659 Y78.623 E2.88491
G1 X44.630 Y78.595 E2.88639
G1 X44.630 Y78.158 E2.90225
G1 X42.609 Y80.179 E3.00609
G1 X42.114 Y80.179 E3.02404
G1 X44.276 Y78.017 E3.13509
G1 X43.782 Y78.017 E3.15304
G1 X41.620 Y80.179 E3.26410
G1 X41.126 Y80.179 E3.28205
G1 X43.288 Y78.017 E3.39310
G1 X42.794 Y78.017 E3.41105
G1 X40.632 Y80.179 E3.52210
G1 X40.138 Y80.179 E3.54005
G1 X42.300 Y78.017 E3.65111
G1 X41.805 Y78.017 E3.66906
G1 X39.643 Y80.179 E3.78011
G1 X39.149 Y80.179 E3.79806
G1 X41.311 Y78.017 E3.90912
G1 X40.817 Y78.017 E3.92707
G1 X38.655 Y80.179 E4.03812
G1 X38.161 Y80.179 E4.05607
G1 X40.323 Y78.017 E4.16712
G1 X39.829 Y78.017 E4.18507
G1 X37.667 Y80.179 E4.29613
G1 X37.172 Y80.179 E4.31408
G1 X39.334 Y78.017 E4.42513
G1 X38.840 Y78.017 E4.44308
G1 X36.678 Y80.179 E4.55414
G1 X36.184 Y80.179 E4.57209
G1 X38.346 Y78.017 E4.68314
G1 X37.852 Y78.017 E4.70109
G1 X35.690 Y80.179 E4.81214
G1 X35.196 Y80.179 E4.83009
G1 X37.358 Y78.017 E4.94115
G1 X36.863 Y78.017 E4.95910
G1 X34.701 Y80.179 E5.07015
G1 X34.207 Y80.179 E5.08810
G1 X36.369 Y78.017 E5.19916
G1 X35.875 Y78.017 E5.21711
G1 X33.713 Y80.179 E5.32816
G1 X33.219 Y80.179 E5.34611
G1 X35.381 Y78.017 E5.45716
G1 X34.887 Y78.017 E5.47511
G1 X32.725 Y80.179 E5.58617
G1 X32.342 Y80.179 E5.60007
G1 X32.342 Y80.068 E5.60412
G1 X34.392 Y78.017 E5.70944
G1 X33.898 Y78.017 E5.72739
G1 X32.342 Y79.574 E5.80733
G1 X32.342 Y79.080 E5.82528
G1 X33.404 Y78.017 E5.87983
G1 X32.910 Y78.017 E5.89778
G1 X32.342 Y78.585 E5.92695
G1 X32.342 Y78.091 E5.94490
G1 X32.416 Y78.017 E5.94868
M204 S800
G1 E3.44868 F3600.00000
G92 E0
G1 X79.342 Y78.091 F9600.000
G1 E2.50000 F3600.00000
M204 S600
G1 F1200
G1 X79.416 Y78.017 E2.50377
G1 X79.909 Y78.017 E2.52164
G1 X79.342 Y78.584 E2.55070
G1 X79.342 Y78.668 E2.55374
G1 X77.831 Y80.179 E2.63122
G1 X78.240 Y80.179 E2.64606
G1 X80.402 Y78.017 E2.75689
G1 X80.895 Y78.017 E2.77477
G1 X78.733 Y80.179 E2.88560
G1 X79.226 Y80.179 E2.90348
G1 X81.388 Y78.017 E3.01431
G1 X81.882 Y78.017 E3.03218
G1 X79.720 Y80.179 E3.14301
G1 X80.213 Y80.179 E3.16089
G1 X82.375 Y78.017 E3.27172
G1 X82.868 Y78.017 E3.28960
G1 X80.706 Y80.179 E3.40043
G1 X81.199 Y80.179 E3.41830
G1 X83.361 Y78.017 E3.52913
G1 X83.854 Y78.017 E3.54701
G1 X81.692 Y80.179 E3.65784
G1 X82.186 Y80.179 E3.67572
G1 X84.348 Y78.017 E3.78655
G1 X84.841 Y78.017 E3.80443
G1 X82.679 Y80.179 E3.91526
G1 X83.172 Y80.179 E3.93313
G1 X85.334 Y78.017 E4.04396
G1 X85.827 Y78.017 E4.06184
G1 X83.665 Y80.179 E4.17267
G1 X84.158 Y80.179 E4.19055
G1 X86.320 Y78.017 E4.30138
G1 X86.814 Y78.017 E4.31926
G1 X84.652 Y80.179 E4.43008
G1 X85.145 Y80.179 E4.44796
G1 X87.307 Y78.017 E4.55879
G1 X87.800 Y78.017 E4.57667
G1 X85.638 Y80.179 E4.68750
G1 X86.131 Y80.179 E4.70538
G1 X88.293 Y78.017 E4.81621
G1 X88.786 Y78.017 E4.83408
G1 X86.624 Y80.179 E4.94491
G1 X87.118 Y80.179 E4.96279
G1 X89.280 Y78.017 E5.07362
G1 X89.773 Y78.017 E5.09150
G1 X87.611 Y80.179 E5.20233
G1 X88.104 Y80.179 E5.22021
G1 X90.266 Y78.017 E5.33104
G1 X90.759 Y78.017 E5.34891
G1 X88.597 Y80.179 E5.45974
G1 X89.090 Y80.179 E5.47762
G1 X91.252 Y78.017 E5.58845
G1 X91.630 Y78.017 E5.60214
G1 X91.630 Y78.133 E5.60633
G1 X89.584 Y80.179 E5.71123
G1 X90.077 Y80.179 E5.72911
G1 X91.630 Y78.626 E5.80873
G1 X91.630 Y79.119 E5.82661
G1 X90.570 Y80.179 E5.88095
G1 X91.063 Y80.179 E5.89883
G1 X91.630 Y79.613 E5.92788
G1 X91.630 Y80.106 E5.94576
G1 X91.557 Y80.179 E5.94953
M204 S800
G1 E3.44953 F3600.00000
G92 E0
G1 X91.557 Y103.906 F9600.000
G1 E2.50000 F3600.00000
M204 S600
G1 F1200
G1 X91.630 Y103.832 E2.50376
G1 X91.630 Y103.340 E2.52153
G1 X91.065 Y103.906 E2.55041
G1 X90.573 Y103.906 E2.56817
G1 X91.630 Y102.849 E2.62218
G1 X91.630 Y102.357 E2.63994
G1 X90.082 Y103.906 E2.71907
G1 X89.590 Y103.906 E2.73683
G1 X91.630 Y101.865 E2.84108
G1 X91.630 Y101.374 E2.85885
G1 X89.098 Y103.906 E2.98822
G1 X88.607 Y103.906 E3.00598
G1 X91.630 Y100.882 E3.16048
G1 X91.630 Y100.391 E3.17824
G1 X88.115 Y103.906 E3.35785
G1 X87.623 Y103.906 E3.37562
G1 X91.630 Y99.899 E3.58036
G1 X91.630 Y99.407 E3.59812
G1 X87.132 Y103.906 E3.82798
G1 X86.640 Y103.906 E3.84574
G1 X91.630 Y98.916 E4.10072
G1 X91.630 Y98.424 E4.11849
G1 X86.149 Y103.906 E4.39859
G1 X85.657 Y103.906 E4.41636
G1 X91.630 Y97.932 E4.72158
G1 X91.630 Y97.441 E4.73934
G1 X85.165 Y103.906 E5.06969
G1 X84.674 Y103.906 E5.08746
G1 X91.630 Y96.949 E5.44292
G1 X91.630 Y96.458 E5.46069
G1 X84.182 Y103.906 E5.84128
G1 X83.690 Y103.906 E5.85904
G1 X91.630 Y95.966 E6.26476
G1 X91.630 Y95.474 E6.28252
G1 X83.199 Y103.906 E6.71335
G1 X82.707 Y103.906 E6.73112
G1 X91.630 Y94.983 E7.18708
G1 X91.630 Y94.491 E7.20484
G1 X82.216 Y103.906 E7.68592
G1 X81.724 Y103.906 E7.70368
G1 X91.630 Y93.999 E8.20988
G1 X91.630 Y93.508 E8.22765
G1 X81.232 Y103.906 E8.75897
G1 X80.741 Y103.906 E8.77673
G1 X91.630 Y93.016 E9.33318
G1 X91.630 Y92.524 E9.35094
G1 X80.249 Y103.906 E9.93251
G1 X79.757 Y103.906 E9.95027
G1 X91.630 Y92.033 E10.55696
G1 X91.630 Y91.541 E10.57473
G1 X79.266 Y103.906 E11.20654
G1 X78.774 Y103.906 E11.22430
G1 X91.630 Y91.050 E11.88123
G1 X91.630 Y90.558 E11.89900
G1 X78.282 Y103.906 E12.58105
G1 X77.791 Y103.906 E12.59881
G1 X91.630 Y90.066 E13.30599
G1 X91.630 Y89.575 E13.32376
G1 X77.299 Y103.906 E14.05605
G1 X76.808 Y103.906 E14.07382
G1 X91.630 Y89.083 E14.83124
G1 X91.630 Y88.591 E14.84900
G1 X76.316 Y103.906 E15.63154
G1 X75.824 Y103.906 E15.64931
G1 X91.630 Y88.100 E16.45697
G1 X91.630 Y87.608 E16.47474
G1 X75.333 Y103.906 E17.30752
G1 X74.841 Y103.906 E17.32529
G1 X91.630 Y87.117 E18.18319
G1 X91.630 Y86.625 E18.20096
G1 X74.349 Y103.906 E19.08399
G1 X73.858 Y103.906 E19.10175
G1 X91.630 Y86.133 E20.00991
G1 X91.630 Y85.642 E20.02767
G1 X73.366 Y103.906 E20.96094
G1 X72.875 Y103.906 E20.97871
G1 X91.630 Y85.150 E21.93710
G1 X91.630 Y84.658 E21.95487
G1 X72.383 Y103.906 E22.93839
G1 X71.891 Y103.906 E22.95615
G1 X91.630 Y84.167 E23.96479
G1 X91.630 Y83.675 E23.98255
G1 X71.400 Y103.906 E25.01632
G1 X70.908 Y103.906 E25.03408
G1 X91.630 Y83.183 E26.09296
G1 X91.630 Y82.692 E26.11073
G1 X70.416 Y103.906 E27.19473
G1 X69.925 Y103.906 E27.21250
G1 X91.630 Y82.200 E28.32163
G1 X91.630 Y81.709 E28.33939
G1 X69.433 Y103.906 E29.47364
G1 X68.941 Y103.906 E29.49140
G1 X91.630 Y81.217 E30.65077
G1 X91.630 Y80.725 E30.66854
G1 X68.450 Y103.906 E31.85303
G1 X67.958 Y103.906 E31.87080
G1 X91.411 Y80.452 E33.06924
G1 X90.920 Y80.452 E33.08700
G1 X67.467 Y103.906 E34.28545
G1 X66.975 Y103.906 E34.30321
G1 X90.428 Y80.452 E35.50166
G1 X89.937 Y80.452 E35.51942
G1 X66.483 Y103.906 E36.71786
G1 X65.992 Y103.906 E36.73563
G1 X89.445 Y80.452 E37.93407
G1 X88.953 Y80.452 E37.95184
G1 X65.500 Y103.906 E39.15028
G1 X65.008 Y103.906 E39.16804
G1 X88.462 Y80.452 E40.36649
G1 X87.970 Y80.452 E40.38425
G1 X64.517 Y103.906 E41.58270
G1 X64.025 Y103.906 E41.60046
G1 X87.478 Y80.452 E42.79890
G1 X86.987 Y80.452 E42.81667
G1 X63.534 Y103.906 E44.01511
G1 X63.042 Y103.906 E44.03288
G1 X86.495 Y80.452 E45.23132
G1 X86.004 Y80.452 E45.24908
G1 X62.550 Y103.906 E46.44753
G1 X62.059 Y103.906 E46.46529
G1 X85.512 Y80.452 E47.66374
G1 X85.020 Y80.452 E47.68150
G1 X61.567 Y103.906 E48.87995
G1 X61.075 Y103.906 E48.89771
G1 X84.529 Y80.452 E50.09615
G1 X84.037 Y80.452 E50.11392
G1 X60.584 Y103.906 E51.31236
G1 X60.092 Y103.906 E51.33013
G1 X83.545 Y80.452 E52.52857
G1 X83.054 Y80.452 E52.54633
G1 X59.600 Y103.906 E53.74478
G1 X59.109 Y103.906 E53.76254
G1 X82.562 Y80.452 E54.96099
G1 X82.070 Y80.452 E54.97875
G1 X58.617 Y103.906 E56.17719
G1 X58.126 Y103.906 E56.19496
G1 X81.579 Y80.452 E57.39340
G1 X81.087 Y80.452 E57.41117
G1 X57.634 Y103.906 E58.60961
G1 X57.142 Y103.906 E58.62737
G1 X80.596 Y80.452 E59.82582
G1 X80.104 Y80.452 E59.84358
G1 X65.342 Y95.214 E60.59791
G1 X65.342 Y94.723 E60.61567
G1 X79.612 Y80.452 E61.34487
G1 X79.121 Y80.452 E61.36264
G1 X65.342 Y94.231 E62.06672
G1 X65.342 Y93.739 E62.08448
G1 X78.629 Y80.452 E62.76344
G1 X78.137 Y80.452 E62.78121
G1 X65.342 Y93.248 E63.43504
G1 X65.342 Y92.756 E63.45281
G1 X77.646 Y80.452 E64.08152
G1 X77.558 Y80.452 E64.08470
G1 X75.393 Y82.617 E64.19534
G1 X74.989 Y82.617 E64.20992
G1 X65.342 Y92.264 E64.70288
G1 X65.342 Y91.773 E64.72064
G1 X74.497 Y82.617 E65.18847
G1 X74.006 Y82.617 E65.20624
G1 X65.342 Y91.281 E65.64895
G1 X65.342 Y90.790 E65.66671
G1 X73.514 Y82.617 E66.08430
G1 X73.022 Y82.617 E66.10207
G1 X65.342 Y90.298 E66.49453
G1 X65.342 Y89.806 E66.51230
G1 X72.531 Y82.617 E66.87964
G1 X72.039 Y82.617 E66.89741
G1 X65.342 Y89.315 E67.23963
G1 X65.342 Y88.906 E67.25441
G1 X65.259 Y88.906 E67.25739
G1 X71.548 Y82.617 E67.57871
G1 X71.056 Y82.617 E67.59648
G1 X64.768 Y88.906 E67.91780
G1 X64.276 Y88.906 E67.93556
G1 X70.564 Y82.617 E68.25688
G1 X70.073 Y82.617 E68.27464
G1 X63.785 Y88.906 E68.59596
G1 X63.293 Y88.906 E68.61372
G1 X69.581 Y82.617 E68.93504
G1 X69.089 Y82.617 E68.95281
G1 X62.801 Y88.906 E69.27413
G1 X62.310 Y88.906 E69.29189
G1 X68.598 Y82.617 E69.61321
G1 X68.106 Y82.617 E69.63097
G1 X61.818 Y88.906 E69.95229
G1 X61.326 Y88.906 E69.97006
G1 X67.615 Y82.617 E70.29137
G1 X67.123 Y82.617 E70.30914
G1 X60.835 Y88.906 E70.63046
G1 X60.343 Y88.906 E70.64822
G1 X66.631 Y82.617 E70.96954
G1 X66.140 Y82.617 E70.98730
G1 X59.852 Y88.906 E71.30862
G1 X59.360 Y88.906 E71.32639
G1 X65.648 Y82.617 E71.64770
G1 X65.156 Y82.617 E71.66547
G1 X58.868 Y88.906 E71.98679
G1 X58.557 Y88.906 E71.99805
G1 X58.557 Y89.217 E72.00930
G1 X43.868 Y103.906 E72.75987
G1 X43.377 Y103.906 E72.77763
G1 X64.665 Y82.617 E73.86544
G1 X64.173 Y82.617 E73.88320
G1 X42.885 Y103.906 E74.97101
G1 X42.393 Y103.906 E74.98877
G1 X63.681 Y82.617 E76.07658
G1 X63.190 Y82.617 E76.09434
G1 X41.902 Y103.906 E77.18215
G1 X41.410 Y103.906 E77.19991
G1 X62.698 Y82.617 E78.28772
G1 X62.207 Y82.617 E78.30548
G1 X40.918 Y103.906 E79.39329
G1 X40.427 Y103.906 E79.41105
G1 X61.715 Y82.617 E80.49886
G1 X61.223 Y82.617 E80.51662
G1 X39.935 Y103.906 E81.60443
G1 X39.444 Y103.906 E81.62219
G1 X60.732 Y82.617 E82.71000
G1 X60.240 Y82.617 E82.72777
G1 X38.952 Y103.906 E83.81557
G1 X38.460 Y103.906 E83.83334
G1 X59.748 Y82.617 E84.92114
G1 X59.257 Y82.617 E84.93891
G1 X37.969 Y103.906 E86.02671
G1 X37.477 Y103.906 E86.04448
G1 X58.765 Y82.617 E87.13228
G1 X58.274 Y82.617 E87.15005
G1 X36.985 Y103.906 E88.23785
G1 X36.494 Y103.906 E88.25562
G1 X57.782 Y82.617 E89.34342
G1 X57.290 Y82.617 E89.36119
G1 X36.002 Y103.906 E90.44899
G1 X35.511 Y103.906 E90.46676
G1 X56.799 Y82.617 E91.55456
G1 X56.307 Y82.617 E91.57233
G1 X35.019 Y103.906 E92.66013
G1 X34.527 Y103.906 E92.67790
G1 X55.815 Y82.617 E93.76570
G1 X55.324 Y82.617 E93.78347
G1 X34.036 Y103.906 E94.87127
G1 X33.544 Y103.906 E94.88904
G1 X54.832 Y82.617 E95.97684
G1 X54.340 Y82.617 E95.99461
G1 X33.052 Y103.906 E97.08241
G1 X32.561 Y103.906 E97.10018
G1 X53.849 Y82.617 E98.18798
G1 X53.357 Y82.617 E98.20575
G1 X32.342 Y103.633 E99.27961
G1 X32.342 Y103.141 E99.29737
G1 X52.866 Y82.617 E100.34611
G1 X52.374 Y82.617 E100.36387
G1 X32.342 Y102.649 E101.38749
G1 X32.342 Y102.158 E101.40526
G1 X51.882 Y82.617 E102.40375
G1 X51.391 Y82.617 E102.42152
G1 X32.342 Y101.666 E103.39489
G1 X32.342 Y101.175 E103.41265
G1 X50.899 Y82.617 E104.36090
G1 X50.407 Y82.617 E104.37867
G1 X32.342 Y100.683 E105.30180
G1 X32.342 Y100.191 E105.31956
G1 X49.916 Y82.617 E106.21757
G1 X49.424 Y82.617 E106.23533
G1 X32.342 Y99.700 E107.10822
G1 X32.342 Y99.208 E107.12598
G1 X48.933 Y82.617 E107.97375
G1 X48.653 Y82.617 E107.98384
G1 X48.547 Y82.511 E107.98926
