; generated by Slic3r 1.3.0-dev on 2017-10-16 at 17:58:06

; Printer Config Notes: 
; ""
; 
; external perimeters extrusion width = 0.40mm (2.16mm^3/s)
; perimeters extrusion width = 0.40mm (3.90mm^3/s)
; infill extrusion width = 0.40mm (4.76mm^3/s)
; solid infill extrusion width = 0.40mm (4.76mm^3/s)
; top infill extrusion width = 0.40mm (3.46mm^3/s)

M107
M190 S75 ; set bed temperature and wait for it to be reached
M104 S235 ; set temperature
G28 ; home all axes
G1 Z5 F5000 ; lift nozzle


; Filament gcode

; Filament gcode

M109 S235 ; set temperature and wait for it to be reached
G21 ; set units to millimeters
G90 ; use absolute coordinates
M82 ; use absolute distances for extrusion
G92 E0
G1 E-2.50000 F3600.00000
G92 E0
G1 Z0.250 F9600.000
G1 X28.383 Y26.473 F9600.000
G1 E2.50000 F3600.00000
M204 S600
G1 F1200
G1 X28.909 Y25.902 E2.52795
G1 X29.570 Y25.272 E2.56081
G1 X30.165 Y24.773 E2.58875
G1 X30.901 Y24.233 E2.62160
G1 X31.555 Y23.815 E2.64955
G1 X32.354 Y23.373 E2.68241
G1 X33.056 Y23.043 E2.71035
G1 X33.905 Y22.708 E2.74320
G1 X34.644 Y22.470 E2.77115
G1 X35.528 Y22.246 E2.80401
G1 X36.292 Y22.105 E2.83194
G1 X37.585 Y21.963 E2.87878
G1 X72.087 Y20.085 E4.12266
G1 X73.085 Y20.056 E4.15859
G1 X74.211 Y20.085 E4.19915
G1 X108.713 Y21.963 E5.44303
G1 X110.006 Y22.105 E5.48986
G1 X110.770 Y22.246 E5.51780
G1 X111.655 Y22.470 E5.55066
G1 X112.394 Y22.708 E5.57860
G1 X113.243 Y23.043 E5.61146
G1 X113.945 Y23.374 E5.63940
G1 X114.744 Y23.815 E5.67226
G1 X115.398 Y24.233 E5.70020
G1 X116.110 Y24.756 E5.73203
G1 X116.728 Y25.272 E5.76100
G1 X117.389 Y25.902 E5.79388
G1 X117.915 Y26.472 E5.82180
G1 X118.489 Y27.182 E5.85466
G1 X118.937 Y27.816 E5.88260
G1 X119.416 Y28.593 E5.91546
G1 X119.779 Y29.278 E5.94338
G1 X120.154 Y30.111 E5.97626
G1 X120.427 Y30.838 E6.00421
G1 X120.691 Y31.711 E6.03706
G1 X120.868 Y32.467 E6.06500
G1 X121.019 Y33.367 E6.09786
G1 X121.098 Y34.140 E6.12581
G1 X121.135 Y35.245 E6.16562
G1 X121.181 Y45.499 E6.53476
G1 X120.823 Y47.545 E6.60954
G1 X103.209 Y96.453 E8.48086
G1 X102.106 Y98.343 E8.55965
G1 X100.402 Y99.717 E8.63845
G1 X97.527 Y100.445 E8.74521
G1 X48.257 Y100.445 E10.51888
G1 X46.104 Y100.049 E10.59768
G1 X44.234 Y98.911 E10.67648
G1 X42.575 Y96.453 E10.78324
G1 X24.960 Y47.545 E12.65455
G1 X24.603 Y45.499 E12.72934
G1 X24.603 Y44.081 E12.78038
G1 X25.208 Y33.995 E13.14410
G1 X25.279 Y33.367 E13.16686
G1 X25.430 Y32.467 E13.19972
G1 X25.607 Y31.711 E13.22766
G1 X25.872 Y30.838 E13.26052
G1 X26.144 Y30.111 E13.28846
G1 X26.519 Y29.279 E13.32133
G1 X26.882 Y28.593 E13.34926
G1 X27.361 Y27.816 E13.38212
G1 X27.809 Y27.182 E13.41006
G1 X28.346 Y26.519 E13.44076
M204 S800
G1 X28.653 Y26.690 F9600.000
M204 S600
G1 F1200
G1 X29.149 Y26.152 E13.46710
G1 X29.809 Y25.522 E13.49996
G1 X30.370 Y25.052 E13.52630
G1 X31.105 Y24.512 E13.55916
G1 X31.722 Y24.118 E13.58550
G1 X32.521 Y23.677 E13.61836
G1 X33.183 Y23.365 E13.64469
G1 X34.032 Y23.030 E13.67755
G1 X34.728 Y22.805 E13.70389
G1 X35.613 Y22.582 E13.73675
G1 X36.333 Y22.449 E13.76309
G1 X37.604 Y22.309 E13.80912
G1 X72.106 Y20.431 E15.05300
G1 X73.088 Y20.403 E15.08838
G1 X74.192 Y20.431 E15.12813
G1 X108.694 Y22.309 E16.37201
G1 X109.965 Y22.449 E16.41804
G1 X110.685 Y22.582 E16.44438
G1 X111.570 Y22.805 E16.47724
G1 X112.266 Y23.030 E16.50358
G1 X113.115 Y23.365 E16.53644
G1 X113.777 Y23.677 E16.56278
G1 X114.576 Y24.118 E16.59563
G1 X115.193 Y24.512 E16.62198
G1 X115.905 Y25.035 E16.65381
G1 X116.489 Y25.522 E16.68117
G1 X117.150 Y26.153 E16.71405
G1 X117.646 Y26.690 E16.74037
G1 X118.220 Y27.400 E16.77322
G1 X118.642 Y27.997 E16.79957
G1 X119.121 Y28.774 E16.83242
G1 X119.463 Y29.421 E16.85875
G1 X119.838 Y30.253 E16.89162
G1 X120.095 Y30.939 E16.91797
G1 X120.360 Y31.812 E16.95082
G1 X120.527 Y32.524 E16.97716
G1 X120.677 Y33.424 E17.01002
G1 X120.751 Y34.152 E17.03636
G1 X120.789 Y35.247 E17.07577
G1 X120.834 Y45.499 E17.44485
G1 X120.498 Y47.428 E17.51534
G1 X102.883 Y96.335 E19.38666
G1 X101.802 Y98.165 E19.46314
G1 X100.126 Y99.471 E19.53963
G1 X97.527 Y100.099 E19.63591
G1 X48.257 Y100.099 E21.40958
G1 X46.169 Y99.702 E21.48606
G1 X44.373 Y98.568 E21.56255
G1 X42.901 Y96.335 E21.65883
G1 X25.286 Y47.428 E23.53014
G1 X24.949 Y45.499 E23.60064
G1 X24.949 Y44.081 E23.65168
G1 X25.553 Y34.017 E24.01464
G1 X25.621 Y33.424 E24.03610
G1 X25.772 Y32.524 E24.06896
G1 X25.938 Y31.812 E24.09529
G1 X26.203 Y30.938 E24.12815
G1 X26.460 Y30.253 E24.15449
G1 X26.835 Y29.421 E24.18736
G1 X27.177 Y28.774 E24.21369
G1 X27.656 Y27.997 E24.24655
G1 X28.079 Y27.400 E24.27289
G1 X28.615 Y26.737 E24.30358
M204 S800
G1 X28.922 Y26.908 F9600.000
M204 S600
G1 F1200
G1 X29.388 Y26.403 E24.32832
G1 X30.048 Y25.773 E24.36118
G1 X30.575 Y25.331 E24.38592
G1 X31.310 Y24.791 E24.41877
G1 X31.889 Y24.421 E24.44351
G1 X32.688 Y23.980 E24.47637
G1 X33.310 Y23.687 E24.50111
G1 X34.159 Y23.352 E24.53396
G1 X34.813 Y23.141 E24.55870
G1 X35.698 Y22.918 E24.59156
G1 X36.374 Y22.793 E24.61629
G1 X37.623 Y22.655 E24.66152
G1 X72.125 Y20.777 E25.90540
G1 X73.092 Y20.749 E25.94024
G1 X74.173 Y20.777 E25.97918
G1 X108.676 Y22.655 E27.22306
G1 X109.924 Y22.793 E27.26829
G1 X110.600 Y22.918 E27.29303
G1 X111.485 Y23.141 E27.32588
G1 X112.139 Y23.352 E27.35062
G1 X112.988 Y23.687 E27.38348
G1 X113.610 Y23.980 E27.40822
G1 X114.409 Y24.421 E27.44107
G1 X114.988 Y24.791 E27.46581
G1 X115.700 Y25.315 E27.49764
G1 X116.250 Y25.773 E27.52341
G1 X116.911 Y26.403 E27.55628
G1 X117.376 Y26.908 E27.58100
G1 X117.950 Y27.618 E27.61386
G1 X118.347 Y28.179 E27.63860
G1 X118.826 Y28.956 E27.67145
G1 X119.147 Y29.563 E27.69617
G1 X119.522 Y30.395 E27.72905
G1 X119.764 Y31.039 E27.75379
G1 X120.028 Y31.912 E27.78665
G1 X120.185 Y32.581 E27.81138
G1 X120.336 Y33.482 E27.84424
G1 X120.405 Y34.165 E27.86898
G1 X120.443 Y35.248 E27.90799
G1 X120.488 Y45.499 E28.27700
G1 X120.172 Y47.311 E28.34321
G1 X102.557 Y96.218 E30.21452
G1 X101.500 Y97.984 E30.28862
G1 X99.853 Y99.220 E30.36272
G1 X97.527 Y99.753 E30.44865
G1 X48.257 Y99.753 E32.22232
G1 X46.237 Y99.356 E32.29642
G1 X44.516 Y98.226 E32.37052
G1 X43.227 Y96.218 E32.45644
G1 X25.612 Y47.311 E34.32776
G1 X25.295 Y45.499 E34.39396
G1 X25.295 Y44.081 E34.44500
G1 X25.899 Y34.038 E34.80721
G1 X25.962 Y33.482 E34.82736
G1 X26.113 Y32.581 E34.86022
G1 X26.270 Y31.912 E34.88495
G1 X26.535 Y31.039 E34.91781
G1 X26.776 Y30.395 E34.94255
G1 X27.151 Y29.563 E34.97541
G1 X27.472 Y28.956 E35.00014
G1 X27.951 Y28.179 E35.03300
G1 X28.348 Y27.618 E35.05774
G1 X28.884 Y26.955 E35.08843
M204 S800
G1 E32.58843 F3600.00000
G92 E0
G1 X50.220 Y91.828 F9600.000
G1 E2.50000 F3600.00000
M204 S600
G1 F1200
G1 X95.563 Y91.828 E4.13229
G1 X95.563 Y44.628 E5.83143
G1 X114.595 Y44.628 E6.51657
G1 X114.595 Y45.404 E6.54451
G1 X97.143 Y93.860 E8.39857
G1 X48.641 Y93.860 E10.14460
G1 X31.188 Y45.404 E11.99866
G1 X31.188 Y44.628 E12.02660
G1 X50.220 Y44.628 E12.71174
G1 X50.220 Y91.768 E14.40873
M204 S800
G1 X50.567 Y91.481 F9600.000
M204 S600
G1 F1200
G1 X95.217 Y91.481 E16.01608
G1 X95.217 Y44.281 E17.71522
G1 X114.942 Y44.281 E18.42530
G1 X114.942 Y45.464 E18.46788
G1 X97.386 Y94.206 E20.33288
G1 X48.397 Y94.206 E22.09643
G1 X30.842 Y45.464 E23.96143
G1 X30.842 Y44.281 E24.00402
G1 X50.567 Y44.281 E24.71409
G1 X50.567 Y91.421 E26.41108
M204 S800
G1 X50.619 Y91.878 F9600.000
G1 E23.91108 F3600.00000
G92 E0
G1 X94.408 Y93.550 F9600.000
G1 E2.50000 F3600.00000
M204 S600
G1 F1200
G1 X95.821 Y92.137 E2.57211
G1 X95.330 Y92.137 E2.58983
G1 X93.917 Y93.550 E2.66194
G1 X93.426 Y93.550 E2.67966
G1 X94.839 Y92.137 E2.75177
G1 X94.348 Y92.137 E2.76948
G1 X92.935 Y93.550 E2.84159
G1 X92.444 Y93.550 E2.85931
G1 X93.857 Y92.137 E2.93142
G1 X93.366 Y92.137 E2.94914
G1 X91.953 Y93.550 E3.02125
G1 X91.462 Y93.550 E3.03897
G1 X92.875 Y92.137 E3.11108
G1 X92.384 Y92.137 E3.12879
G1 X90.971 Y93.550 E3.20090
G1 X90.480 Y93.550 E3.21862
G1 X91.893 Y92.137 E3.29073
G1 X91.402 Y92.137 E3.30845
G1 X89.989 Y93.550 E3.38056
G1 X89.498 Y93.550 E3.39828
G1 X90.911 Y92.137 E3.47039
G1 X90.420 Y92.137 E3.48810
G1 X89.007 Y93.550 E3.56022
G1 X88.516 Y93.550 E3.57793
G1 X89.929 Y92.137 E3.65004
G1 X89.438 Y92.137 E3.66776
G1 X88.025 Y93.550 E3.73987
G1 X87.534 Y93.550 E3.75759
G1 X88.947 Y92.137 E3.82970
G1 X88.456 Y92.137 E3.84741
G1 X87.043 Y93.550 E3.91953
G1 X86.552 Y93.550 E3.93724
G1 X87.965 Y92.137 E4.00935
G1 X87.475 Y92.137 E4.02707
G1 X86.061 Y93.550 E4.09918
G1 X85.570 Y93.550 E4.11690
G1 X86.984 Y92.137 E4.18901
G1 X86.493 Y92.137 E4.20672
G1 X85.079 Y93.550 E4.27884
G1 X84.589 Y93.550 E4.29655
G1 X86.002 Y92.137 E4.36866
G1 X85.511 Y92.137 E4.38638
G1 X84.098 Y93.550 E4.45849
G1 X83.607 Y93.550 E4.47621
G1 X85.020 Y92.137 E4.54832
G1 X84.529 Y92.137 E4.56604
G1 X83.116 Y93.550 E4.63815
G1 X82.625 Y93.550 E4.65586
G1 X84.038 Y92.137 E4.72797
G1 X83.547 Y92.137 E4.74569
G1 X82.134 Y93.550 E4.81780
G1 X81.643 Y93.550 E4.83552
G1 X83.056 Y92.137 E4.90763
G1 X82.565 Y92.137 E4.92535
G1 X81.152 Y93.550 E4.99746
G1 X80.661 Y93.550 E5.01517
G1 X82.074 Y92.137 E5.08728
G1 X81.583 Y92.137 E5.10500
G1 X80.170 Y93.550 E5.17711
G1 X79.679 Y93.550 E5.19483
G1 X81.092 Y92.137 E5.26694
G1 X80.601 Y92.137 E5.28466
G1 X79.188 Y93.550 E5.35677
G1 X78.697 Y93.550 E5.37448
G1 X80.110 Y92.137 E5.44660
G1 X79.619 Y92.137 E5.46431
G1 X78.206 Y93.550 E5.53642
G1 X77.715 Y93.550 E5.55414
G1 X79.128 Y92.137 E5.62625
G1 X78.637 Y92.137 E5.64397
G1 X77.224 Y93.550 E5.71608
G1 X76.733 Y93.550 E5.73379
G1 X78.146 Y92.137 E5.80591
G1 X77.655 Y92.137 E5.82362
G1 X76.242 Y93.550 E5.89573
G1 X75.751 Y93.550 E5.91345
G1 X77.164 Y92.137 E5.98556
G1 X76.673 Y92.137 E6.00328
G1 X75.260 Y93.550 E6.07539
G1 X74.769 Y93.550 E6.09310
G1 X76.182 Y92.137 E6.16522
G1 X75.691 Y92.137 E6.18293
G1 X74.278 Y93.550 E6.25504
G1 X73.787 Y93.550 E6.27276
G1 X75.200 Y92.137 E6.34487
G1 X74.709 Y92.137 E6.36259
G1 X73.296 Y93.550 E6.43470
G1 X72.805 Y93.550 E6.45241
G1 X74.218 Y92.137 E6.52453
G1 X73.727 Y92.137 E6.54224
G1 X72.314 Y93.550 E6.61435
G1 X71.823 Y93.550 E6.63207
G1 X73.236 Y92.137 E6.70418
G1 X72.746 Y92.137 E6.72190
G1 X71.332 Y93.550 E6.79401
G1 X70.841 Y93.550 E6.81173
G1 X72.255 Y92.137 E6.88384
G1 X71.764 Y92.137 E6.90155
G1 X70.350 Y93.550 E6.97366
G1 X69.860 Y93.550 E6.99138
G1 X71.273 Y92.137 E7.06349
G1 X70.782 Y92.137 E7.08121
G1 X69.369 Y93.550 E7.15332
G1 X68.878 Y93.550 E7.17104
G1 X70.291 Y92.137 E7.24315
G1 X69.800 Y92.137 E7.26086
G1 X68.387 Y93.550 E7.33298
G1 X67.896 Y93.550 E7.35069
G1 X69.309 Y92.137 E7.42280
G1 X68.818 Y92.137 E7.44052
G1 X67.405 Y93.550 E7.51263
G1 X66.914 Y93.550 E7.53035
G1 X68.327 Y92.137 E7.60246
G1 X67.836 Y92.137 E7.62017
G1 X66.423 Y93.550 E7.69229
G1 X65.932 Y93.550 E7.71000
G1 X67.345 Y92.137 E7.78211
G1 X66.854 Y92.137 E7.79983
G1 X65.441 Y93.550 E7.87194
G1 X64.950 Y93.550 E7.88966
G1 X66.363 Y92.137 E7.96177
G1 X65.872 Y92.137 E7.97948
G1 X64.459 Y93.550 E8.05160
G1 X63.968 Y93.550 E8.06931
G1 X65.381 Y92.137 E8.14142
G1 X64.890 Y92.137 E8.15914
G1 X63.477 Y93.550 E8.23125
G1 X62.986 Y93.550 E8.24897
G1 X64.399 Y92.137 E8.32108
G1 X63.908 Y92.137 E8.33879
G1 X62.495 Y93.550 E8.41091
G1 X62.004 Y93.550 E8.42862
G1 X63.417 Y92.137 E8.50073
G1 X62.926 Y92.137 E8.51845
G1 X61.513 Y93.550 E8.59056
G1 X61.022 Y93.550 E8.60828
G1 X62.435 Y92.137 E8.68039
G1 X61.944 Y92.137 E8.69811
G1 X60.531 Y93.550 E8.77022
G1 X60.040 Y93.550 E8.78793
G1 X61.453 Y92.137 E8.86004
G1 X60.962 Y92.137 E8.87776
G1 X59.549 Y93.550 E8.94987
G1 X59.058 Y93.550 E8.96759
G1 X60.471 Y92.137 E9.03970
G1 X59.980 Y92.137 E9.05742
G1 X58.567 Y93.550 E9.12953
G1 X58.076 Y93.550 E9.14724
G1 X59.489 Y92.137 E9.21935
G1 X58.998 Y92.137 E9.23707
G1 X57.585 Y93.550 E9.30918
G1 X57.094 Y93.550 E9.32690
G1 X58.507 Y92.137 E9.39901
G1 X58.017 Y92.137 E9.41673
G1 X56.603 Y93.550 E9.48884
G1 X56.112 Y93.550 E9.50655
G1 X57.526 Y92.137 E9.57867
G1 X57.035 Y92.137 E9.59638
G1 X55.621 Y93.550 E9.66849
G1 X55.130 Y93.550 E9.68621
G1 X56.544 Y92.137 E9.75832
G1 X56.053 Y92.137 E9.77604
G1 X54.640 Y93.550 E9.84815
G1 X54.149 Y93.550 E9.86586
G1 X55.562 Y92.137 E9.93798
G1 X55.071 Y92.137 E9.95569
G1 X53.658 Y93.550 E10.02780
G1 X53.167 Y93.550 E10.04552
G1 X54.580 Y92.137 E10.11763
G1 X54.089 Y92.137 E10.13535
G1 X52.676 Y93.550 E10.20746
G1 X52.185 Y93.550 E10.22517
G1 X53.598 Y92.137 E10.29729
G1 X53.107 Y92.137 E10.31500
G1 X51.694 Y93.550 E10.38711
G1 X51.203 Y93.550 E10.40483
G1 X52.616 Y92.137 E10.47694
G1 X52.125 Y92.137 E10.49466
G1 X50.712 Y93.550 E10.56677
G1 X50.221 Y93.550 E10.58448
G1 X51.634 Y92.137 E10.65660
G1 X51.143 Y92.137 E10.67431
G1 X49.730 Y93.550 E10.74642
G1 X49.239 Y93.550 E10.76414
G1 X50.652 Y92.137 E10.83625
G1 X50.161 Y92.137 E10.85397
G1 X48.821 Y93.477 E10.92236
G1 X48.691 Y93.116 E10.93620
G1 X49.911 Y91.896 E10.99845
G1 X49.911 Y91.405 E11.01617
G1 X48.561 Y92.755 E11.08505
G1 X48.431 Y92.394 E11.09890
G1 X49.911 Y90.914 E11.17442
G1 X49.911 Y90.423 E11.19214
G1 X48.301 Y92.033 E11.27429
G1 X48.171 Y91.672 E11.28813
G1 X49.911 Y89.933 E11.37692
G1 X49.911 Y89.442 E11.39464
G1 X48.041 Y91.312 E11.49006
G1 X47.911 Y90.951 E11.50391
G1 X49.911 Y88.951 E11.60597
G1 X49.911 Y88.460 E11.62368
G1 X47.781 Y90.590 E11.73237
G1 X47.651 Y90.229 E11.74622
G1 X49.911 Y87.969 E11.86154
G1 X49.911 Y87.478 E11.87926
G1 X47.521 Y89.868 E12.00122
G1 X47.391 Y89.507 E12.01506
G1 X49.911 Y86.987 E12.14366
G1 X49.911 Y86.496 E12.16137
G1 X47.261 Y89.146 E12.29660
G1 X47.131 Y88.785 E12.31045
G1 X49.911 Y86.005 E12.45231
G1 X49.911 Y85.514 E12.47003
G1 X47.001 Y88.424 E12.61852
G1 X46.871 Y88.063 E12.63237
G1 X49.911 Y85.023 E12.78750
G1 X49.911 Y84.532 E12.80522
G1 X46.741 Y87.702 E12.96698
G1 X46.611 Y87.341 E12.98083
G1 X49.911 Y84.041 E13.14923
G1 X49.911 Y83.550 E13.16694
G1 X46.481 Y86.980 E13.34198
G1 X46.351 Y86.619 E13.35582
G1 X49.911 Y83.059 E13.53749
G1 X49.911 Y82.568 E13.55521
G1 X46.221 Y86.258 E13.74351
G1 X46.091 Y85.897 E13.75735
G1 X49.911 Y82.077 E13.95229
G1 X49.911 Y81.586 E13.97001
G1 X45.961 Y85.536 E14.17158
G1 X45.831 Y85.175 E14.18542
G1 X49.911 Y81.095 E14.39363
G1 X49.911 Y80.604 E14.41134
G1 X45.701 Y84.814 E14.62618
G1 X45.571 Y84.453 E14.64003
G1 X49.911 Y80.113 E14.86150
G1 X49.911 Y79.622 E14.87922
G1 X45.441 Y84.092 E15.10733
G1 X45.311 Y83.731 E15.12117
G1 X49.911 Y79.131 E15.35591
G1 X49.911 Y78.640 E15.37363
G1 X45.181 Y83.370 E15.61501
G1 X45.051 Y83.009 E15.62885
G1 X49.911 Y78.149 E15.87686
G1 X49.911 Y77.658 E15.89458
G1 X44.921 Y82.648 E16.14922
G1 X44.791 Y82.287 E16.16307
G1 X49.911 Y77.167 E16.42435
G1 X49.911 Y76.676 E16.44206
G1 X44.661 Y81.927 E16.70998
G1 X44.531 Y81.566 E16.72382
G1 X49.911 Y76.185 E16.99837
G1 X49.911 Y75.694 E17.01609
G1 X44.401 Y81.205 E17.29727
G1 X44.271 Y80.844 E17.31111
G1 X49.911 Y75.204 E17.59893
G1 X49.911 Y74.713 E17.61665
G1 X44.141 Y80.483 E17.91110
G1 X44.011 Y80.122 E17.92494
G1 X49.911 Y74.222 E18.22603
G1 X49.911 Y73.731 E18.24374
G1 X43.881 Y79.761 E18.55146
G1 X43.751 Y79.400 E18.56531
G1 X49.911 Y73.240 E18.87966
G1 X49.911 Y72.749 E18.89738
G1 X43.621 Y79.039 E19.21836
G1 X43.491 Y78.678 E19.23221
G1 X49.911 Y72.258 E19.55983
G1 X49.911 Y71.767 E19.57755
G1 X43.361 Y78.317 E19.91180
G1 X43.231 Y77.956 E19.92565
G1 X49.911 Y71.276 E20.26654
G1 X49.911 Y70.785 E20.28425
G1 X43.101 Y77.595 E20.63178
G1 X42.971 Y77.234 E20.64562
G1 X49.911 Y70.294 E20.99978
G1 X49.911 Y69.803 E21.01750
G1 X42.841 Y76.873 E21.37829
G1 X42.711 Y76.512 E21.39214
G1 X49.911 Y69.312 E21.75956
G1 X49.911 Y68.821 E21.77728
G1 X42.581 Y76.151 E22.15134
G1 X42.451 Y75.790 E22.16519
G1 X49.911 Y68.330 E22.54588
G1 X49.911 Y67.839 E22.56360
G1 X42.321 Y75.429 E22.95093
G1 X42.191 Y75.068 E22.96477
G1 X49.911 Y67.348 E23.35874
G1 X49.911 Y66.857 E23.37645
G1 X42.061 Y74.707 E23.77705
G1 X41.931 Y74.346 E23.79090
G1 X49.911 Y66.366 E24.19813
G1 X49.911 Y65.875 E24.21585
G1 X41.801 Y73.985 E24.62972
G1 X41.671 Y73.624 E24.64356
G1 X49.911 Y65.384 E25.06406
G1 X49.911 Y64.893 E25.08178
G1 X41.541 Y73.263 E25.50891
G1 X41.411 Y72.903 E25.52276
G1 X49.911 Y64.402 E25.95653
G1 X49.911 Y63.911 E25.97424
G1 X41.280 Y72.542 E26.41465
