; generated by Slic3r 1.2.9 on 2017-04-28 at 17:25:32

; external perimeters extrusion width = 0.40mm
; perimeters extrusion width = 0.40mm
; infill extrusion width = 0.40mm
; solid infill extrusion width = 0.40mm
; top infill extrusion width = 0.40mm

M107
M190 S75 ; set bed temperature
M104 S235 ; set temperature
G28 ; home all axes
G1 Z5 F5000 ; lift nozzle

M109 S235 ; wait for temperature to be reached
G21 ; set units to millimeters
G90 ; use absolute coordinates
M82 ; use absolute distances for extrusion
G92 E0
G1 Z0.250 F7800.000
G1 E-3.00000 F2100.00000
G92 E0
G1 X62.950 Y72.335 F7800.000
G1 E3.00000 F2100.00000
M204 S600
G1 X63.719 Y71.757 E3.03465 F2400.000
G1 X64.359 Y71.317 E3.06260
G1 X65.175 Y70.807 E3.09725
G1 X65.851 Y70.425 E3.12519
G1 X66.708 Y69.986 E3.15984
G1 X67.414 Y69.663 E3.18780
G1 X68.305 Y69.300 E3.22244
G1 X69.036 Y69.038 E3.25040
G1 X69.955 Y68.753 E3.28505
G1 X70.706 Y68.555 E3.31299
G1 X71.646 Y68.350 E3.34764
G1 X72.411 Y68.217 E3.37558
G1 X73.366 Y68.093 E3.41023
G1 X74.139 Y68.027 E3.43817
G1 X75.489 Y67.977 E3.48681
G1 X76.459 Y67.985 E3.52173
G1 X77.377 Y68.022 E3.55481 F2400.000
G1 X78.116 Y68.083 E3.58149
G1 X79.027 Y68.196 E3.61455
G1 X79.759 Y68.317 E3.64124
G1 X80.658 Y68.504 E3.67430
G1 X81.376 Y68.684 E3.70098
G1 X82.257 Y68.944 E3.73404
G1 X82.959 Y69.183 E3.76072
G1 X83.815 Y69.514 E3.79378
G1 X84.495 Y69.810 E3.82046
G1 X85.322 Y70.210 E3.85352
G1 X87.535 Y71.725 E3.95006
G1 X89.207 Y73.821 E4.04660
G1 X90.189 Y76.316 E4.14313
G1 X90.420 Y78.254 E4.21336
G1 X90.658 Y101.822 E5.06183
G1 X90.658 Y121.655 E5.77580
G1 X90.260 Y124.307 E5.87233
G1 X89.102 Y126.725 E5.96887
G1 X87.285 Y128.698 E6.06541
G1 X85.560 Y129.790 E6.13890
G1 X84.733 Y130.190 E6.17196
G1 X84.054 Y130.485 E6.19863
G1 X83.197 Y130.817 E6.23171
G1 X82.496 Y131.056 E6.25838
G1 X81.615 Y131.316 E6.29145
G1 X80.896 Y131.496 E6.31813
G1 X79.997 Y131.683 E6.35119
G1 X79.266 Y131.804 E6.37785
G1 X78.354 Y131.917 E6.41094
G1 X77.615 Y131.978 E6.43762
G1 X76.698 Y132.015 E6.47068
G1 X75.727 Y132.023 E6.50562
G1 X74.377 Y131.973 E6.55424
G1 X73.604 Y131.907 E6.58220
G1 X72.649 Y131.783 E6.61684
G1 X71.884 Y131.650 E6.64479
G1 X70.944 Y131.445 E6.67943
G1 X70.193 Y131.247 E6.70739
G1 X69.274 Y130.962 E6.74203
G1 X68.543 Y130.700 E6.76999
G1 X67.652 Y130.337 E6.80463
G1 X66.946 Y130.014 E6.83258
G1 X66.089 Y129.575 E6.86724
G1 X65.414 Y129.193 E6.89516
G1 X64.597 Y128.683 E6.92982
G1 X63.957 Y128.243 E6.95778
G1 X63.188 Y127.665 E6.99242
G1 X61.307 Y125.754 E7.08895
G1 X60.070 Y123.374 E7.18549
G1 X59.580 Y120.531 E7.28936
G1 X59.342 Y96.963 E8.13782
G1 X59.342 Y79.561 E8.76429
G1 X59.740 Y76.909 E8.86082
G1 X60.898 Y74.490 E8.95736
G1 X62.908 Y72.379 E9.06230
M204 S1500
G1 X63.158 Y72.612 F7800.000
M204 S600
G1 X63.927 Y72.034 E9.09695 F2400.000
G1 X64.543 Y71.611 E9.12383
G1 X65.359 Y71.101 E9.15848
G1 X66.008 Y70.733 E9.18535
G1 X66.865 Y70.295 E9.22000
G1 X67.544 Y69.984 E9.24689
G1 X68.435 Y69.621 E9.28153
G1 X69.139 Y69.369 E9.30842
G1 X70.058 Y69.084 E9.34307
G1 X70.780 Y68.893 E9.36994
G1 X71.720 Y68.688 E9.40459
G1 X72.455 Y68.561 E9.43145
G1 X73.410 Y68.437 E9.46611
G1 X74.154 Y68.373 E9.49298
G1 X75.489 Y68.323 E9.54107
G1 X76.445 Y68.331 E9.57549
G1 X77.363 Y68.368 E9.60857 F2400.000
G1 X78.073 Y68.427 E9.63422
G1 X78.985 Y68.539 E9.66728
G1 X79.688 Y68.656 E9.69295
G1 X80.587 Y68.843 E9.72601
G1 X81.278 Y69.016 E9.75167
G1 X82.159 Y69.276 E9.78473
G1 X82.834 Y69.506 E9.81039
G1 X83.691 Y69.837 E9.84345
G1 X84.344 Y70.122 E9.86911
G1 X85.171 Y70.522 E9.90217
G1 X87.337 Y72.013 E9.99683
G1 X88.957 Y74.084 E10.09149
G1 X89.885 Y76.544 E10.18614
G1 X90.073 Y78.257 E10.24819
G1 X90.311 Y101.825 E11.09665
G1 X90.312 Y121.655 E11.81049
G1 X89.914 Y124.254 E11.90515
G1 X88.757 Y126.615 E11.99981
G1 X86.947 Y128.523 E12.09447
G1 X85.409 Y129.478 E12.15966
G1 X84.582 Y129.878 E12.19272
G1 X83.902 Y130.173 E12.21939
G1 X83.072 Y130.494 E12.25144
G1 X82.398 Y130.723 E12.27709
G1 X81.517 Y130.984 E12.31016
G1 X80.825 Y131.157 E12.33582
G1 X79.926 Y131.344 E12.36888
G1 X79.223 Y131.461 E12.39452
G1 X78.311 Y131.573 E12.42760
G1 X77.601 Y131.632 E12.45326
G1 X76.683 Y131.669 E12.48632
G1 X75.727 Y131.677 E12.52075
G1 X74.392 Y131.627 E12.56884
G1 X73.648 Y131.563 E12.59572
G1 X72.694 Y131.440 E12.63036
G1 X71.958 Y131.312 E12.65725
G1 X71.018 Y131.107 E12.69189
G1 X70.296 Y130.916 E12.71877
G1 X69.377 Y130.631 E12.75341
G1 X68.674 Y130.379 E12.78030
G1 X67.782 Y130.016 E12.81494
G1 X67.103 Y129.705 E12.84182
G1 X66.246 Y129.267 E12.87648
G1 X65.597 Y128.899 E12.90333
G1 X64.781 Y128.389 E12.93799
G1 X64.165 Y127.966 E12.96487
G1 X63.396 Y127.388 E12.99951
G1 X61.557 Y125.508 E13.09417
G1 X60.365 Y123.165 E13.18883
G1 X59.927 Y120.527 E13.28508
G1 X59.689 Y96.959 E14.13355
G1 X59.688 Y79.561 E14.75988
G1 X60.086 Y76.961 E14.85454
G1 X61.243 Y74.600 E14.94920
G1 X63.116 Y72.655 E15.04640
M204 S1500
G1 X63.366 Y72.889 F7800.000
M204 S600
G1 X64.135 Y72.311 E15.08106 F2400.000
G1 X64.726 Y71.905 E15.10686
G1 X65.542 Y71.395 E15.14151
G1 X66.166 Y71.041 E15.16731
G1 X67.023 Y70.603 E15.20196
G1 X67.675 Y70.304 E15.22778
G1 X68.566 Y69.941 E15.26242
G1 X69.241 Y69.700 E15.28823
G1 X70.161 Y69.415 E15.32288
G1 X70.853 Y69.232 E15.34868
G1 X71.794 Y69.027 E15.38333
G1 X72.500 Y68.904 E15.40913
G1 X73.455 Y68.780 E15.44378
G1 X74.169 Y68.719 E15.46958
G1 X75.489 Y68.670 E15.51714
G1 X76.431 Y68.677 E15.55104
G1 X77.349 Y68.714 E15.58412 F2400.000
G1 X78.031 Y68.770 E15.60876
G1 X78.942 Y68.883 E15.64182
G1 X79.618 Y68.995 E15.66646
G1 X80.517 Y69.182 E15.69952
G1 X81.180 Y69.349 E15.72415
G1 X82.061 Y69.609 E15.75722
G1 X82.709 Y69.829 E15.78185
G1 X83.566 Y70.160 E15.81491
G1 X84.193 Y70.433 E15.83955
G1 X85.020 Y70.834 E15.87261
G1 X87.137 Y72.301 E15.96536
G1 X88.706 Y74.345 E16.05810
G1 X89.577 Y76.769 E16.15084
G1 X89.727 Y78.261 E16.20480
G1 X89.965 Y101.829 E17.05327
G1 X89.965 Y121.655 E17.76698
G1 X89.568 Y124.200 E17.85973
G1 X88.413 Y126.503 E17.95247
G1 X86.611 Y128.344 E18.04521
G1 X85.258 Y129.166 E18.10220
G1 X84.431 Y129.567 E18.13526
G1 X83.777 Y129.850 E18.16091
G1 X82.947 Y130.171 E18.19296
G1 X82.300 Y130.391 E18.21758
G1 X81.418 Y130.651 E18.25066
G1 X80.755 Y130.818 E18.27529
G1 X79.856 Y131.005 E18.30835
G1 X79.181 Y131.117 E18.33297
G1 X78.269 Y131.230 E18.36605
G1 X77.587 Y131.286 E18.39069
G1 X76.669 Y131.323 E18.42375
G1 X75.727 Y131.330 E18.45767
G1 X74.407 Y131.281 E18.50522
G1 X73.693 Y131.220 E18.53103
G1 X72.738 Y131.096 E18.56567
G1 X72.032 Y130.973 E18.59149
G1 X71.092 Y130.768 E18.62613
G1 X70.398 Y130.585 E18.65194
G1 X69.479 Y130.300 E18.68658
G1 X68.804 Y130.059 E18.71239
G1 X67.913 Y129.696 E18.74704
G1 X67.261 Y129.397 E18.77285
G1 X66.404 Y128.959 E18.80750
G1 X65.781 Y128.605 E18.83329
G1 X64.965 Y128.095 E18.86794
G1 X64.373 Y127.689 E18.89376
G1 X63.604 Y127.111 E18.92840
G1 X61.808 Y125.264 E19.02114
G1 X60.661 Y122.957 E19.11388
G1 X60.273 Y120.524 E19.20259
G1 X60.035 Y96.956 E20.05105
G1 X60.035 Y79.561 E20.67726
G1 X60.432 Y77.015 E20.77000
G1 X61.587 Y74.712 E20.86274
G1 X63.324 Y72.932 E20.95228
M204 S1500
G1 E17.95228 F2100.00000
G92 E0
G1 X76.756 Y120.829 F7800.000
G1 E3.00000 F2100.00000
M204 S600
G1 X76.544 Y121.214 E3.01581 F2400.000
G1 X76.244 Y121.534 E3.03161
G1 X75.873 Y121.769 E3.04742
G1 X75.455 Y121.905 E3.06322
G1 X75.017 Y121.932 E3.07903
G1 X74.586 Y121.850 E3.09483
G1 X74.188 Y121.663 E3.11064
G1 X73.850 Y121.383 E3.12645
G1 X73.592 Y121.028 E3.14225
G1 X73.430 Y120.620 E3.15806
G1 X73.375 Y120.184 E3.17386
G1 X73.430 Y119.748 E3.18967
G1 X73.592 Y119.340 E3.20548
G1 X73.850 Y118.985 E3.22128
G1 X74.189 Y118.705 E3.23711
G1 X74.598 Y118.516 E3.25334
G1 X75.017 Y118.436 E3.26869 F2400.000
G1 X75.455 Y118.463 E3.28449
G1 X75.873 Y118.599 E3.30030
G1 X76.244 Y118.834 E3.31610
G1 X76.544 Y119.154 E3.33191
G1 X76.756 Y119.539 E3.34771
G1 X76.865 Y119.964 E3.36352
G1 X76.865 Y120.404 E3.37933
G1 X76.770 Y120.771 E3.39297
M204 S1500
G1 X76.991 Y121.152 F7800.000
G1 X80.577 Y111.784 F7800.000
M204 S600
G1 X78.152 Y115.984 E3.56756 F2400.000
G1 X73.302 Y115.984 E3.74214
G1 X70.877 Y111.784 E3.91673
G1 X73.302 Y107.584 E4.09131
G1 X78.152 Y107.584 E4.26590
G1 X80.547 Y111.732 E4.43832
M204 S1500
G1 X80.883 Y112.041 F7800.000
G1 X76.143 Y104.797 F7800.000
M204 S600
G1 X75.873 Y104.969 E4.44984 F2400.000
G1 X75.455 Y105.105 E4.46565
G1 X75.017 Y105.132 E4.48145
G1 X74.586 Y105.050 E4.49726
G1 X74.188 Y104.863 E4.51307
G1 X73.850 Y104.583 E4.52887
G1 X73.592 Y104.228 E4.54468
G1 X73.430 Y103.820 E4.56048
G1 X73.375 Y103.384 E4.57629
G1 X73.430 Y102.948 E4.59209
G1 X73.592 Y102.540 E4.60790
G1 X73.850 Y102.185 E4.62371
G1 X74.189 Y101.905 E4.63954
G1 X74.598 Y101.716 E4.65577
G1 X75.017 Y101.636 E4.67111 F2400.000
G1 X75.455 Y101.663 E4.68692
G1 X75.873 Y101.799 E4.70272
G1 X76.244 Y102.034 E4.71853
G1 X76.544 Y102.354 E4.73433
G1 X76.756 Y102.739 E4.75014
G1 X76.865 Y103.164 E4.76595
G1 X76.865 Y103.604 E4.78175
G1 X76.756 Y104.029 E4.79756
G1 X76.544 Y104.414 E4.81336
G1 X76.244 Y104.734 E4.82917
G1 X76.194 Y104.765 E4.83130
M204 S1500
G1 X76.156 Y105.117 F7800.000
G1 E1.83130 F2100.00000
G92 E0
G1 X73.102 Y116.330 F7800.000
G1 E3.00000 F2100.00000
M204 S600
G1 X78.352 Y116.330 E3.18898 F2400.000
G1 X80.919 Y111.884 E3.37379
G1 X81.073 Y111.926 E3.37953
G1 X81.073 Y121.312 E3.71744
G1 X80.575 Y121.554 E3.73737
G1 X79.760 Y121.869 E3.76882
G1 X78.922 Y122.116 E3.80026
G1 X78.067 Y122.294 E3.83171
G1 X77.200 Y122.401 E3.86316
G1 X76.316 Y122.438 E3.89501
G1 X75.518 Y122.428 E3.92374
G1 X75.494 Y122.256 E3.92999
G1 X76.021 Y122.085 E3.94995
G1 X76.466 Y121.803 E3.96891
G1 X76.826 Y121.419 E3.98786
G1 X77.080 Y120.957 E4.00682
G1 X77.211 Y120.447 E4.02578
G1 X77.211 Y119.921 E4.04473
G1 X77.080 Y119.411 E4.06369
G1 X76.826 Y118.949 E4.08264
G1 X76.466 Y118.565 E4.10160
G1 X76.021 Y118.283 E4.12056
G1 X75.521 Y118.121 E4.13951
G1 X74.995 Y118.087 E4.15847
G1 X74.492 Y118.183 E4.17691
G1 X74.003 Y118.409 E4.19629
G1 X73.596 Y118.746 E4.21532
G1 X73.286 Y119.172 E4.23428
G1 X73.092 Y119.662 E4.25323
G1 X73.026 Y120.184 E4.27219
G1 X73.092 Y120.706 E4.29115
G1 X73.286 Y121.196 E4.31010
G1 X73.596 Y121.622 E4.32906
G1 X74.001 Y121.958 E4.34801
G1 X74.465 Y122.176 E4.36644
G1 X74.415 Y122.346 E4.37284
G1 X73.905 Y122.280 E4.39135
G1 X73.011 Y122.085 E4.42429
G1 X72.136 Y121.814 E4.45724
G1 X71.289 Y121.469 E4.49019
G1 X70.474 Y121.052 E4.52314
G1 X69.698 Y120.567 E4.55609
G1 X69.165 Y120.167 E4.58006
G1 X69.165 Y103.401 E5.18360
G1 X69.698 Y103.001 E5.20757
G1 X70.474 Y102.516 E5.24052
G1 X71.289 Y102.099 E5.27347
G1 X72.136 Y101.754 E5.30642
G1 X73.011 Y101.483 E5.33936
G1 X73.905 Y101.288 E5.37231
G1 X74.424 Y101.221 E5.39115
G1 X74.473 Y101.392 E5.39757
G1 X74.003 Y101.609 E5.41622
G1 X73.596 Y101.946 E5.43525
G1 X73.286 Y102.372 E5.45420
G1 X73.092 Y102.862 E5.47316
G1 X73.026 Y103.384 E5.49212
G1 X73.092 Y103.906 E5.51107
G1 X73.286 Y104.396 E5.53003
G1 X73.596 Y104.822 E5.54898
G1 X74.001 Y105.158 E5.56794
G1 X74.478 Y105.382 E5.58690
G1 X74.995 Y105.481 E5.60585
G1 X75.521 Y105.447 E5.62481
G1 X76.021 Y105.285 E5.64376
G1 X76.466 Y105.003 E5.66272
G1 X76.826 Y104.619 E5.68168
G1 X77.080 Y104.157 E5.70063
G1 X77.211 Y103.647 E5.71959
G1 X77.211 Y103.121 E5.73854
G1 X77.080 Y102.611 E5.75750
G1 X76.826 Y102.149 E5.77646
G1 X76.466 Y101.765 E5.79541
G1 X76.021 Y101.483 E5.81437
G1 X75.494 Y101.312 E5.83432
G1 X75.518 Y101.140 E5.84058
G1 X76.344 Y101.132 E5.87032
G1 X77.200 Y101.167 E5.90116
G1 X78.067 Y101.274 E5.93261
G1 X78.922 Y101.452 E5.96405
G1 X79.760 Y101.699 E5.99550
G1 X80.575 Y102.014 E6.02695
G1 X81.073 Y102.256 E6.04687
G1 X81.073 Y111.642 E6.38479
G1 X80.919 Y111.684 E6.39053
G1 X78.352 Y107.238 E6.57534
G1 X73.102 Y107.238 E6.76432
G1 X70.477 Y111.784 E6.95330
G1 X73.072 Y116.278 E7.14012
M204 S1500
G1 X68.819 Y120.340 F7800.000
M204 S600
G1 X68.819 Y103.228 E7.75611 F2400.000
G1 X69.502 Y102.715 E7.78684
G1 X70.303 Y102.214 E7.82086
G1 X71.144 Y101.784 E7.85488
G1 X72.020 Y101.428 E7.88890
G1 X72.922 Y101.148 E7.92293
G1 X73.846 Y100.946 E7.95695
G1 X74.783 Y100.825 E7.99097
G1 X75.731 Y100.784 E8.02514
G1 X76.351 Y100.785 E8.04747
G1 X77.228 Y100.821 E8.07906
G1 X78.123 Y100.932 E8.11153
G1 X79.006 Y101.116 E8.14400
G1 X79.872 Y101.371 E8.17647
G1 X80.713 Y101.696 E8.20894
G1 X81.419 Y102.038 E8.23719
G1 X81.419 Y121.530 E8.93885
G1 X80.713 Y121.872 E8.96710
G1 X79.872 Y122.197 E8.99957
G1 X79.006 Y122.452 E9.03204
G1 X78.123 Y122.636 E9.06451
G1 X77.228 Y122.747 E9.09698
G1 X76.323 Y122.784 E9.12960
G1 X75.731 Y122.784 E9.15090
G1 X74.783 Y122.743 E9.18507
G1 X73.846 Y122.622 E9.21909
G1 X72.922 Y122.420 E9.25311
G1 X72.020 Y122.140 E9.28713
G1 X71.144 Y121.784 E9.32115
G1 X70.303 Y121.354 E9.35518
G1 X69.502 Y120.853 E9.38920
G1 X68.867 Y120.376 E9.41777
M204 S1500
G1 X69.088 Y120.044 F7800.000
G1 X69.634 Y120.194 F7800.000
M204 S600
G1 X69.366 Y119.926 E9.43163 F2400.000
G1 X69.366 Y119.428 E9.44987
G1 X70.973 Y121.035 E9.53310
M204 S1500
G1 X71.902 Y121.466 F7800.000
M204 S600
G1 X69.366 Y118.930 E9.66443 F2400.000
G1 X69.366 Y118.432 E9.68267
G1 X72.681 Y121.746 E9.85433
M204 S1500
G1 X73.374 Y121.941 F7800.000
M204 S600
G1 X69.366 Y117.933 E10.06187 F2400.000
G1 X69.366 Y117.435 E10.08011
G1 X72.975 Y121.044 E10.26700
G1 X72.843 Y120.413 E10.29060
G1 X69.366 Y116.937 E10.47064
G1 X69.366 Y116.439 E10.48888
G1 X72.864 Y119.936 E10.67001
G1 X72.953 Y119.527 E10.68534
G1 X69.366 Y115.940 E10.87108
G1 X69.366 Y115.442 E10.88932
G1 X73.094 Y119.170 E11.08239
G1 X73.293 Y118.870 E11.09555
G1 X69.366 Y114.944 E11.29890
G1 X69.366 Y114.446 E11.31714
G1 X73.513 Y118.592 E11.53189
G1 X73.786 Y118.367 E11.54485
G1 X69.366 Y113.947 E11.77372
G1 X69.366 Y113.449 E11.79197
G1 X74.091 Y118.174 E12.03664
G1 X74.432 Y118.016 E12.05039
G1 X69.366 Y112.951 E12.31271
G1 X69.366 Y112.453 E12.33096
G1 X72.232 Y115.318 E12.47937
M204 S1500
G1 X71.552 Y114.140 F7800.000
M204 S600
G1 X69.366 Y111.954 E12.59253 F2400.000
G1 X69.366 Y111.456 E12.61078
G1 X70.871 Y112.961 E12.68870
M204 S1500
G1 X70.246 Y111.837 F7800.000
M204 S600
G1 X69.366 Y110.958 E12.73424 F2400.000
G1 X69.366 Y110.460 E12.75248
G1 X70.428 Y111.521 E12.80747
G1 X70.610 Y111.205 E12.82082
G1 X69.366 Y109.961 E12.88525
G1 X69.366 Y109.463 E12.90349
G1 X70.793 Y110.890 E12.97737
G1 X70.975 Y110.574 E12.99072
G1 X69.366 Y108.965 E13.07404
G1 X69.366 Y108.467 E13.09229
G1 X71.158 Y110.258 E13.18505
G1 X71.340 Y109.942 E13.19840
G1 X69.366 Y107.968 E13.30061
G1 X69.366 Y107.470 E13.31885
G1 X71.522 Y109.626 E13.43050
G1 X71.705 Y109.310 E13.44386
G1 X69.366 Y106.972 E13.56495
G1 X69.366 Y106.474 E13.58320
G1 X71.887 Y108.994 E13.71374
G1 X72.069 Y108.678 E13.72709
G1 X69.366 Y105.975 E13.86708
G1 X69.366 Y105.477 E13.88532
G1 X72.252 Y108.363 E14.03475
G1 X72.434 Y108.047 E14.04810
G1 X69.366 Y104.979 E14.20697
G1 X69.366 Y104.481 E14.22522
G1 X72.616 Y107.731 E14.39354
G1 X72.799 Y107.415 E14.40689
G1 X69.366 Y103.982 E14.58465
G1 X69.372 Y103.489 E14.60270
G1 X72.981 Y107.099 E14.78963
G1 X73.417 Y107.037 E14.80575
G1 X69.640 Y103.259 E15.00137
G1 X69.935 Y103.057 E15.01450
G1 X73.915 Y107.037 E15.22061
G1 X74.414 Y107.037 E15.23885
G1 X70.242 Y102.865 E15.45488
G1 X70.550 Y102.674 E15.46814
G1 X74.912 Y107.037 E15.69404
G1 X75.410 Y107.037 E15.71229
G1 X70.879 Y102.506 E15.94692
G1 X71.209 Y102.337 E15.96048
G1 X72.895 Y104.023 E16.04778
G1 X72.824 Y103.454 E16.06879
G1 X71.554 Y102.184 E16.13453
G1 X71.908 Y102.040 E16.14853
G1 X72.880 Y103.011 E16.19884
G1 X72.993 Y102.626 E16.21353
G1 X72.270 Y101.904 E16.25096
G1 X72.650 Y101.786 E16.26554
G1 X73.142 Y102.278 E16.29102
G1 X73.352 Y101.989 E16.30408
G1 X73.032 Y101.670 E16.32063
M204 S1500
G1 E13.32063 F2100.00000
G92 E0
G1 X74.472 Y105.601 F7800.000
G1 E3.00000 F2100.00000
M204 S600
G1 X75.908 Y107.037 E3.07437 F2400.000
G1 X76.407 Y107.037 E3.09261
G1 X75.044 Y105.674 E3.16317
G1 X75.510 Y105.642 E3.18028
G1 X76.905 Y107.037 E3.25250
G1 X77.403 Y107.037 E3.27075
G1 X75.886 Y105.520 E3.34930
G1 X76.225 Y105.360 E3.36302
