; generated by Slic3r 1.2.9 on 2017-04-28 at 17:32:28

; external perimeters extrusion width = 0.40mm
; perimeters extrusion width = 0.40mm
; infill extrusion width = 0.40mm
; solid infill extrusion width = 0.40mm
; top infill extrusion width = 0.40mm

M107
M190 S75 ; set bed temperature
M104 S235 ; set temperature
G28 ; home all axes
G1 Z5 F5000 ; lift nozzle

M109 S235 ; wait for temperature to be reached
G21 ; set units to millimeters
G90 ; use absolute coordinates
M82 ; use absolute distances for extrusion
G92 E0
G1 Z0.250 F7800.000
G1 E-3.00000 F2100.00000
G92 E0
G1 X64.289 Y72.082 F7800.000
G1 E3.00000 F2100.00000
M204 S600
G1 X64.880 Y71.575 E3.02801 F2400.000
G1 X65.961 Y70.735 E3.07731
G1 X67.187 Y69.921 E3.13027
G1 X67.844 Y69.532 E3.15777
G1 X68.660 Y69.092 E3.19115
G1 X69.348 Y68.757 E3.21868
G1 X70.199 Y68.385 E3.25211
G1 X70.920 Y68.104 E3.27999
G1 X72.251 Y67.660 E3.33050
G1 X72.722 Y67.528 E3.34810
G1 X75.006 Y67.196 E3.43118
G1 X80.898 Y67.185 E3.64329
G1 X81.022 Y67.186 E3.64776 F2400.000
G1 X83.287 Y67.482 E3.72999
G1 X84.293 Y67.782 E3.76777
G1 X85.507 Y68.210 E3.81410
G1 X86.015 Y68.408 E3.83374
G1 X87.246 Y68.971 E3.88246
G1 X87.931 Y69.326 E3.91023
G1 X88.732 Y69.783 E3.94346
G1 X89.381 Y70.189 E3.97101
G1 X90.145 Y70.712 E4.00433
G1 X90.758 Y71.169 E4.03186
G1 X91.809 Y72.035 E4.08088
G1 X92.866 Y73.044 E4.13347
G1 X93.394 Y73.603 E4.16116
G1 X93.999 Y74.299 E4.19435
G1 X94.481 Y74.901 E4.22212
G1 X95.030 Y75.647 E4.25548
G1 X95.459 Y76.285 E4.28314
G1 X96.165 Y77.450 E4.33220
G1 X96.828 Y78.753 E4.38481
G1 X97.141 Y79.452 E4.41237
G1 X97.483 Y80.310 E4.44563
G1 X97.739 Y81.039 E4.47344
G1 X98.010 Y81.925 E4.50679
G1 X98.206 Y82.673 E4.53464
G1 X98.487 Y84.009 E4.58377
G1 X98.681 Y85.459 E4.63646
G1 X98.744 Y86.221 E4.66398
G1 X98.783 Y87.147 E4.69733
G1 X98.783 Y87.915 E4.72498
G1 X98.746 Y88.841 E4.75836
G1 X98.683 Y89.617 E4.78637
G1 X98.505 Y90.972 E4.83557
G1 X98.206 Y92.413 E4.88856
G1 X98.012 Y93.152 E4.91604
G1 X97.741 Y94.039 E4.94943
G1 X97.488 Y94.761 E4.97697
G1 X97.146 Y95.624 E5.01040
G1 X96.830 Y96.332 E5.03830
G1 X96.211 Y97.557 E5.08773
G1 X95.453 Y98.811 E5.14048
G1 X95.026 Y99.445 E5.16799
G1 X94.477 Y100.190 E5.20130
G1 X94.001 Y100.785 E5.22873
G1 X93.392 Y101.485 E5.26215
G1 X92.863 Y102.045 E5.28986
G1 X91.873 Y102.997 E5.33931
G1 X90.734 Y103.937 E5.39247
G1 X90.120 Y104.394 E5.42003
G1 X89.357 Y104.913 E5.45323
G1 X88.712 Y105.316 E5.48062
G1 X87.907 Y105.773 E5.51395
G1 X87.227 Y106.124 E5.54149
G1 X86.381 Y106.518 E5.57509
G1 X85.735 Y106.790 E5.60033
G1 X85.024 Y107.058 E5.62767
G1 X84.357 Y107.281 E5.65297
G1 X83.473 Y107.541 E5.68615
G1 X82.731 Y107.726 E5.71370
G1 X81.828 Y107.913 E5.74690
G1 X81.077 Y108.038 E5.77431
G1 X80.156 Y108.151 E5.80768
G1 X79.392 Y108.214 E5.83530
G1 X78.456 Y108.253 E5.86902
G1 X77.735 Y108.255 E5.89499
G1 X76.929 Y108.227 E5.92399
G1 X76.208 Y108.173 E5.95005
G1 X74.861 Y108.011 E5.99888
G1 X73.418 Y107.727 E6.05181
G1 X72.678 Y107.541 E6.07930
G1 X71.788 Y107.280 E6.11268
G1 X71.064 Y107.035 E6.14019
G1 X70.197 Y106.701 E6.17364
G1 X69.486 Y106.393 E6.20152
G1 X68.256 Y105.788 E6.25086
G1 X66.991 Y105.043 E6.30373
G1 X66.353 Y104.622 E6.33123
G1 X65.603 Y104.082 E6.36452
G1 X65.003 Y103.612 E6.39195
G1 X64.296 Y103.011 E6.42535
G1 X63.732 Y102.489 E6.45302
G1 X62.771 Y101.510 E6.50240
G1 X61.820 Y100.385 E6.55543
G1 X61.356 Y99.774 E6.58303
G1 X60.829 Y99.018 E6.61622
G1 X60.419 Y98.377 E6.64363
G1 X59.953 Y97.577 E6.67694
G1 X59.595 Y96.902 E6.70447
G1 X59.015 Y95.667 E6.75357
G1 X58.493 Y94.302 E6.80618
G1 X58.255 Y93.568 E6.83395
G1 X58.006 Y92.679 E6.86718
G1 X57.830 Y91.934 E6.89475
G1 X57.655 Y91.025 E6.92808
G1 X57.540 Y90.268 E6.95563
G1 X57.401 Y88.911 E7.00475
G1 X57.360 Y87.442 E7.05763
G1 X57.377 Y86.674 E7.08531
G1 X57.437 Y85.753 E7.11851
G1 X57.518 Y84.986 E7.14630
G1 X57.653 Y84.070 E7.17964
G1 X57.796 Y83.314 E7.20731
G1 X58.008 Y82.404 E7.24094
G1 X58.225 Y81.626 E7.27004
G1 X58.544 Y80.644 E7.30719
G1 X58.827 Y79.888 E7.33625
G1 X59.187 Y79.037 E7.36953
G1 X59.517 Y78.339 E7.39732
G1 X59.948 Y77.518 E7.43068
G1 X60.335 Y76.848 E7.45854
G1 X61.074 Y75.701 E7.50768
G1 X61.957 Y74.532 E7.56040
G1 X62.448 Y73.946 E7.58792
G1 X63.071 Y73.261 E7.62128
G1 X63.611 Y72.714 E7.64893
G1 X64.245 Y72.123 E7.68015
M204 S1500
G1 X64.525 Y72.335 F7800.000
M204 S600
G1 X65.094 Y71.847 E7.70712 F2400.000
G1 X66.163 Y71.016 E7.75585
G1 X67.376 Y70.212 E7.80824
G1 X68.008 Y69.837 E7.83472
G1 X68.825 Y69.397 E7.86810
G1 X69.487 Y69.075 E7.89461
G1 X70.337 Y68.702 E7.92804
G1 X71.033 Y68.431 E7.95490
G1 X72.347 Y67.993 E8.00478
G1 X72.814 Y67.862 E8.02222
G1 X75.013 Y67.542 E8.10224
G1 X80.895 Y67.531 E8.31398
G1 X81.019 Y67.532 E8.31845 F2400.000
G1 X83.203 Y67.818 E8.39774
G1 X84.188 Y68.112 E8.43474
G1 X85.390 Y68.536 E8.48061
G1 X85.883 Y68.729 E8.49968
G1 X87.099 Y69.285 E8.54782
G1 X87.759 Y69.626 E8.57457
G1 X88.561 Y70.084 E8.60779
G1 X89.186 Y70.475 E8.63433
G1 X89.949 Y70.998 E8.66765
G1 X90.540 Y71.438 E8.69416
G1 X91.579 Y72.293 E8.74262
G1 X92.624 Y73.292 E8.79464
G1 X93.133 Y73.830 E8.82131
G1 X93.738 Y74.526 E8.85450
G1 X94.202 Y75.106 E8.88124
G1 X94.751 Y75.853 E8.91460
G1 X95.164 Y76.466 E8.94124
G1 X95.863 Y77.618 E8.98973
G1 X96.518 Y78.907 E9.04178
G1 X96.819 Y79.580 E9.06832
G1 X97.161 Y80.438 E9.10157
G1 X97.408 Y81.140 E9.12837
G1 X97.679 Y82.026 E9.16171
G1 X97.867 Y82.747 E9.18853
G1 X98.145 Y84.067 E9.23710
G1 X98.337 Y85.502 E9.28922
G1 X98.398 Y86.235 E9.31572
G1 X98.437 Y87.161 E9.34908
G1 X98.437 Y87.901 E9.37570
G1 X98.400 Y88.827 E9.40908
G1 X98.339 Y89.574 E9.43606
G1 X98.164 Y90.913 E9.48468
G1 X97.867 Y92.339 E9.53710
G1 X97.681 Y93.050 E9.56357
G1 X97.410 Y93.938 E9.59696
G1 X97.166 Y94.633 E9.62348
G1 X96.824 Y95.496 E9.65691
G1 X96.520 Y96.178 E9.68378
G1 X95.908 Y97.389 E9.73262
G1 X95.159 Y98.630 E9.78481
G1 X94.747 Y99.239 E9.81130
G1 X94.198 Y99.985 E9.84461
G1 X93.740 Y100.558 E9.87103
G1 X93.130 Y101.258 E9.90444
G1 X92.621 Y101.797 E9.93114
G1 X91.643 Y102.738 E9.98000
G1 X90.516 Y103.668 E10.03258
G1 X89.924 Y104.107 E10.05913
G1 X89.162 Y104.627 E10.09233
G1 X88.541 Y105.015 E10.11871
G1 X87.736 Y105.472 E10.15204
G1 X87.081 Y105.810 E10.17856
G1 X86.235 Y106.204 E10.21216
G1 X85.612 Y106.465 E10.23647
G1 X84.902 Y106.734 E10.26381
G1 X84.260 Y106.949 E10.28818
G1 X83.376 Y107.208 E10.32135
G1 X82.661 Y107.387 E10.34789
G1 X81.758 Y107.574 E10.38108
G1 X81.034 Y107.694 E10.40748
G1 X80.114 Y107.808 E10.44086
G1 X79.378 Y107.868 E10.46745
G1 X78.442 Y107.907 E10.50117
G1 X77.747 Y107.909 E10.52619
G1 X76.942 Y107.880 E10.55519
G1 X76.247 Y107.829 E10.58028
G1 X74.916 Y107.669 E10.62854
G1 X73.489 Y107.388 E10.68090
G1 X72.775 Y107.209 E10.70738
G1 X71.886 Y106.948 E10.74076
G1 X71.188 Y106.711 E10.76726
G1 X70.321 Y106.378 E10.80070
G1 X69.637 Y106.081 E10.82755
G1 X68.421 Y105.484 E10.87631
G1 X67.170 Y104.746 E10.92860
G1 X66.556 Y104.341 E10.95509
G1 X65.805 Y103.801 E10.98839
G1 X65.227 Y103.348 E11.01480
G1 X64.521 Y102.747 E11.04820
G1 X63.977 Y102.244 E11.07485
G1 X63.027 Y101.277 E11.12365
G1 X62.087 Y100.164 E11.17610
G1 X61.640 Y99.576 E11.20269
G1 X61.113 Y98.820 E11.23588
G1 X60.718 Y98.202 E11.26227
G1 X60.252 Y97.403 E11.29559
G1 X59.907 Y96.752 E11.32210
G1 X59.334 Y95.532 E11.37062
G1 X58.818 Y94.182 E11.42267
G1 X58.588 Y93.475 E11.44941
G1 X58.340 Y92.586 E11.48264
G1 X58.170 Y91.868 E11.50919
G1 X57.995 Y90.959 E11.54252
G1 X57.884 Y90.230 E11.56905
G1 X57.746 Y88.889 E11.61760
G1 X57.706 Y87.436 E11.66992
G1 X57.723 Y86.696 E11.69657
G1 X57.782 Y85.776 E11.72977
G1 X57.861 Y85.036 E11.75653
G1 X57.996 Y84.120 E11.78987
G1 X58.134 Y83.393 E11.81652
G1 X58.345 Y82.483 E11.85016
G1 X58.554 Y81.733 E11.87818
G1 X58.873 Y80.752 E11.91533
G1 X59.146 Y80.023 E11.94331
G1 X59.506 Y79.172 E11.97660
G1 X59.824 Y78.500 E12.00336
G1 X60.254 Y77.679 E12.03672
G1 X60.627 Y77.034 E12.06356
G1 X61.358 Y75.900 E12.11212
G1 X62.231 Y74.744 E12.16428
G1 X62.704 Y74.179 E12.19078
G1 X63.328 Y73.494 E12.22414
G1 X63.847 Y72.967 E12.25077
G1 X64.481 Y72.376 E12.28198
M204 S1500
G1 X64.762 Y72.588 F7800.000
M204 S600
G1 X65.308 Y72.119 E12.30793 F2400.000
G1 X66.364 Y71.298 E12.35607
G1 X67.564 Y70.503 E12.40789
G1 X68.173 Y70.142 E12.43336
G1 X68.989 Y69.702 E12.46674
G1 X69.626 Y69.392 E12.49223
G1 X70.476 Y69.020 E12.52566
G1 X71.145 Y68.759 E12.55149
G1 X72.443 Y68.326 E12.60075
G1 X72.905 Y68.196 E12.61804
G1 X75.020 Y67.888 E12.69499
G1 X80.892 Y67.877 E12.90636
G1 X81.016 Y67.878 E12.91083 F2400.000
G1 X83.046 Y68.136 E12.98449
G1 X83.642 Y68.302 E13.00675
G1 X84.392 Y68.546 E13.03517
G1 X85.647 Y69.006 E13.08325
G1 X86.953 Y69.599 E13.13489
G1 X87.588 Y69.927 E13.16062
G1 X88.389 Y70.385 E13.19384
G1 X88.990 Y70.761 E13.21936
G1 X89.754 Y71.283 E13.25268
G1 X90.322 Y71.707 E13.27818
G1 X91.430 Y72.624 E13.32996
G1 X92.382 Y73.540 E13.37751
G1 X92.871 Y74.058 E13.40316
G1 X93.477 Y74.753 E13.43636
G1 X93.923 Y75.311 E13.46208
G1 X94.472 Y76.058 E13.49543
G1 X94.869 Y76.648 E13.52105
G1 X95.611 Y77.879 E13.57280
G1 X96.208 Y79.061 E13.62046
G1 X96.497 Y79.708 E13.64598
G1 X96.839 Y80.566 E13.67923
G1 X97.077 Y81.241 E13.70500
G1 X97.348 Y82.127 E13.73835
G1 X97.529 Y82.820 E13.76414
G1 X97.822 Y84.230 E13.81597
G1 X97.994 Y85.544 E13.86369
G1 X98.052 Y86.250 E13.88917
G1 X98.091 Y87.176 E13.92253
G1 X98.091 Y87.887 E13.94813
G1 X98.054 Y88.814 E13.98151
G1 X97.995 Y89.532 E14.00745
G1 X97.804 Y90.965 E14.05950
G1 X97.529 Y92.265 E14.10735
G1 X97.350 Y92.949 E14.13280
G1 X97.079 Y93.836 E14.16619
G1 X96.845 Y94.505 E14.19170
G1 X96.502 Y95.368 E14.22513
G1 X96.210 Y96.024 E14.25097
G1 X95.551 Y97.318 E14.30323
G1 X94.864 Y98.448 E14.35084
G1 X94.468 Y99.034 E14.37632
G1 X93.919 Y99.779 E14.40963
G1 X93.478 Y100.330 E14.43504
G1 X92.869 Y101.031 E14.46845
G1 X92.379 Y101.549 E14.49412
G1 X91.325 Y102.557 E14.54664
G1 X90.299 Y103.398 E14.59441
G1 X89.729 Y103.821 E14.61993
G1 X88.967 Y104.341 E14.65313
G1 X88.369 Y104.713 E14.67850
G1 X87.565 Y105.171 E14.71183
G1 X86.935 Y105.496 E14.73734
G1 X86.089 Y105.890 E14.77094
G1 X85.490 Y106.141 E14.79431
G1 X84.779 Y106.410 E14.82166
G1 X84.162 Y106.616 E14.84509
G1 X83.278 Y106.876 E14.87826
G1 X82.590 Y107.048 E14.90378
G1 X81.687 Y107.235 E14.93698
G1 X80.992 Y107.350 E14.96237
G1 X80.071 Y107.464 E14.99574
G1 X79.363 Y107.522 E15.02132
G1 X78.428 Y107.561 E15.05504
G1 X77.759 Y107.563 E15.07910
G1 X76.954 Y107.534 E15.10810
G1 X76.286 Y107.485 E15.13223
G1 X74.970 Y107.327 E15.17992
G1 X73.559 Y107.048 E15.23170
G1 X72.873 Y106.877 E15.25716
G1 X71.983 Y106.615 E15.29054
G1 X71.313 Y106.388 E15.31603
G1 X70.446 Y106.055 E15.34947
G1 X69.788 Y105.770 E15.37529
G1 X68.586 Y105.179 E15.42348
G1 X67.349 Y104.450 E15.47519
G1 X66.758 Y104.060 E15.50067
G1 X66.007 Y103.520 E15.53396
G1 X65.452 Y103.084 E15.55936
G1 X64.745 Y102.483 E15.59276
G1 X64.222 Y102.000 E15.61839
G1 X63.284 Y101.045 E15.66661
G1 X62.354 Y99.943 E15.71848
G1 X61.924 Y99.378 E15.74405
G1 X61.397 Y98.622 E15.77724
G1 X61.017 Y98.028 E15.80262
G1 X60.551 Y97.228 E15.83594
G1 X60.219 Y96.602 E15.86143
G1 X59.652 Y95.397 E15.90938
G1 X59.142 Y94.061 E15.96086
G1 X58.922 Y93.382 E15.98658
G1 X58.673 Y92.493 E16.01981
G1 X58.510 Y91.802 E16.04534
G1 X58.335 Y90.893 E16.07867
G1 X58.229 Y90.193 E16.10419
G1 X58.092 Y88.867 E16.15216
G1 X58.052 Y87.430 E16.20391
G1 X58.069 Y86.718 E16.22954
G1 X58.128 Y85.798 E16.26274
G1 X58.203 Y85.087 E16.28847
G1 X58.338 Y84.171 E16.32182
G1 X58.471 Y83.471 E16.34744
G1 X58.683 Y82.561 E16.38108
G1 X58.883 Y81.840 E16.40803
G1 X59.203 Y80.859 E16.44518
G1 X59.464 Y80.158 E16.47209
G1 X59.825 Y79.307 E16.50538
G1 X60.131 Y78.661 E16.53111
G1 X60.561 Y77.840 E16.56447
G1 X60.920 Y77.219 E16.59028
G1 X61.642 Y76.099 E16.63827
G1 X62.506 Y74.955 E16.68986
G1 X62.960 Y74.412 E16.71535
G1 X63.584 Y73.727 E16.74871
G1 X64.084 Y73.221 E16.77432
G1 X64.718 Y72.629 E16.80553
M204 S1500
G1 X64.998 Y72.841 F7800.000
M204 S600
G1 X65.523 Y72.391 E16.83044 F2400.000
G1 X66.566 Y71.580 E16.87801
G1 X67.753 Y70.793 E16.92926
G1 X68.337 Y70.447 E16.95371
G1 X69.153 Y70.007 E16.98709
G1 X69.765 Y69.709 E17.01157
G1 X70.615 Y69.337 E17.04500
G1 X71.257 Y69.087 E17.06980
G1 X72.539 Y68.659 E17.11843
G1 X72.997 Y68.530 E17.13556
G1 X75.028 Y68.235 E17.20945
G1 X80.889 Y68.224 E17.42046
G1 X81.013 Y68.225 E17.42493 F2400.000
G1 X82.962 Y68.472 E17.49565
G1 X83.537 Y68.632 E17.51713
G1 X84.276 Y68.872 E17.54508
G1 X85.515 Y69.326 E17.59259
G1 X86.806 Y69.913 E17.64366
G1 X87.416 Y70.228 E17.66836
G1 X88.217 Y70.685 E17.70158
G1 X88.794 Y71.047 E17.72608
G1 X89.558 Y71.569 E17.75940
G1 X90.103 Y71.976 E17.78388
G1 X91.200 Y72.883 E17.83510
G1 X92.140 Y73.788 E17.88209
G1 X92.610 Y74.285 E17.90671
G1 X93.215 Y74.981 E17.93991
G1 X93.644 Y75.516 E17.96460
G1 X94.193 Y76.263 E17.99796
G1 X94.574 Y76.830 E18.02256
G1 X95.308 Y78.047 E18.07374
G1 X95.898 Y79.215 E18.12082
G1 X96.175 Y79.836 E18.14533
G1 X96.518 Y80.695 E18.17859
G1 X96.746 Y81.343 E18.20332
G1 X97.017 Y82.229 E18.23667
G1 X97.191 Y82.894 E18.26143
G1 X97.480 Y84.288 E18.31269
G1 X97.650 Y85.587 E18.35985
G1 X97.706 Y86.264 E18.38431
G1 X97.745 Y87.190 E18.41767
G1 X97.745 Y87.873 E18.44226
G1 X97.708 Y88.800 E18.47563
G1 X97.652 Y89.489 E18.50054
G1 X97.462 Y90.906 E18.55201
G1 X97.190 Y92.191 E18.59929
G1 X97.019 Y92.848 E18.62373
G1 X96.748 Y93.735 E18.65712
G1 X96.523 Y94.377 E18.68161
G1 X96.180 Y95.240 E18.71504
G1 X95.899 Y95.870 E18.73985
G1 X95.248 Y97.149 E18.79153
G1 X94.569 Y98.266 E18.83857
G1 X94.189 Y98.829 E18.86303
G1 X93.640 Y99.574 E18.89635
G1 X93.217 Y100.103 E18.92074
G1 X92.608 Y100.803 E18.95415
G1 X92.138 Y101.301 E18.97880
G1 X91.095 Y102.298 E19.03074
G1 X90.081 Y103.129 E19.07792
G1 X89.534 Y103.535 E19.10243
G1 X88.772 Y104.054 E19.13563
G1 X88.198 Y104.412 E19.15999
G1 X87.393 Y104.870 E19.19332
G1 X86.789 Y105.182 E19.21781
G1 X85.942 Y105.576 E19.25141
G1 X85.368 Y105.817 E19.27385
G1 X84.657 Y106.085 E19.30120
G1 X84.064 Y106.284 E19.32370
G1 X83.180 Y106.544 E19.35687
G1 X82.520 Y106.709 E19.38137
G1 X81.617 Y106.896 E19.41457
G1 X80.949 Y107.006 E19.43894
G1 X80.029 Y107.120 E19.47232
G1 X79.349 Y107.176 E19.49688
G1 X78.413 Y107.215 E19.53060
G1 X77.771 Y107.217 E19.55370
G1 X76.966 Y107.188 E19.58270
G1 X76.325 Y107.141 E19.60587
G1 X75.025 Y106.985 E19.65298
G1 X73.629 Y106.709 E19.70420
G1 X72.971 Y106.544 E19.72864
G1 X72.081 Y106.283 E19.76202
G1 X71.437 Y106.065 E19.78649
G1 X70.570 Y105.731 E19.81994
G1 X69.938 Y105.458 E19.84473
G1 X68.751 Y104.874 E19.89233
G1 X67.527 Y104.153 E19.94347
G1 X66.960 Y103.779 E19.96793
G1 X66.210 Y103.239 E20.00123
G1 X65.676 Y102.821 E20.02562
G1 X64.970 Y102.219 E20.05902
G1 X64.468 Y101.755 E20.08362
G1 X63.540 Y100.812 E20.13127
G1 X62.621 Y99.723 E20.18256
G1 X62.208 Y99.180 E20.20711
G1 X61.681 Y98.424 E20.24030
G1 X61.316 Y97.853 E20.26466
G1 X60.850 Y97.054 E20.29798
G1 X60.532 Y96.453 E20.32246
G1 X59.971 Y95.262 E20.36984
G1 X59.467 Y93.941 E20.42075
G1 X59.255 Y93.288 E20.44544
G1 X59.007 Y92.399 E20.47867
G1 X58.850 Y91.737 E20.50319
G1 X58.675 Y90.828 E20.53652
G1 X58.573 Y90.155 E20.56101
G1 X58.438 Y88.845 E20.60842
G1 X58.399 Y87.424 E20.65959
G1 X58.414 Y86.740 E20.68421
G1 X58.474 Y85.820 E20.71740
G1 X58.546 Y85.138 E20.74211
G1 X58.681 Y84.221 E20.77545
G1 X58.808 Y83.550 E20.80006
G1 X59.020 Y82.640 E20.83369
G1 X59.213 Y81.947 E20.85957
G1 X59.532 Y80.966 E20.89672
G1 X59.783 Y80.293 E20.92256
G1 X60.144 Y79.442 E20.95585
G1 X60.437 Y78.822 E20.98055
G1 X60.868 Y78.001 E21.01392
G1 X61.212 Y77.405 E21.03870
G1 X61.925 Y76.297 E21.08612
G1 X62.780 Y75.167 E21.13714
G1 X63.217 Y74.645 E21.16161
G1 X63.840 Y73.960 E21.19497
G1 X64.320 Y73.474 E21.21956
G1 X64.954 Y72.882 E21.25077
M204 S1500
G1 E18.25077 F2100.00000
G92 E0
G1 X75.207 Y88.610 F7800.000
G1 E3.00000 F2100.00000
M204 S600
G1 X78.895 Y88.610 E3.13275 F2400.000
G1 X79.197 Y88.586 E3.14366
G1 X79.512 Y88.510 E3.15534
G1 X79.812 Y88.386 E3.16702
G1 X80.089 Y88.216 E3.17870
G1 X80.335 Y88.006 E3.19038
G1 X80.546 Y87.759 E3.20206
