; generated by Slic3r 1.2.9 on 2017-04-28 at 17:26:57

; external perimeters extrusion width = 0.40mm
; perimeters extrusion width = 0.40mm
; infill extrusion width = 0.40mm
; solid infill extrusion width = 0.40mm
; top infill extrusion width = 0.40mm

M107
M190 S75 ; set bed temperature
M104 S235 ; set temperature
G28 ; home all axes
G1 Z5 F5000 ; lift nozzle

M109 S235 ; wait for temperature to be reached
G21 ; set units to millimeters
G90 ; use absolute coordinates
M82 ; use absolute distances for extrusion
G92 E0
G1 Z0.250 F7800.000
G1 E-3.00000 F2100.00000
G92 E0
G1 X51.717 Y81.378 F7800.000
G1 E3.00000 F2100.00000
M204 S600
G1 X52.398 Y80.985 E3.02830 F2400.000
G1 X53.544 Y80.388 E3.07480
G1 X54.261 Y80.054 E3.10328
G1 X55.527 Y79.533 E3.15256
G1 X56.151 Y79.311 E3.17642
G1 X57.580 Y78.871 E3.23026
G1 X59.150 Y78.506 E3.28826
G1 X60.196 Y78.324 E3.32650
G1 X61.497 Y78.161 E3.37370
G1 X62.546 Y78.089 E3.41153
G1 X63.325 Y78.065 E3.43962
G1 X98.369 Y77.389 E4.70138
G1 X99.245 Y77.415 E4.73293 F2400.000
G1 X100.293 Y77.487 E4.77075
G1 X101.594 Y77.650 E4.81795
G1 X102.641 Y77.832 E4.85620
G1 X104.210 Y78.197 E4.91419
G1 X105.640 Y78.637 E4.96804
G1 X106.264 Y78.859 E4.99190
G1 X107.530 Y79.380 E5.04118
G1 X108.247 Y79.714 E5.06965
G1 X109.392 Y80.311 E5.11615
G1 X110.073 Y80.704 E5.14445
G1 X111.224 Y81.443 E5.19368
G1 X111.782 Y81.842 E5.21838
G1 X113.057 Y82.842 E5.27672
G1 X114.392 Y84.066 E5.34190
G1 X115.774 Y85.564 E5.41527
G1 X116.956 Y87.085 E5.48462
G1 X117.298 Y87.583 E5.50636
G1 X118.118 Y88.892 E5.56198
G1 X118.849 Y90.278 E5.61838
G1 X119.216 Y91.062 E5.64954
G1 X119.682 Y92.185 E5.69331
G1 X119.967 Y92.968 E5.72332
G1 X120.326 Y94.103 E5.76616
G1 X120.531 Y94.868 E5.79466
G1 X120.765 Y95.927 E5.83372
G1 X120.908 Y96.716 E5.86260
G1 X121.113 Y98.302 E5.92016
G1 X121.206 Y100.101 E5.98500
G1 X121.205 Y100.848 E6.01189
G1 X121.156 Y102.019 E6.05410
G1 X121.085 Y102.829 E6.08337
G1 X120.930 Y104.001 E6.12591
G1 X120.826 Y104.616 E6.14838
G1 X120.394 Y106.504 E6.21810
G1 X119.783 Y108.417 E6.29038
G1 X119.231 Y109.770 E6.34297
G1 X118.927 Y110.428 E6.36907
G1 X118.187 Y111.839 E6.42645
G1 X117.276 Y113.293 E6.48821
G1 X116.834 Y113.926 E6.51602
G1 X115.898 Y115.143 E6.57127
G1 X115.513 Y115.592 E6.59257
G1 X114.790 Y116.381 E6.63109
G1 X114.304 Y116.875 E6.65604
G1 X113.314 Y117.788 E6.70452
G1 X112.706 Y118.298 E6.73308
G1 X111.683 Y119.081 E6.77946
G1 X110.986 Y119.566 E6.81003
G1 X109.692 Y120.379 E6.86503
G1 X108.362 Y121.083 E6.91920
G1 X107.454 Y121.506 E6.95527
G1 X106.481 Y121.910 E6.99319
G1 X105.864 Y122.139 E7.01689
G1 X104.576 Y122.548 E7.06552
G1 X103.962 Y122.718 E7.08845
G1 X102.527 Y123.043 E7.14144
G1 X101.733 Y123.183 E7.17046
G1 X100.504 Y123.342 E7.21508
G1 X99.904 Y123.399 E7.23678
G1 X98.437 Y123.462 E7.28965
G1 X63.862 Y124.136 E8.53453
G1 X62.494 Y124.111 E8.58377
G1 X61.287 Y124.016 E8.62738
G1 X60.058 Y123.857 E8.67200
G1 X59.362 Y123.739 E8.69740
G1 X58.057 Y123.452 E8.74549
G1 X57.295 Y123.248 E8.77388
G1 X55.927 Y122.813 E8.82557
G1 X55.310 Y122.584 E8.84927
G1 X54.336 Y122.180 E8.88720
G1 X53.428 Y121.757 E8.92327
G1 X52.487 Y121.268 E8.96144
G1 X51.727 Y120.828 E8.99308
G1 X50.700 Y120.173 E9.03689
G1 X50.107 Y119.755 E9.06301
G1 X49.085 Y118.972 E9.10939
G1 X48.477 Y118.462 E9.13795
G1 X47.360 Y117.426 E9.19280
G1 X46.278 Y116.266 E9.24990
G1 X45.892 Y115.817 E9.27119
G1 X44.957 Y114.600 E9.32645
G1 X44.514 Y113.967 E9.35425
G1 X43.583 Y112.477 E9.41752
G1 X42.863 Y111.102 E9.47340
G1 X42.559 Y110.444 E9.49949
G1 X42.144 Y109.441 E9.53854
G1 X41.837 Y108.596 E9.57092
G1 X41.396 Y107.178 E9.62437
G1 X41.010 Y105.507 E9.68612
G1 X40.861 Y104.675 E9.71655
G1 X40.705 Y103.503 E9.75909
G1 X40.635 Y102.693 E9.78837
G1 X40.585 Y101.522 E9.83057
G1 X40.585 Y100.775 E9.85746
G1 X40.676 Y98.999 E9.92146
G1 X40.882 Y97.390 E9.97986
G1 X41.025 Y96.601 E10.00874
G1 X41.260 Y95.542 E10.04781
G1 X41.465 Y94.777 E10.07630
G1 X41.823 Y93.642 E10.11915
G1 X42.108 Y92.859 E10.14916
G1 X42.763 Y91.313 E10.20959
G1 X43.467 Y89.942 E10.26506
G1 X43.913 Y89.168 E10.29722
G1 X44.493 Y88.257 E10.33610
G1 X44.834 Y87.759 E10.35784
G1 X45.679 Y86.652 E10.40797
G1 X46.255 Y85.968 E10.44017
G1 X47.398 Y84.740 E10.50057
G1 X48.641 Y83.596 E10.56135
G1 X49.165 Y83.163 E10.58584
G1 X50.338 Y82.274 E10.63882
G1 X51.667 Y81.411 E10.69586
M204 S1500
G1 X51.903 Y81.671 F7800.000
M204 S600
G1 X52.558 Y81.292 E10.72308 F2400.000
G1 X53.704 Y80.696 E10.76958
G1 X54.393 Y80.374 E10.79696
G1 X55.655 Y79.855 E10.84607
G1 X56.255 Y79.641 E10.86901
G1 X57.674 Y79.204 E10.92247
G1 X59.225 Y78.844 E10.97976
G1 X60.241 Y78.667 E11.01692
G1 X61.533 Y78.505 E11.06378
G1 X62.561 Y78.435 E11.10086
G1 X63.333 Y78.412 E11.12868
G1 X98.365 Y77.735 E12.39001
G1 X99.230 Y77.761 E12.42117 F2400.000
G1 X100.257 Y77.831 E12.45825
G1 X101.549 Y77.993 E12.50511
G1 X102.566 Y78.170 E12.54226
G1 X104.116 Y78.530 E12.59956
G1 X105.536 Y78.967 E12.65302
G1 X106.136 Y79.181 E12.67596
G1 X107.397 Y79.700 E12.72507
G1 X108.087 Y80.022 E12.75245
G1 X109.232 Y80.618 E12.79895
G1 X109.887 Y80.997 E12.82617
G1 X111.028 Y81.729 E12.87499
G1 X111.571 Y82.117 E12.89901
G1 X112.830 Y83.103 E12.95658
G1 X114.150 Y84.313 E13.02104
G1 X115.512 Y85.791 E13.09337
G1 X116.677 Y87.290 E13.16173
G1 X117.005 Y87.769 E13.18264
G1 X117.816 Y89.063 E13.23761
G1 X118.542 Y90.438 E13.29357
G1 X118.896 Y91.195 E13.32365
G1 X119.362 Y92.317 E13.36742
G1 X119.637 Y93.072 E13.39633
G1 X119.995 Y94.207 E13.43918
G1 X120.192 Y94.943 E13.46658
G1 X120.427 Y96.002 E13.50565
G1 X120.565 Y96.764 E13.53353
G1 X120.768 Y98.336 E13.59059
G1 X120.860 Y100.112 E13.65462
G1 X120.859 Y100.833 E13.68058
G1 X120.810 Y102.005 E13.72278
G1 X120.742 Y102.784 E13.75093
G1 X120.586 Y103.955 E13.79348
G1 X120.487 Y104.547 E13.81508
G1 X120.061 Y106.410 E13.88387
G1 X119.458 Y108.298 E13.95521
G1 X118.911 Y109.637 E14.00728
G1 X118.619 Y110.270 E14.03238
G1 X117.885 Y111.669 E14.08927
G1 X116.984 Y113.107 E14.15034
G1 X116.558 Y113.716 E14.17709
G1 X115.629 Y114.925 E14.23198
G1 X115.258 Y115.358 E14.25253
G1 X114.535 Y116.147 E14.29105
G1 X114.062 Y116.627 E14.31528
G1 X113.080 Y117.532 E14.36339
G1 X112.495 Y118.023 E14.39086
G1 X111.472 Y118.807 E14.43724
G1 X110.800 Y119.274 E14.46673
G1 X109.517 Y120.080 E14.52126
G1 X108.203 Y120.776 E14.57481
G1 X107.322 Y121.186 E14.60979
G1 X106.348 Y121.590 E14.64771
G1 X105.755 Y121.810 E14.67051
G1 X104.472 Y122.217 E14.71896
G1 X103.882 Y122.381 E14.74101
G1 X102.452 Y122.705 E14.79378
G1 X101.688 Y122.839 E14.82169
G1 X100.459 Y122.998 E14.86631
G1 X99.882 Y123.054 E14.88718
G1 X98.430 Y123.116 E14.93951
G1 X63.855 Y123.790 E16.18440
G1 X62.816 Y123.778 E16.22181
G1 X61.908 Y123.728 E16.25454
G1 X61.331 Y123.672 E16.27541
G1 X60.102 Y123.513 E16.32002
G1 X59.433 Y123.400 E16.34446
G1 X58.132 Y123.114 E16.39240
G1 X57.399 Y122.918 E16.41970
G1 X56.036 Y122.484 E16.47122
G1 X55.442 Y122.264 E16.49402
G1 X54.469 Y121.860 E16.53194
G1 X53.588 Y121.450 E16.56692
G1 X52.647 Y120.960 E16.60510
G1 X51.913 Y120.536 E16.63565
G1 X50.888 Y119.882 E16.67938
G1 X50.318 Y119.481 E16.70449
G1 X49.296 Y118.697 E16.75087
G1 X48.711 Y118.206 E16.77834
G1 X47.602 Y117.177 E16.83281
G1 X46.533 Y116.032 E16.88920
G1 X46.161 Y115.599 E16.90975
G1 X45.232 Y114.390 E16.96464
G1 X44.806 Y113.781 E16.99138
G1 X43.885 Y112.307 E17.05396
G1 X43.172 Y110.944 E17.10935
G1 X42.879 Y110.311 E17.13444
G1 X42.464 Y109.309 E17.17349
G1 X42.167 Y108.492 E17.20478
G1 X41.729 Y107.084 E17.25786
G1 X41.348 Y105.432 E17.31888
G1 X41.204 Y104.629 E17.34825
G1 X41.049 Y103.458 E17.39079
G1 X40.981 Y102.679 E17.41894
G1 X40.931 Y101.507 E17.46115
G1 X40.931 Y100.786 E17.48711
G1 X41.020 Y99.033 E17.55030
G1 X41.225 Y97.438 E17.60820
G1 X41.363 Y96.676 E17.63608
G1 X41.598 Y95.617 E17.67514
G1 X41.795 Y94.881 E17.70255
G1 X42.153 Y93.746 E17.74539
G1 X42.428 Y92.991 E17.77431
G1 X43.075 Y91.462 E17.83410
G1 X43.774 Y90.102 E17.88913
G1 X44.205 Y89.354 E17.92020
G1 X44.785 Y88.443 E17.95909
G1 X45.113 Y87.964 E17.97999
G1 X45.954 Y86.863 E18.02987
G1 X46.511 Y86.201 E18.06099
G1 X47.640 Y84.987 E18.12069
G1 X48.868 Y83.858 E18.18076
G1 X49.376 Y83.438 E18.20447
G1 X50.537 Y82.558 E18.25689
G1 X51.853 Y81.703 E18.31340
M204 S1500
G1 X52.090 Y81.963 F7800.000
M204 S600
G1 X52.718 Y81.600 E18.33954 F2400.000
G1 X53.864 Y81.003 E18.38604
G1 X54.526 Y80.694 E18.41233
G1 X55.783 Y80.177 E18.46126
G1 X56.359 Y79.971 E18.48329
G1 X57.768 Y79.538 E18.53636
G1 X59.300 Y79.182 E18.59296
G1 X60.287 Y79.011 E18.62903
G1 X61.569 Y78.850 E18.67554
G1 X62.576 Y78.781 E18.71188
G1 X63.341 Y78.758 E18.73943
G1 X98.360 Y78.082 E20.00032
G1 X99.215 Y78.107 E20.03110 F2400.000
G1 X100.222 Y78.176 E20.06743
G1 X101.504 Y78.337 E20.11395
G1 X102.491 Y78.508 E20.15002
G1 X104.023 Y78.864 E20.20662
G1 X105.431 Y79.297 E20.25968
G1 X106.008 Y79.503 E20.28171
G1 X107.265 Y80.020 E20.33065
G1 X107.927 Y80.329 E20.35694
G1 X109.072 Y80.926 E20.40344
G1 X109.701 Y81.289 E20.42958
G1 X110.937 Y82.086 E20.48254
G1 X112.204 Y83.038 E20.53957
G1 X112.603 Y83.365 E20.55813
G1 X113.908 Y84.561 E20.62186
G1 X115.250 Y86.017 E20.69316
G1 X116.398 Y87.495 E20.76053
G1 X116.713 Y87.955 E20.78061
G1 X117.515 Y89.234 E20.83494
G1 X118.235 Y90.598 E20.89045
G1 X118.576 Y91.327 E20.91945
G1 X119.042 Y92.450 E20.96321
G1 X119.307 Y93.177 E20.99104
G1 X119.665 Y94.312 E21.03389
G1 X119.854 Y95.017 E21.06020
G1 X120.089 Y96.077 E21.09926
G1 X120.222 Y96.812 E21.12614
G1 X120.423 Y98.370 E21.18271
G1 X120.514 Y100.124 E21.24592
G1 X120.513 Y100.819 E21.27095
G1 X120.464 Y101.990 E21.31315
G1 X120.399 Y102.738 E21.34018
G1 X120.243 Y103.910 E21.38273
G1 X120.148 Y104.478 E21.40347
G1 X119.728 Y106.316 E21.47132
G1 X119.133 Y108.179 E21.54173
G1 X118.591 Y109.505 E21.59328
G1 X118.311 Y110.112 E21.61738
G1 X117.583 Y111.500 E21.67379
G1 X116.692 Y112.921 E21.73417
G1 X116.283 Y113.506 E21.75984
G1 X115.360 Y114.707 E21.81437
G1 X115.002 Y115.124 E21.83418
G1 X114.279 Y115.913 E21.87270
G1 X113.821 Y116.379 E21.89622
G1 X112.846 Y117.277 E21.94395
G1 X112.284 Y117.748 E21.97032
G1 X111.262 Y118.532 E22.01671
G1 X110.614 Y118.982 E22.04512
G1 X109.342 Y119.781 E22.09917
G1 X108.043 Y120.469 E22.15210
G1 X107.189 Y120.866 E22.18600
G1 X106.216 Y121.270 E22.22392
G1 X105.646 Y121.482 E22.24581
G1 X104.368 Y121.887 E22.29408
G1 X103.801 Y122.044 E22.31525
G1 X102.377 Y122.367 E22.36782
G1 X101.644 Y122.496 E22.39462
G1 X100.415 Y122.655 E22.43923
G1 X99.861 Y122.708 E22.45927
G1 X98.439 Y122.770 E22.51048
G1 X63.848 Y123.444 E23.75596
G1 X62.825 Y123.432 E23.79280
G1 X61.930 Y123.382 E23.82508
G1 X61.376 Y123.329 E23.84511
G1 X60.147 Y123.170 E23.88973
G1 X59.504 Y123.061 E23.91319
G1 X58.207 Y122.776 E23.96100
G1 X57.504 Y122.587 E23.98721
G1 X56.144 Y122.156 E24.03855
G1 X55.575 Y121.944 E24.06044
G1 X54.601 Y121.540 E24.09836
G1 X53.748 Y121.143 E24.13226
G1 X52.807 Y120.653 E24.17043
G1 X52.099 Y120.243 E24.19989
G1 X51.076 Y119.591 E24.24354
G1 X50.529 Y119.206 E24.26766
G1 X49.506 Y118.422 E24.31404
G1 X48.945 Y117.951 E24.34041
G1 X47.843 Y116.929 E24.39450
G1 X46.788 Y115.798 E24.45018
G1 X46.430 Y115.381 E24.46999
G1 X45.507 Y114.180 E24.52451
G1 X45.098 Y113.595 E24.55019
G1 X44.187 Y112.137 E24.61208
G1 X43.480 Y110.786 E24.66698
G1 X43.199 Y110.179 E24.69107
G1 X42.784 Y109.176 E24.73012
G1 X42.497 Y108.388 E24.76032
G1 X42.063 Y106.990 E24.81304
G1 X41.686 Y105.358 E24.87333
G1 X41.548 Y104.584 E24.90163
G1 X41.392 Y103.412 E24.94418
G1 X41.327 Y102.664 E24.97120
G1 X41.278 Y101.493 E25.01341
G1 X41.277 Y100.798 E25.03844
G1 X41.365 Y99.067 E25.10081
G1 X41.568 Y97.486 E25.15822
G1 X41.701 Y96.751 E25.18509
G1 X41.936 Y95.692 E25.22416
G1 X42.125 Y94.986 E25.25047
G1 X42.484 Y93.851 E25.29332
G1 X42.748 Y93.124 E25.32114
G1 X43.388 Y91.611 E25.38030
G1 X44.081 Y90.262 E25.43488
G1 X44.497 Y89.540 E25.46487
G1 X45.392 Y88.169 E25.52382
G1 X46.229 Y87.073 E25.57344
G1 X46.766 Y86.435 E25.60347
G1 X47.883 Y85.235 E25.66250
G1 X48.937 Y84.261 E25.71417
G1 X49.587 Y83.712 E25.74478
G1 X50.735 Y82.842 E25.79663
G1 X52.039 Y81.995 E25.85262
M204 S1500
G1 E22.85262 F2100.00000
G92 E0
G1 X69.218 Y109.980 F7800.000
G1 E3.00000 F2100.00000
M204 S600
G1 X58.723 Y110.399 E3.37812 F2400.000
G1 X53.113 Y101.519 E3.75623
G1 X57.998 Y92.221 E4.13435
G1 X68.493 Y91.802 E4.51246
G1 X74.103 Y100.682 E4.89058
G1 X69.246 Y109.927 E5.26654
M204 S1500
G1 X69.004 Y109.642 F7800.000
M204 S600
G1 X58.909 Y110.045 E5.63026 F2400.000
G1 X53.512 Y101.503 E5.99398
G1 X58.211 Y92.559 E6.35769
G1 X68.307 Y92.156 E6.72141
G1 X73.704 Y100.698 E7.08513
G1 X69.032 Y109.589 E7.44669
M204 S1500
G1 X68.951 Y110.039 F7800.000
G1 X70.787 Y112.456 F7800.000
M204 S600
G1 X70.283 Y112.775 E7.46816 F2400.000
G1 X69.191 Y113.333 E7.51231
G1 X68.260 Y113.719 E7.54861
G1 X67.140 Y114.073 E7.59087
G1 X65.900 Y114.354 E7.63665
G1 X64.715 Y114.508 E7.67968
G1 X64.150 Y114.543 E7.70004
G1 X63.546 Y114.553 E7.72181
G1 X62.496 Y114.507 E7.75963
G1 X61.311 Y114.353 E7.80264
G1 X60.155 Y114.099 E7.84526
G1 X58.958 Y113.720 E7.89047
G1 X58.025 Y113.333 E7.92683
G1 X56.932 Y112.775 E7.97099
G1 X55.919 Y112.133 E8.01417
G1 X54.936 Y111.379 E8.05877
G1 X54.052 Y110.563 E8.10208
G1 X53.361 Y109.808 E8.13892
G1 X52.585 Y108.796 E8.18483
G1 X51.937 Y107.776 E8.22833
G1 X51.406 Y106.754 E8.26980
G1 X51.009 Y105.795 E8.30716
G1 X50.621 Y104.572 E8.35335
G1 X50.360 Y103.390 E8.39690
G1 X50.211 Y102.266 E8.43772
G1 X50.163 Y101.143 E8.47821
G1 X50.216 Y99.931 E8.52185
G1 X50.374 Y98.727 E8.56560
G1 X50.613 Y97.639 E8.60567
G1 X50.971 Y96.511 E8.64829
G1 X51.419 Y95.432 E8.69034
G1 X52.010 Y94.298 E8.73637
G1 X52.565 Y93.427 E8.77355
G1 X53.270 Y92.505 E8.81534
G1 X54.106 Y91.588 E8.86002
G1 X55.017 Y90.755 E8.90448
G1 X55.979 Y90.029 E8.94784
G1 X56.848 Y89.475 E8.98492
G1 X57.951 Y88.901 E9.02970
G1 X58.914 Y88.502 E9.06725
G1 X60.170 Y88.100 E9.11468
G1 X61.202 Y87.869 E9.15279
G1 X62.483 Y87.696 E9.19932
G1 X63.160 Y87.657 E9.22373
G1 X63.785 Y87.649 E9.24621
G1 X64.737 Y87.696 E9.28053
G1 X65.749 Y87.825 E9.31726 F2400.000
G1 X66.972 Y88.081 E9.36223
G1 X68.162 Y88.446 E9.40706
G1 X69.265 Y88.901 E9.45001
G1 X70.367 Y89.475 E9.49472
G1 X71.390 Y90.134 E9.53853
G1 X72.197 Y90.753 E9.57514
G1 X73.110 Y91.588 E9.61967
G1 X73.946 Y92.505 E9.66435
G1 X74.651 Y93.427 E9.70614
G1 X75.206 Y94.298 E9.74333
G1 X75.797 Y95.432 E9.78935
G1 X76.245 Y96.511 E9.83140
G1 X76.603 Y97.639 E9.87402
G1 X76.842 Y98.727 E9.91409
G1 X77.000 Y99.931 E9.95784
G1 X77.052 Y101.143 E10.00149
G1 X77.005 Y102.266 E10.04197
G1 X76.856 Y103.390 E10.08279
G1 X76.595 Y104.572 E10.12635
G1 X76.207 Y105.795 E10.17254
G1 X75.810 Y106.754 E10.20989
G1 X75.278 Y107.776 E10.25136
G1 X74.631 Y108.796 E10.29486
G1 X73.855 Y109.808 E10.34078
G1 X73.163 Y110.563 E10.37762
G1 X72.280 Y111.379 E10.42093
G1 X71.297 Y112.133 E10.46553
G1 X70.838 Y112.424 E10.48508
M204 S1500
G1 X70.973 Y112.748 F7800.000
M204 S600
G1 X70.455 Y113.076 E10.50712 F2400.000
G1 X69.337 Y113.648 E10.55235
G1 X68.379 Y114.045 E10.58968
G1 X67.231 Y114.408 E10.63300
G1 X65.961 Y114.695 E10.67989
G1 X64.748 Y114.853 E10.72393
G1 X64.164 Y114.889 E10.74498
G1 X63.541 Y114.900 E10.76741
G1 X62.466 Y114.852 E10.80614
G1 X61.253 Y114.695 E10.85017
G1 X60.065 Y114.434 E10.89396
G1 X58.838 Y114.045 E10.94031
G1 X57.879 Y113.648 E10.97766
G1 X56.760 Y113.076 E11.02289
G1 X55.721 Y112.417 E11.06720
G1 X54.713 Y111.644 E11.11293
G1 X53.807 Y110.807 E11.15733
G1 X53.095 Y110.031 E11.19524
G1 X52.301 Y108.994 E11.24225
G1 X51.637 Y107.949 E11.28684
G1 X51.092 Y106.900 E11.32939
G1 X50.683 Y105.914 E11.36782
G1 X50.286 Y104.662 E11.41511
G1 X50.018 Y103.451 E11.45975
G1 X49.865 Y102.296 E11.50167
G1 X49.817 Y101.143 E11.54324
G1 X49.871 Y99.901 E11.58797
G1 X50.033 Y98.667 E11.63279
G1 X50.278 Y97.550 E11.67396
G1 X50.645 Y96.392 E11.71769
G1 X51.104 Y95.285 E11.76083
G1 X51.709 Y94.125 E11.80793
G1 X52.280 Y93.228 E11.84620
G1 X53.004 Y92.283 E11.88906
G1 X53.861 Y91.343 E11.93484
G1 X54.796 Y90.488 E11.98045
G1 X55.781 Y89.744 E12.02489
