; generated by Slic3r 1.2.9 on 2017-04-28 at 17:28:19

; external perimeters extrusion width = 0.40mm
; perimeters extrusion width = 0.40mm
; infill extrusion width = 0.40mm
; solid infill extrusion width = 0.40mm
; top infill extrusion width = 0.40mm

M107
M190 S75 ; set bed temperature
M104 S235 ; set temperature
G28 ; home all axes
G1 Z5 F5000 ; lift nozzle

M109 S235 ; wait for temperature to be reached
G21 ; set units to millimeters
G90 ; use absolute coordinates
M82 ; use absolute distances for extrusion
G92 E0
G1 Z0.250 F7800.000
G1 E-3.00000 F2100.00000
G92 E0
G1 X50.704 Y56.014 F7800.000
G1 E3.00000 F2100.00000
M204 S600
G1 X52.884 Y54.452 E3.09654 F2400.000
G1 X55.426 Y53.599 E3.19307
G1 X57.000 Y53.461 E3.24994
G1 X89.096 Y53.461 E4.40538
G1 X91.748 Y53.859 E4.50192
G1 X94.047 Y54.937 E4.59331 F2400.000
G1 X96.048 Y56.722 E4.68984
G1 X97.438 Y59.016 E4.78638
G1 X98.093 Y61.616 E4.88292
G1 X98.119 Y63.064 E4.93504
G1 X94.367 Y123.175 E7.10318
G1 X93.287 Y138.069 E7.64077
G1 X93.018 Y139.724 E7.70113
G1 X91.980 Y142.197 E7.79766
G1 X90.262 Y144.256 E7.89420
G1 X88.015 Y145.720 E7.99074
G1 X84.257 Y146.539 E8.12922
G1 X64.000 Y146.539 E8.85844
G1 X61.348 Y146.141 E8.95497
G1 X58.929 Y144.983 E9.05151
G1 X56.957 Y143.166 E9.14805
G1 X55.605 Y140.850 E9.24458
G1 X55.000 Y138.340 E9.33753
G1 X48.000 Y63.340 E12.04919
G1 X48.150 Y60.663 E12.14572
G1 X49.078 Y58.147 E12.24226
G1 X50.668 Y56.062 E12.33663
M204 S1500
G1 X50.991 Y56.240 F7800.000
M204 S600
G1 X51.056 Y56.157 E12.34044 F2400.000
G1 X53.225 Y54.670 E12.43509
G1 X57.000 Y53.807 E12.57449
G1 X89.096 Y53.807 E13.72993
G1 X91.696 Y54.205 E13.82459
G1 X93.857 Y55.227 E13.91065 F2400.000
G1 X95.814 Y56.983 E14.00531
G1 X97.157 Y59.244 E14.09997
G1 X97.773 Y63.042 E14.23849
G1 X94.020 Y123.180 E16.40761
G1 X92.942 Y138.041 E16.94399
G1 X92.682 Y139.639 E17.00226
G1 X91.657 Y142.060 E17.09692
G1 X89.955 Y144.065 E17.19157
G1 X87.731 Y145.468 E17.28623
G1 X84.257 Y146.193 E17.41401
G1 X64.000 Y146.193 E18.14322
G1 X61.401 Y145.795 E18.23788
G1 X59.039 Y144.638 E18.33254
G1 X57.132 Y142.828 E18.42720
G1 X55.853 Y140.531 E18.52186
G1 X55.345 Y138.308 E18.60395
G1 X48.345 Y63.308 E21.31560
G1 X48.499 Y60.683 E21.41026
G1 X49.432 Y58.224 E21.50492
G1 X50.954 Y56.287 E21.59361
M204 S1500
G1 X51.274 Y56.469 F7800.000
M204 S600
G1 X51.408 Y56.304 E21.60129 F2400.000
G1 X53.564 Y54.893 E21.69404
G1 X57.000 Y54.154 E21.82055
G1 X89.096 Y54.154 E22.97598
G1 X91.642 Y54.551 E23.06873
G1 X93.668 Y55.517 E23.14950 F2400.000
G1 X95.580 Y57.243 E23.24225
G1 X96.874 Y59.470 E23.33499
G1 X97.427 Y63.020 E23.46432
G1 X93.674 Y123.158 E25.63341
G1 X92.596 Y138.013 E26.16959
G1 X92.346 Y139.554 E26.22578
G1 X91.335 Y141.923 E26.31852
G1 X89.649 Y143.871 E26.41126
G1 X87.449 Y145.212 E26.50400
G1 X84.257 Y145.846 E26.62117
G1 X64.000 Y145.846 E27.35038
G1 X61.455 Y145.449 E27.44312
G1 X59.152 Y144.294 E27.53587
G1 X57.311 Y142.492 E27.62861
G1 X56.107 Y140.214 E27.72135
G1 X55.690 Y138.276 E27.79272
G1 X48.690 Y63.276 E30.50437
G1 X48.849 Y60.704 E30.59711
G1 X49.785 Y58.304 E30.68986
G1 X51.236 Y56.516 E30.77276
M204 S1500
G1 E27.77276 F2100.00000
G92 E0
G1 X81.725 Y130.423 F7800.000
G1 E3.00000 F2100.00000
M204 S600
G1 X81.829 Y130.967 E3.01994 F2400.000
G1 X81.789 Y131.531 E3.04030
G1 X81.624 Y132.040 E3.05956
G1 X81.328 Y132.506 E3.07942
G1 X80.926 Y132.883 E3.09928
G1 X80.442 Y133.149 E3.11914
G1 X79.908 Y133.286 E3.13899
G1 X79.357 Y133.286 E3.15885
G1 X78.822 Y133.149 E3.17871
G1 X78.339 Y132.883 E3.19857
G1 X77.937 Y132.506 E3.21843
G1 X77.650 Y132.054 E3.23769
G1 X77.470 Y131.515 E3.25813
G1 X77.439 Y130.948 E3.27857
G1 X77.539 Y130.423 E3.29783
G1 X77.774 Y129.924 E3.31769
G1 X78.126 Y129.499 E3.33755
G1 X78.574 Y129.173 E3.35749
G1 X79.102 Y128.969 E3.37785
G1 X79.632 Y128.902 E3.39711 F2400.000
G1 X80.180 Y128.971 E3.41696
G1 X80.693 Y129.174 E3.43682
G1 X81.141 Y129.500 E3.45676
G1 X81.498 Y129.939 E3.47712
G1 X81.700 Y130.369 E3.49422
M204 S1500
G1 X81.393 Y130.531 F7800.000
M204 S600
G1 X81.480 Y130.987 E3.51096 F2400.000
G1 X81.446 Y131.464 E3.52817
G1 X81.308 Y131.891 E3.54433
G1 X81.059 Y132.283 E3.56104
G1 X80.721 Y132.601 E3.57775
G1 X80.314 Y132.824 E3.59446
G1 X79.864 Y132.940 E3.61116
G1 X79.400 Y132.940 E3.62787
G1 X78.951 Y132.824 E3.64458
G1 X78.544 Y132.601 E3.66129
G1 X78.206 Y132.283 E3.67800
G1 X77.965 Y131.904 E3.69416
G1 X77.813 Y131.450 E3.71140
G1 X77.787 Y130.972 E3.72864
G1 X77.871 Y130.531 E3.74480
G1 X78.069 Y130.111 E3.76151
G1 X78.365 Y129.753 E3.77822
G1 X78.741 Y129.480 E3.79495
G1 X79.187 Y129.308 E3.81216
G1 X79.632 Y129.251 E3.82832 F2400.000
G1 X80.093 Y129.309 E3.84503
G1 X80.524 Y129.480 E3.86174
G1 X80.901 Y129.754 E3.87848
G1 X81.202 Y130.124 E3.89569
G1 X81.368 Y130.476 E3.90969
M204 S1500
G1 X81.781 Y130.630 F7800.000
G1 E0.90969 F2100.00000
G92 E0
G1 X72.771 Y130.967 F7800.000
G1 E3.00000 F2100.00000
M204 S600
G1 X72.731 Y131.531 E3.02036 F2400.000
G1 X72.566 Y132.040 E3.03962
G1 X72.270 Y132.506 E3.05948
G1 X71.868 Y132.883 E3.07933
G1 X71.385 Y133.149 E3.09919
G1 X70.850 Y133.286 E3.11905
G1 X70.299 Y133.286 E3.13891
G1 X69.765 Y133.149 E3.15877
G1 X69.281 Y132.883 E3.17863
G1 X68.879 Y132.506 E3.19849
G1 X68.583 Y132.040 E3.21834
G1 X68.413 Y131.515 E3.23820
G1 X68.378 Y130.965 E3.25806
G1 X68.482 Y130.423 E3.27792
G1 X68.717 Y129.924 E3.29778
G1 X69.068 Y129.499 E3.31764
G1 X69.516 Y129.173 E3.33758
G1 X70.044 Y128.969 E3.35793
G1 X70.575 Y128.902 E3.37719 F2400.000
G1 X71.122 Y128.971 E3.39705
G1 X71.635 Y129.174 E3.41691
G1 X72.081 Y129.499 E3.43677
G1 X72.433 Y129.924 E3.45663
G1 X72.668 Y130.423 E3.47649
G1 X72.760 Y130.908 E3.49427
M204 S1500
G1 X72.423 Y130.987 F7800.000
M204 S600
G1 X72.389 Y131.464 E3.51148 F2400.000
G1 X72.250 Y131.891 E3.52764
G1 X72.001 Y132.283 E3.54435
G1 X71.663 Y132.601 E3.56106
G1 X71.256 Y132.824 E3.57776
G1 X70.807 Y132.940 E3.59447
G1 X70.343 Y132.940 E3.61118
G1 X69.893 Y132.824 E3.62789
G1 X69.486 Y132.601 E3.64460
G1 X69.148 Y132.283 E3.66130
G1 X68.899 Y131.891 E3.67801
G1 X68.756 Y131.450 E3.69472
G1 X68.727 Y130.987 E3.71143
G1 X68.814 Y130.531 E3.72814
G1 X69.011 Y130.111 E3.74485
G1 X69.307 Y129.753 E3.76155
G1 X69.683 Y129.480 E3.77829
G1 X70.129 Y129.308 E3.79550
G1 X70.575 Y129.251 E3.81166 F2400.000
G1 X71.035 Y129.309 E3.82837
G1 X71.467 Y129.480 E3.84508
G1 X71.842 Y129.753 E3.86179
G1 X72.138 Y130.111 E3.87850
G1 X72.336 Y130.531 E3.89520
G1 X72.412 Y130.929 E3.90978
M204 S1500
G1 X72.772 Y131.182 F7800.000
G1 E0.90978 F2100.00000
G92 E0
G1 X64.498 Y136.954 F7800.000
G1 E3.00000 F2100.00000
M204 S600
G1 X63.819 Y129.678 E3.26307 F2400.000
G1 X63.854 Y128.051 E3.32164
G1 X64.252 Y126.506 E3.37907
G1 X65.006 Y125.064 E3.43764
G1 X82.879 Y98.775 E4.58204
G1 X83.614 Y97.600 E4.63189
G1 X84.261 Y96.364 E4.68212
G1 X84.812 Y95.082 E4.73235
G1 X85.263 Y93.762 E4.78258
G1 X85.612 Y92.411 E4.83281
G1 X85.856 Y91.037 E4.88304
G1 X85.995 Y89.649 E4.93327
G1 X86.027 Y88.254 E4.98350
G1 X85.953 Y86.861 E5.03373
G1 X85.772 Y85.477 E5.08396
G1 X85.486 Y84.111 E5.13419
G1 X85.096 Y82.772 E5.18442
G1 X84.606 Y81.465 E5.23465
G1 X84.016 Y80.201 E5.28488
G1 X83.332 Y78.985 E5.33511
G1 X82.557 Y77.824 E5.38533
G1 X81.695 Y76.727 E5.43556
G1 X80.752 Y75.699 E5.48580
G1 X79.728 Y74.741 E5.53627
G1 X78.652 Y73.878 E5.58591
G1 X77.480 Y73.078 E5.63698
G1 X76.281 Y72.388 E5.68682
G1 X75.021 Y71.786 E5.73707
G1 X73.736 Y71.288 E5.78669
G1 X62.853 Y67.545 E6.20100
G1 X61.767 Y67.087 E6.24342
G1 X60.768 Y66.496 E6.28518
G1 X59.859 Y65.776 E6.32694
G1 X59.055 Y64.940 E6.36870
G1 X58.372 Y64.002 E6.41046
G1 X57.856 Y63.046 E6.44957
G1 X88.511 Y63.047 E7.55311
G1 X87.379 Y78.906 E8.12546
G1 X85.673 Y108.236 E9.18309
G1 X84.800 Y122.575 E9.70025
G1 X83.749 Y136.954 E10.21924
G1 X64.558 Y136.954 E10.91010
M204 S1500
G1 X64.182 Y137.300 F7800.000
M204 S600
G1 X63.472 Y129.690 E11.18525 F2400.000
G1 X63.509 Y128.003 E11.24597
G1 X63.927 Y126.381 E11.30628
G1 X64.709 Y124.886 E11.36701
G1 X82.589 Y98.585 E12.51189
G1 X83.313 Y97.428 E12.56103
G1 X83.948 Y96.215 E12.61030
G1 X84.488 Y94.958 E12.65958
G1 X84.931 Y93.662 E12.70885
G1 X85.273 Y92.337 E12.75813
G1 X85.513 Y90.990 E12.80740
G1 X85.649 Y89.628 E12.85668
G1 X85.681 Y88.259 E12.90595
G1 X85.608 Y86.892 E12.95523
G1 X85.430 Y85.535 E13.00450
G1 X85.150 Y84.195 E13.05378
G1 X84.768 Y82.881 E13.10305
G1 X84.286 Y81.600 E13.15233
G1 X83.708 Y80.359 E13.20160
G1 X83.037 Y79.166 E13.25088
G1 X82.276 Y78.028 E13.30015
G1 X81.431 Y76.951 E13.34943
G1 X80.506 Y75.942 E13.39870
G1 X79.501 Y75.003 E13.44822
G1 X78.446 Y74.157 E13.49691
G1 X77.296 Y73.372 E13.54702
G1 X76.119 Y72.695 E13.59590
G1 X74.884 Y72.104 E13.64520
G1 X73.617 Y71.614 E13.69411
G1 X62.729 Y67.869 E14.10860
G1 X61.611 Y67.397 E14.15229
G1 X60.572 Y66.782 E14.19574
G1 X59.626 Y66.033 E14.23920
G1 X58.789 Y65.163 E14.28265
G1 X58.078 Y64.188 E14.32610
G1 X57.502 Y63.119 E14.36979
G1 X57.311 Y62.700 E14.38638
G1 X88.882 Y62.700 E15.52292
G1 X87.725 Y78.928 E16.10858
G1 X86.019 Y108.256 E17.16614
G1 X85.146 Y122.598 E17.68340
G1 X84.071 Y137.300 E18.21406
G1 X64.242 Y137.300 E18.92786
M204 S1500
G1 X64.360 Y136.942 F7800.000
G1 X64.859 Y136.753 F7800.000
M204 S600
G1 X64.670 Y136.564 E18.93752 F2400.000
G1 X64.620 Y136.021 E18.95721
G1 X65.351 Y136.753 E18.99460
G1 X65.843 Y136.753 E19.01238
G1 X64.569 Y135.479 E19.07749
G1 X64.518 Y134.936 E19.09718
G1 X66.335 Y136.753 E19.19003
G1 X66.826 Y136.753 E19.20780
G1 X64.468 Y134.394 E19.32837
G1 X64.417 Y133.852 E19.34806
G1 X67.318 Y136.753 E19.49636
G1 X67.810 Y136.753 E19.51414
G1 X64.367 Y133.309 E19.69016
G1 X64.316 Y132.767 E19.70985
G1 X68.302 Y136.753 E19.91361
G1 X68.794 Y136.753 E19.93138
G1 X64.265 Y132.224 E20.16286
G1 X64.215 Y131.682 E20.18256
G1 X69.286 Y136.753 E20.44176
G1 X69.777 Y136.753 E20.45954
G1 X64.164 Y131.139 E20.74647
G1 X64.113 Y130.597 E20.76617
G1 X70.269 Y136.753 E21.08083
G1 X70.761 Y136.753 E21.09860
G1 X64.063 Y130.055 E21.44099
G1 X64.021 Y129.521 E21.46032
G1 X71.253 Y136.753 E21.82997
G1 X71.745 Y136.753 E21.84774
G1 X64.032 Y129.040 E22.24199
G1 X64.043 Y128.559 E22.25938
G1 X72.236 Y136.753 E22.67823
G1 X72.728 Y136.753 E22.69600
G1 X64.053 Y128.078 E23.13944
G1 X64.142 Y127.675 E23.15436
G1 X68.266 Y131.799 E23.36517
G1 X68.189 Y131.230 E23.38593
G1 X64.243 Y127.284 E23.58765
G1 X64.343 Y126.893 E23.60224
G1 X68.223 Y130.772 E23.80056
G1 X68.312 Y130.369 E23.81548
G1 X64.449 Y126.507 E24.01291
G1 X64.618 Y126.184 E24.02608
G1 X68.469 Y130.035 E24.22292
G1 X68.656 Y129.729 E24.23585
G1 X64.787 Y125.861 E24.43359
G1 X64.956 Y125.538 E24.44676
G1 X68.878 Y129.460 E24.64724
G1 X69.142 Y129.232 E24.65984
G1 X65.125 Y125.215 E24.86518
G1 X65.316 Y124.915 E24.87806
G1 X69.427 Y129.026 E25.08819
G1 X69.774 Y128.881 E25.10178
G1 X65.515 Y124.622 E25.31949
G1 X65.715 Y124.329 E25.33229
G1 X70.148 Y128.762 E25.55889
G1 X70.584 Y128.707 E25.57480
G1 X65.914 Y124.037 E25.81355
G1 X66.113 Y123.744 E25.82634
G1 X71.129 Y128.760 E26.08275
M204 S1500
G1 X71.932 Y129.071 F7800.000
M204 S600
G1 X66.312 Y123.451 E26.37002 F2400.000
G1 X66.511 Y123.158 E26.38282
G1 X80.105 Y136.753 E27.07773
G1 X80.597 Y136.753 E27.09551
G1 X66.710 Y122.865 E27.80538
G1 X66.909 Y122.573 E27.81818
G1 X81.089 Y136.753 E28.54302
M204 S1500
G1 X83.901 Y132.188 F7800.000
M204 S600
G1 X81.860 Y130.147 E28.64737 F2400.000
G1 X82.016 Y130.795 E28.67148
G1 X83.868 Y132.646 E28.76612
G1 X83.834 Y133.105 E28.78273
G1 X82.004 Y131.274 E28.87629
G1 X81.928 Y131.691 E28.89159
G1 X83.800 Y133.563 E28.98730
G1 X83.767 Y134.021 E29.00390
G1 X81.808 Y132.062 E29.10406
G1 X81.621 Y132.367 E29.11699
G1 X83.733 Y134.479 E29.22498
G1 X83.700 Y134.938 E29.24158
G1 X81.418 Y132.655 E29.35825
G1 X81.164 Y132.894 E29.37082
G1 X83.666 Y135.396 E29.49874
G1 X83.633 Y135.854 E29.51535
G1 X80.884 Y133.105 E29.65586
G1 X80.567 Y133.280 E29.66895
G1 X83.599 Y136.313 E29.82396
G1 X83.538 Y136.743 E29.83969
G1 X80.198 Y133.403 E30.01043
G1 X79.790 Y133.487 E30.02547
G1 X83.056 Y136.753 E30.19240
G1 X82.564 Y136.753 E30.21018
G1 X79.299 Y133.487 E30.37711
G1 X78.654 Y133.335 E30.40104
G1 X82.072 Y136.753 E30.57577
G1 X81.581 Y136.753 E30.59354
G1 X67.108 Y122.280 E31.33335
G1 X67.307 Y121.987 E31.34615
G1 X77.428 Y132.108 E31.86350
G1 X77.261 Y131.450 E31.88804
G1 X67.506 Y121.694 E32.38670
G1 X67.705 Y121.402 E32.39950
G1 X77.248 Y130.945 E32.88731
G1 X77.327 Y130.532 E32.90251
G1 X67.904 Y121.109 E33.38418
G1 X68.103 Y120.816 E33.39697
G1 X77.461 Y130.174 E33.87533
G1 X77.620 Y129.842 E33.88866
G1 X68.302 Y120.523 E34.36499
G1 X68.501 Y120.231 E34.37778
G1 X77.843 Y129.572 E34.85531
G1 X78.081 Y129.319 E34.86789
G1 X68.700 Y119.938 E35.34742
G1 X68.899 Y119.645 E35.36021
G1 X78.366 Y129.112 E35.84413
G1 X78.684 Y128.938 E35.85723
G1 X69.098 Y119.352 E36.34724
G1 X69.297 Y119.059 E36.36004
G1 X79.039 Y128.801 E36.85800
G1 X79.460 Y128.730 E36.87343
G1 X69.496 Y118.767 E37.38273
G1 X69.695 Y118.474 E37.39553
G1 X79.951 Y128.730 E37.91979
G1 X80.600 Y128.887 E37.94392
G1 X69.894 Y118.181 E38.49118
G1 X70.093 Y117.888 E38.50398
G1 X83.935 Y131.730 E39.21150
G1 X83.968 Y131.271 E39.22811
G1 X70.292 Y117.596 E39.92717
G1 X70.491 Y117.303 E39.93996
G1 X84.002 Y130.813 E40.63056
G1 X84.035 Y130.355 E40.64717
G1 X70.690 Y117.010 E41.32931
G1 X70.889 Y116.717 E41.34211
G1 X84.069 Y129.896 E42.01579
G1 X84.102 Y129.438 E42.03240
G1 X71.089 Y116.425 E42.69761
G1 X71.288 Y116.132 E42.71041
G1 X84.136 Y128.980 E43.36717
G1 X84.169 Y128.522 E43.38378
G1 X71.487 Y115.839 E44.03207
G1 X71.686 Y115.546 E44.04487
G1 X84.203 Y128.063 E44.68470
G1 X84.236 Y127.605 E44.70131
G1 X71.885 Y115.254 E45.33269
G1 X72.084 Y114.961 E45.34548
G1 X84.270 Y127.147 E45.96840
G1 X84.303 Y126.688 E45.98500
G1 X72.283 Y114.668 E46.59946
G1 X72.482 Y114.375 E46.61225
G1 X84.337 Y126.230 E47.21824
G1 X84.370 Y125.772 E47.23485
G1 X72.681 Y114.082 E47.83238
G1 X72.880 Y113.790 E47.84518
G1 X84.404 Y125.314 E48.43425
G1 X84.437 Y124.855 E48.45086
G1 X73.079 Y113.497 E49.03147
G1 X73.278 Y113.204 E49.04426
G1 X84.471 Y124.397 E49.61641
G1 X84.504 Y123.939 E49.63302
G1 X73.477 Y112.911 E50.19671
G1 X73.676 Y112.619 E50.20950
G1 X84.538 Y123.480 E50.76473
G1 X84.571 Y123.022 E50.78134
G1 X73.875 Y112.326 E51.32810
G1 X74.074 Y112.033 E51.34090
G1 X84.604 Y122.563 E51.87916
G1 X84.632 Y122.100 E51.89595
G1 X74.273 Y111.740 E52.42548
G1 X74.472 Y111.448 E52.43828
G1 X84.661 Y121.636 E52.95908
G1 X84.689 Y121.172 E52.97587
G1 X74.671 Y111.155 E53.48793
G1 X74.870 Y110.862 E53.50073
G1 X84.717 Y120.709 E54.00407
G1 X84.745 Y120.245 E54.02086
G1 X75.069 Y110.569 E54.51546
G1 X75.268 Y110.276 E54.52826
G1 X84.773 Y119.782 E55.01413
G1 X84.802 Y119.318 E55.03092
G1 X75.467 Y109.984 E55.50806
G1 X75.666 Y109.691 E55.52085
G1 X84.830 Y118.854 E55.98926
G1 X84.858 Y118.391 E56.00605
G1 X75.865 Y109.398 E56.46572
G1 X76.064 Y109.105 E56.47852
G1 X84.886 Y117.927 E56.92947
G1 X84.914 Y117.464 E56.94625
G1 X76.263 Y108.813 E57.38847
G1 X76.463 Y108.520 E57.40126
G1 X84.943 Y117.000 E57.83474
G1 X84.971 Y116.536 E57.85153
G1 X76.662 Y108.227 E58.27628
G1 X76.861 Y107.934 E58.28907
G1 X84.999 Y116.073 E58.70509
G1 X85.027 Y115.609 E58.72188
G1 X77.060 Y107.642 E59.12916
G1 X77.259 Y107.349 E59.14196
G1 X85.056 Y115.146 E59.54051
G1 X85.084 Y114.682 E59.55730
G1 X77.458 Y107.056 E59.94712
G1 X77.657 Y106.763 E59.95991
G1 X85.112 Y114.218 E60.34100
G1 X85.140 Y113.755 E60.35779
G1 X77.856 Y106.471 E60.73015
G1 X78.055 Y106.178 E60.74294
G1 X85.168 Y113.291 E61.10657
G1 X85.197 Y112.828 E61.12336
G1 X78.254 Y105.885 E61.47825
G1 X78.453 Y105.592 E61.49104
G1 X85.225 Y112.364 E61.83720
G1 X85.253 Y111.901 E61.85399
G1 X78.652 Y105.299 E62.19142
G1 X78.851 Y105.007 E62.20422
G1 X85.281 Y111.437 E62.53291
G1 X85.309 Y110.973 E62.54970
G1 X79.050 Y104.714 E62.86966
G1 X79.249 Y104.421 E62.88246
G1 X85.338 Y110.510 E63.19369
G1 X85.366 Y110.046 E63.21048
G1 X79.448 Y104.128 E63.51298
G1 X79.647 Y103.836 E63.52578
G1 X85.394 Y109.583 E63.81954
G1 X85.422 Y109.119 E63.83633
G1 X79.846 Y103.543 E64.12137
