; generated by Slic3r 1.2.9 on 2017-04-28 at 17:29:22

; external perimeters extrusion width = 0.40mm
; perimeters extrusion width = 0.40mm
; infill extrusion width = 0.40mm
; solid infill extrusion width = 0.40mm
; top infill extrusion width = 0.40mm

M107
M190 S75 ; set bed temperature
M104 S235 ; set temperature
G28 ; home all axes
G1 Z5 F5000 ; lift nozzle

M109 S235 ; wait for temperature to be reached
G21 ; set units to millimeters
G90 ; use absolute coordinates
M82 ; use absolute distances for extrusion
G92 E0
G1 Z0.250 F7800.000
G1 E-3.00000 F2100.00000
G92 E0
G1 X51.959 Y54.127 F7800.000
G1 E3.00000 F2100.00000
M204 S600
G1 X54.116 Y52.533 E3.09654 F2400.000
G1 X56.645 Y51.642 E3.19307
G1 X58.350 Y51.480 E3.25473
G1 X89.475 Y51.480 E4.37520
G1 X92.127 Y51.878 E4.47173
G1 X94.546 Y53.036 E4.56827 F2400.000
G1 X96.518 Y54.853 E4.66481
G1 X97.870 Y57.169 E4.76134
G1 X98.514 Y60.519 E4.88416
G1 X98.514 Y139.481 E7.72670
G1 X98.116 Y142.133 E7.82323
G1 X96.958 Y144.552 E7.91977
G1 X95.141 Y146.524 E8.01631
G1 X92.825 Y147.876 E8.11284
G1 X89.475 Y148.520 E8.23566
G1 X58.350 Y148.520 E9.35612
G1 X55.698 Y148.122 E9.45266
G1 X53.279 Y146.964 E9.54919
G1 X51.959 Y145.873 E9.61087
G1 X49.958 Y143.873 E9.71270
G1 X48.364 Y141.716 E9.80924
G1 X47.473 Y139.187 E9.90577
G1 X47.311 Y137.481 E9.96746
G1 X47.311 Y62.519 E12.66600
G1 X47.709 Y59.867 E12.76254
G1 X48.867 Y57.448 E12.85907
G1 X49.958 Y56.127 E12.92076
G1 X51.916 Y54.169 E13.02044
M204 S1500
G1 X52.204 Y54.372 F7800.000
M204 S600
G1 X54.323 Y52.815 E13.11510 F2400.000
G1 X56.811 Y51.964 E13.20976
G1 X58.350 Y51.826 E13.26539
G1 X89.475 Y51.826 E14.38585
G1 X92.074 Y52.224 E14.48051
G1 X94.436 Y53.381 E14.57517 F2400.000
G1 X96.343 Y55.191 E14.66983
G1 X97.622 Y57.488 E14.76449
G1 X98.168 Y60.519 E14.87535
G1 X98.168 Y139.481 E17.71789
G1 X97.770 Y142.080 E17.81255
G1 X96.613 Y144.442 E17.90721
G1 X94.803 Y146.349 E18.00187
G1 X92.506 Y147.628 E18.09653
G1 X89.475 Y148.174 E18.20739
G1 X58.350 Y148.174 E19.32786
G1 X55.751 Y147.776 E19.42251
G1 X53.389 Y146.619 E19.51717
G1 X52.204 Y145.628 E19.57281
G1 X50.203 Y143.628 E19.67465
G1 X48.647 Y141.508 E19.76930
G1 X47.795 Y139.021 E19.86396
G1 X47.657 Y137.481 E19.91962
G1 X47.657 Y62.519 E22.61816
G1 X48.055 Y59.920 E22.71282
G1 X49.212 Y57.558 E22.80748
G1 X50.203 Y56.372 E22.86313
G1 X52.161 Y54.414 E22.96281
M204 S1500
G1 X52.449 Y54.617 F7800.000
M204 S600
G1 X54.530 Y53.098 E23.05556 F2400.000
G1 X56.975 Y52.287 E23.14830
G1 X58.350 Y52.173 E23.19797
G1 X89.475 Y52.173 E24.31843
G1 X92.020 Y52.570 E24.41118
G1 X94.323 Y53.725 E24.50392 F2400.000
G1 X96.164 Y55.527 E24.59666
G1 X97.368 Y57.805 E24.68940
G1 X97.821 Y60.519 E24.78845
G1 X97.821 Y139.481 E27.63099
G1 X97.424 Y142.026 E27.72374
G1 X96.269 Y144.329 E27.81648
G1 X94.467 Y146.170 E27.90922
G1 X92.189 Y147.374 E28.00196
G1 X89.475 Y147.827 E28.10101
G1 X58.350 Y147.827 E29.22148
G1 X55.805 Y147.430 E29.31422
G1 X53.502 Y146.275 E29.40696
G1 X52.448 Y145.383 E29.45664
G1 X50.448 Y143.383 E29.55848
G1 X48.930 Y141.302 E29.65122
G1 X48.118 Y138.857 E29.74396
G1 X48.004 Y137.481 E29.79365
G1 X48.004 Y62.519 E32.49220
G1 X48.401 Y59.974 E32.58494
G1 X49.556 Y57.671 E32.67768
G1 X50.448 Y56.617 E32.72738
G1 X52.406 Y54.659 E32.82706
M204 S1500
G1 E29.82706 F2100.00000
G92 E0
G1 X64.595 Y92.242 F7800.000
G1 E3.00000 F2100.00000
M204 S600
G1 X64.301 Y92.648 E3.01805 F2400.000
G1 X63.914 Y92.968 E3.03611
G1 X63.460 Y93.181 E3.05416
G1 X62.968 Y93.275 E3.07222
G1 X62.467 Y93.244 E3.09027
G1 X61.990 Y93.089 E3.10832
G1 X61.567 Y92.820 E3.12638
G1 X61.223 Y92.454 E3.14443
G1 X60.982 Y92.015 E3.16248
G1 X60.857 Y91.529 E3.18054
G1 X60.857 Y91.028 E3.19859
G1 X60.982 Y90.542 E3.21664
G1 X61.223 Y90.102 E3.23470
G1 X61.567 Y89.737 E3.25275
G1 X61.990 Y89.468 E3.27081
G1 X62.467 Y89.313 E3.28886
G1 X62.968 Y89.282 E3.30691 F2400.000
G1 X63.460 Y89.376 E3.32497
G1 X63.914 Y89.589 E3.34302
G1 X64.301 Y89.909 E3.36107
G1 X64.595 Y90.314 E3.37913
G1 X64.780 Y90.781 E3.39718
G1 X64.843 Y91.278 E3.41523
G1 X64.780 Y91.776 E3.43329
G1 X64.617 Y92.186 E3.44918
M204 S1500
G1 X64.289 Y92.074 F7800.000
M204 S600
G1 X64.046 Y92.409 E3.46409 F2400.000
G1 X63.727 Y92.673 E3.47899
G1 X63.352 Y92.849 E3.49389
G1 X62.946 Y92.927 E3.50880
G1 X62.533 Y92.901 E3.52370
G1 X62.139 Y92.773 E3.53860
G1 X61.789 Y92.551 E3.55351
G1 X61.506 Y92.249 E3.56841
G1 X61.306 Y91.886 E3.58331
G1 X61.204 Y91.485 E3.59822
G1 X61.204 Y91.071 E3.61312
G1 X61.306 Y90.670 E3.62802
G1 X61.506 Y90.308 E3.64293
G1 X61.789 Y90.006 E3.65783
G1 X62.139 Y89.784 E3.67273
G1 X62.533 Y89.656 E3.68764
G1 X62.946 Y89.630 E3.70254 F2400.000
G1 X63.352 Y89.708 E3.71744
G1 X63.727 Y89.884 E3.73235
G1 X64.046 Y90.148 E3.74725
G1 X64.289 Y90.483 E3.76215
G1 X64.442 Y90.868 E3.77706
G1 X64.494 Y91.278 E3.79196
G1 X64.442 Y91.689 E3.80686
G1 X64.311 Y92.018 E3.81961
M204 S1500
G1 X64.482 Y92.424 F7800.000
G1 E0.81961 F2100.00000
G92 E0
G1 X62.968 Y76.475 F7800.000
G1 E3.00000 F2100.00000
M204 S600
G1 X62.467 Y76.444 E3.01805 F2400.000
G1 X61.990 Y76.289 E3.03611
G1 X61.567 Y76.020 E3.05416
G1 X61.223 Y75.654 E3.07221
G1 X60.982 Y75.215 E3.09027
G1 X60.857 Y74.729 E3.10832
G1 X60.857 Y74.228 E3.12637
G1 X60.982 Y73.742 E3.14443
G1 X61.223 Y73.302 E3.16248
G1 X61.567 Y72.937 E3.18054
G1 X61.990 Y72.668 E3.19859
G1 X62.467 Y72.513 E3.21664
G1 X62.968 Y72.482 E3.23470 F2400.000
G1 X63.460 Y72.576 E3.25275
G1 X63.914 Y72.789 E3.27080
G1 X64.301 Y73.109 E3.28886
G1 X64.595 Y73.514 E3.30691
G1 X64.780 Y73.981 E3.32496
G1 X64.843 Y74.478 E3.34302
G1 X64.780 Y74.976 E3.36107
G1 X64.595 Y75.442 E3.37913
G1 X64.301 Y75.848 E3.39718
G1 X63.914 Y76.168 E3.41523
G1 X63.460 Y76.381 E3.43329
G1 X63.027 Y76.464 E3.44918
M204 S1500
G1 X62.946 Y76.127 F7800.000
M204 S600
G1 X62.533 Y76.101 E3.46408 F2400.000
G1 X62.139 Y75.973 E3.47899
G1 X61.789 Y75.751 E3.49389
G1 X61.506 Y75.449 E3.50879
G1 X61.306 Y75.086 E3.52370
G1 X61.204 Y74.685 E3.53860
G1 X61.204 Y74.271 E3.55351
G1 X61.306 Y73.870 E3.56841
G1 X61.506 Y73.508 E3.58331
G1 X61.789 Y73.206 E3.59822
G1 X62.139 Y72.984 E3.61312
G1 X62.533 Y72.856 E3.62802
G1 X62.946 Y72.830 E3.64293 F2400.000
G1 X63.352 Y72.908 E3.65783
G1 X63.727 Y73.084 E3.67273
G1 X64.046 Y73.348 E3.68764
G1 X64.289 Y73.683 E3.70254
G1 X64.442 Y74.068 E3.71744
G1 X64.494 Y74.478 E3.73235
G1 X64.442 Y74.889 E3.74725
G1 X64.289 Y75.274 E3.76215
G1 X64.046 Y75.609 E3.77706
G1 X63.727 Y75.873 E3.79196
G1 X63.352 Y76.049 E3.80686
G1 X63.005 Y76.115 E3.81961
M204 S1500
G1 X62.753 Y76.477 F7800.000
G1 X71.353 Y80.384 F7800.000
M204 S600
G1 X71.448 Y80.384 E3.82302 F2400.000
G1 X71.608 Y79.892 E3.84165
G1 X72.003 Y79.033 E3.87570
G1 X72.495 Y78.225 E3.90975
G1 X73.076 Y77.478 E3.94380
G1 X73.739 Y76.804 E3.97785
G1 X74.475 Y76.210 E4.01190
G1 X75.275 Y75.706 E4.04594
G1 X76.128 Y75.297 E4.07999
G1 X77.022 Y74.988 E4.11404
G1 X77.946 Y74.785 E4.14809
G1 X78.887 Y74.690 E4.18214 F2400.000
G1 X79.833 Y74.703 E4.21619
G1 X80.770 Y74.826 E4.25024
G1 X81.688 Y75.055 E4.28428
G1 X82.573 Y75.389 E4.31833
G1 X83.413 Y75.823 E4.35238
G1 X84.199 Y76.350 E4.38643
G1 X84.918 Y76.965 E4.42048
G1 X85.561 Y77.658 E4.45453
G1 X86.121 Y78.420 E4.48858
G1 X86.588 Y79.242 E4.52262
G1 X86.958 Y80.113 E4.55667
G1 X87.226 Y81.020 E4.59072
G1 X87.387 Y81.952 E4.62477
G1 X87.439 Y82.897 E4.65882
G1 X87.383 Y83.841 E4.69287
G1 X87.218 Y84.772 E4.72691
G1 X86.947 Y85.678 E4.76096
G1 X86.573 Y86.547 E4.79501
G1 X86.102 Y87.367 E4.82906
G1 X85.539 Y88.127 E4.86311
G1 X84.893 Y88.818 E4.89716
G1 X84.171 Y89.429 E4.93121
G1 X83.382 Y89.955 E4.96534
G1 X82.413 Y90.438 E5.00431
G1 X81.388 Y90.791 E5.04335
G1 X80.324 Y91.005 E5.08240
G1 X79.242 Y91.077 E5.12144
G1 X78.160 Y91.005 E5.16049
G1 X77.096 Y90.791 E5.19954
G1 X76.070 Y90.438 E5.23859
G1 X75.100 Y89.954 E5.27763
G1 X74.214 Y89.354 E5.31615
G1 X73.414 Y88.644 E5.35466
G1 X72.713 Y87.836 E5.39318
G1 X72.123 Y86.943 E5.43169
G1 X71.654 Y85.982 E5.47020
G1 X71.451 Y85.374 E5.49327
G1 X71.353 Y85.374 E5.49679
G1 X71.044 Y83.582 E5.56226
G1 X71.044 Y82.177 E5.61285
G1 X71.343 Y80.444 E5.67616
M204 S1500
G1 X71.768 Y80.520 F7800.000
M204 S600
G1 X71.931 Y80.019 E5.69513 F2400.000
G1 X72.310 Y79.196 E5.72774
G1 X72.780 Y78.422 E5.76035
G1 X73.337 Y77.707 E5.79296
G1 X73.972 Y77.061 E5.82556
G1 X74.677 Y76.493 E5.85817
G1 X75.443 Y76.009 E5.89078
G1 X76.260 Y75.617 E5.92339
G1 X77.116 Y75.322 E5.95599
G1 X78.001 Y75.128 E5.98860
G1 X78.902 Y75.036 E6.02121 F2400.000
G1 X79.808 Y75.049 E6.05381
G1 X80.706 Y75.167 E6.08642
G1 X81.584 Y75.386 E6.11903
G1 X82.432 Y75.706 E6.15164
G1 X83.237 Y76.121 E6.18424
G1 X83.989 Y76.627 E6.21685
G1 X84.677 Y77.215 E6.24946
G1 X85.294 Y77.879 E6.28207
G1 X85.829 Y78.609 E6.31467
G1 X86.277 Y79.396 E6.34728
G1 X86.632 Y80.230 E6.37989
G1 X86.888 Y81.099 E6.41250
G1 X87.042 Y81.991 E6.44510
G1 X87.092 Y82.896 E6.47771
G1 X87.038 Y83.800 E6.51032
G1 X86.880 Y84.692 E6.54293
G1 X86.621 Y85.560 E6.57553
G1 X86.263 Y86.392 E6.60814
G1 X85.811 Y87.177 E6.64075
G1 X85.273 Y87.905 E6.67336
G1 X84.653 Y88.566 E6.70596
G1 X83.962 Y89.152 E6.73857
G1 X83.207 Y89.654 E6.77122
G1 X82.279 Y90.118 E6.80858
G1 X81.297 Y90.456 E6.84597
G1 X80.279 Y90.661 E6.88336
G1 X79.242 Y90.730 E6.92076
G1 X78.206 Y90.661 E6.95815
G1 X77.187 Y90.456 E6.99554
G1 X76.205 Y90.118 E7.03295
G1 X75.276 Y89.654 E7.07034
G1 X74.427 Y89.080 E7.10722
G1 X73.661 Y88.400 E7.14410
G1 X72.989 Y87.626 E7.18098
G1 X72.424 Y86.771 E7.21786
G1 X71.976 Y85.850 E7.25474
G1 X71.700 Y85.028 E7.28597
G1 X71.645 Y85.028 E7.28797
G1 X71.390 Y83.552 E7.34187
G1 X71.390 Y82.206 E7.39033
G1 X71.645 Y80.731 E7.44423
G1 X71.699 Y80.731 E7.44618
G1 X71.749 Y80.577 E7.45201
M204 S1500
G1 X71.501 Y80.222 F7800.000
G1 E4.45201 F2100.00000
G92 E0
G1 X56.896 Y79.921 F7800.000
G1 E3.00000 F2100.00000
M204 S600
G1 X56.896 Y62.745 E3.61831 F2400.000
G1 X58.576 Y61.065 E3.70384
G1 X88.929 Y61.065 E4.79649
G1 X88.929 Y138.935 E7.59970
G1 X58.576 Y138.935 E8.69235
G1 X56.896 Y137.255 E8.77787
G1 X56.896 Y85.835 E10.62891
G1 X57.037 Y85.787 E10.63427
G1 X58.034 Y87.086 E10.69321
G1 X59.267 Y88.032 E10.74914
G1 X60.702 Y88.627 E10.80506
G1 X62.206 Y88.825 E10.85969
G1 X62.878 Y88.825 E10.88386
G1 X64.382 Y88.627 E10.93849
G1 X65.805 Y88.037 E10.99392
G1 X67.050 Y87.087 E11.05030
G1 X67.996 Y85.854 E11.10625
G1 X68.585 Y84.431 E11.16168
G1 X68.793 Y82.879 E11.21806
G1 X68.590 Y81.338 E11.27401
G1 X67.996 Y79.903 E11.32994
G1 X67.050 Y78.670 E11.38586
G1 X65.818 Y77.725 E11.44179
G1 X64.382 Y77.130 E11.49772
G1 X62.878 Y76.932 E11.55234
G1 X62.206 Y76.932 E11.57652
G1 X60.702 Y77.130 E11.63114
G1 X59.267 Y77.725 E11.68707
G1 X58.034 Y78.670 E11.74299
G1 X57.037 Y79.969 E11.80193
G1 X56.953 Y79.941 E11.80513
M204 S1500
G1 X56.550 Y82.076 F7800.000
M204 S600
G1 X56.550 Y62.602 E12.50620 F2400.000
G1 X58.433 Y60.719 E12.60205
G1 X89.275 Y60.719 E13.71234
G1 X89.275 Y139.281 E16.54048
G1 X58.433 Y139.281 E17.65076
G1 X56.550 Y137.398 E17.74662
G1 X56.550 Y83.680 E19.68040
G1 X56.744 Y83.667 E19.68741
G1 X56.831 Y84.328 E19.71140
G1 X57.391 Y85.679 E19.76405
G1 X58.281 Y86.839 E19.81669
G1 X59.441 Y87.730 E19.86933
G1 X60.792 Y88.289 E19.92197
G1 X62.229 Y88.478 E19.97414
G1 X62.855 Y88.478 E19.99668
G1 X64.292 Y88.289 E20.04885
G1 X65.631 Y87.735 E20.10101
G1 X66.803 Y86.840 E20.15411
G1 X67.693 Y85.679 E20.20676
G1 X68.248 Y84.340 E20.25893
G1 X68.444 Y82.879 E20.31202
G1 X68.253 Y81.428 E20.36467
G1 X67.693 Y80.077 E20.41732
G1 X66.803 Y78.917 E20.46996
G1 X65.643 Y78.027 E20.52260
G1 X64.292 Y77.467 E20.57525
G1 X62.855 Y77.278 E20.62741
G1 X62.229 Y77.278 E20.64996
G1 X60.792 Y77.467 E20.70212
G1 X59.441 Y78.027 E20.75476
G1 X58.281 Y78.917 E20.80741
G1 X57.391 Y80.077 E20.86005
G1 X56.831 Y81.428 E20.91269
G1 X56.744 Y82.089 E20.93668
G1 X56.610 Y82.080 E20.94153
M204 S1500
G1 X56.758 Y81.735 F7800.000
G1 X56.634 Y83.474 F7800.000
M204 S600
G1 X56.597 Y82.911 E20.96186 F2400.000
G1 X56.634 Y82.282 E20.98451
M204 S1500
G1 X56.733 Y81.188 F7800.000
M204 S600
G1 X56.909 Y80.304 E21.01696 F2400.000
G1 X57.123 Y80.191 E21.02569
G1 X57.200 Y80.059 E21.03118
M204 S1500
G1 E18.03118 F2100.00000
G92 E0
G1 X56.733 Y84.568 F7800.000
G1 E3.00000 F2100.00000
M204 S600
G1 X56.909 Y85.452 E3.03244 F2400.000
G1 X57.123 Y85.565 E3.04117
G1 X57.200 Y85.697 E3.04666
M204 S1500
G1 X57.098 Y86.383 F7800.000
M204 S600
G1 X57.388 Y86.672 E3.06147 F2400.000
M204 S1500
G1 X58.448 Y87.733 F7800.000
M204 S600
G1 X60.951 Y90.236 E3.18943 F2400.000
G1 X60.786 Y90.562 E3.20266
G1 X57.097 Y86.874 E3.39120
G1 X57.097 Y87.366 E3.40898
G1 X60.685 Y90.954 E3.59239
G1 X60.656 Y91.416 E3.60915
G1 X57.097 Y87.857 E3.79109
G1 X57.097 Y88.349 E3.80886
G1 X60.750 Y92.002 E3.99558
M204 S1500
G1 X62.116 Y93.368 F7800.000
M204 S600
G1 X88.728 Y119.980 E5.35592 F2400.000
G1 X88.728 Y119.488 E5.37369
G1 X62.704 Y93.465 E6.70398
G1 X63.162 Y93.430 E6.72055
G1 X88.728 Y118.996 E8.02747
G1 X88.728 Y118.504 E8.04524
G1 X63.555 Y93.332 E9.33204
G1 X63.890 Y93.174 E9.34540
G1 X88.728 Y118.012 E10.61510
G1 X88.728 Y117.521 E10.63288
G1 X64.178 Y92.971 E11.88782
G1 X64.443 Y92.744 E11.90043
G1 X88.728 Y117.029 E13.14184
G1 X88.728 Y116.537 E13.15962
G1 X64.650 Y92.459 E14.39045
G1 X64.827 Y92.144 E14.40351
G1 X88.728 Y116.045 E15.62530
G1 X88.728 Y115.553 E15.64308
G1 X64.966 Y91.792 E16.85774
G1 X65.026 Y91.360 E16.87350
G1 X88.728 Y115.062 E18.08509
G1 X88.728 Y114.570 E18.10287
G1 X65.000 Y90.842 E19.31580
G1 X64.769 Y90.119 E19.34325
G1 X88.728 Y114.078 E20.56802
G1 X88.728 Y113.586 E20.58579
G1 X64.011 Y88.869 E21.84930
G1 X64.432 Y88.799 E21.86475
G1 X88.728 Y113.094 E23.10670
G1 X88.728 Y112.602 E23.12447
G1 X64.780 Y88.655 E24.34864
G1 X65.128 Y88.511 E24.36225
G1 X88.728 Y112.111 E25.56864
G1 X88.728 Y111.619 E25.58642
G1 X65.476 Y88.367 E26.77504
G1 X65.823 Y88.223 E26.78864
G1 X88.728 Y111.127 E27.95948
G1 X88.728 Y110.635 E27.97726
G1 X66.111 Y88.019 E29.13338
G1 X66.390 Y87.806 E29.14606
G1 X88.728 Y110.143 E30.28792
G1 X88.728 Y109.652 E30.30570
G1 X66.669 Y87.593 E31.43330
G1 X66.948 Y87.380 E31.44599
G1 X88.728 Y109.160 E32.55933
G1 X88.728 Y108.668 E32.57711
G1 X67.214 Y87.154 E33.67687
G1 X67.428 Y86.876 E33.68954
G1 X88.728 Y108.176 E34.77838
G1 X88.728 Y107.684 E34.79616
G1 X67.641 Y86.598 E35.87408
G1 X67.855 Y86.319 E35.88676
G1 X88.728 Y107.192 E36.95377
G1 X88.728 Y106.701 E36.97155
G1 X68.068 Y86.041 E38.02764
G1 X68.243 Y85.724 E38.04073
G1 X88.728 Y106.209 E39.08789
G1 X88.728 Y105.717 E39.10567
G1 X68.387 Y85.376 E40.14547
G1 X68.531 Y85.028 E40.15908
G1 X88.728 Y105.225 E41.19152
G1 X88.728 Y104.733 E41.20930
G1 X68.675 Y84.681 E42.23437
M204 S1500
G1 X71.395 Y85.925 F7800.000
M204 S600
G1 X68.911 Y83.441 E42.36133 F2400.000
G1 X68.969 Y83.008 E42.37714
G1 X71.094 Y85.132 E42.48573
G1 X70.991 Y84.538 E42.50754
G1 X68.957 Y82.503 E42.61153
G1 X68.882 Y81.937 E42.63218
G1 X70.888 Y83.943 E42.73474
G1 X70.843 Y83.406 E42.75424
G1 X68.808 Y81.370 E42.85828
M204 S1500
G1 X68.545 Y80.616 F7800.000
M204 S600
G1 X70.843 Y82.914 E42.97572 F2400.000
G1 X70.843 Y82.422 E42.99349
G1 X68.198 Y79.777 E43.12871
M204 S1500
G1 X65.943 Y77.523 F7800.000
M204 S600
G1 X64.404 Y75.984 E43.20738 F2400.000
G1 X64.617 Y75.704 E43.22007
G1 X70.886 Y81.974 E43.54055
G1 X70.959 Y81.554 E43.55594
G1 X64.804 Y75.400 E43.87054
G1 X64.944 Y75.048 E43.88424
G1 X71.031 Y81.135 E44.19541
G1 X71.104 Y80.716 E44.21080
G1 X65.017 Y74.629 E44.52192
G1 X65.011 Y74.131 E44.53992
G1 X71.176 Y80.296 E44.85506
G1 X71.379 Y80.008 E44.86781
G1 X64.820 Y73.448 E45.20314
M204 S1500
G1 X63.925 Y76.488 F7800.000
M204 S600
G1 X64.350 Y76.913 E45.22484 F2400.000
G1 X64.135 Y76.206 E45.25153
G1 X65.104 Y77.175 E45.30104
M204 S1500
G1 X61.689 Y76.711 F7800.000
M204 S600
G1 X57.097 Y72.119 E45.53576 F2400.000
G1 X57.097 Y72.611 E45.55354
G1 X61.339 Y76.853 E45.77036
M204 S1500
G1 X60.904 Y76.910 F7800.000
M204 S600
G1 X57.097 Y73.103 E45.96496 F2400.000
G1 X57.097 Y73.595 E45.98274
G1 X60.516 Y77.014 E46.15752
G1 X60.169 Y77.158 E46.17112
G1 X57.097 Y74.087 E46.32812
G1 X57.097 Y74.578 E46.34590
