; generated by Slic3r 1.2.9 on 2017-04-28 at 17:27:38

; external perimeters extrusion width = 0.40mm
; perimeters extrusion width = 0.40mm
; infill extrusion width = 0.40mm
; solid infill extrusion width = 0.40mm
; top infill extrusion width = 0.40mm

M107
M190 S75 ; set bed temperature
M104 S235 ; set temperature
G28 ; home all axes
G1 Z5 F5000 ; lift nozzle

M109 S235 ; wait for temperature to be reached
G21 ; set units to millimeters
G90 ; use absolute coordinates
M82 ; use absolute distances for extrusion
G92 E0
G1 Z0.250 F7800.000
G1 E-3.00000 F2100.00000
G92 E0
G1 X60.366 Y88.792 F7800.000
G1 E3.00000 F2100.00000
M204 S600
G1 X60.772 Y88.516 E3.01769 F2400.000
G1 X72.557 Y81.267 E3.51574
G1 X73.471 Y80.752 E3.55353
G1 X74.459 Y80.282 E3.59290
G1 X78.357 Y79.476 E3.73620
G1 X83.499 Y79.526 E3.92133
G1 X87.371 Y80.404 E4.06425 F2400.000
G1 X87.863 Y80.642 E4.08392
G1 X88.934 Y81.229 E4.12789
G1 X90.083 Y81.989 E4.17749
G1 X90.683 Y82.447 E4.20466
G1 X91.074 Y82.773 E4.22298
G1 X91.741 Y83.375 E4.25533
G1 X92.150 Y83.784 E4.27615
G1 X92.503 Y84.159 E4.29467
G1 X92.989 Y84.721 E4.32143
G1 X93.587 Y85.494 E4.35660
G1 X93.952 Y86.019 E4.37965
G1 X94.452 Y86.816 E4.41350
G1 X94.972 Y87.782 E4.45300
G1 X95.284 Y88.454 E4.47966
G1 X95.481 Y88.928 E4.49816
G1 X95.861 Y89.986 E4.53860
G1 X96.028 Y90.538 E4.55938
G1 X96.242 Y91.403 E4.59144
G1 X96.344 Y91.897 E4.60960
G1 X96.463 Y92.632 E4.63642
G1 X96.593 Y94.016 E4.68645
G1 X96.611 Y95.046 E4.72353
G1 X96.557 Y96.120 E4.76227
G1 X96.407 Y97.335 E4.80633
G1 X96.242 Y98.207 E4.83826
G1 X93.303 Y111.037 E5.31210
G1 X92.312 Y113.584 E5.41048
G1 X90.628 Y115.737 E5.50886
G1 X88.396 Y117.314 E5.60724
G1 X85.083 Y118.281 E5.73150
G1 X63.116 Y120.464 E6.52617
G1 X62.333 Y120.517 E6.55443
G1 X61.693 Y120.521 E6.57747
G1 X60.547 Y120.450 E6.61882
G1 X59.672 Y120.324 E6.65062
G1 X59.213 Y120.230 E6.66750
G1 X58.562 Y120.069 E6.69165
G1 X57.901 Y119.864 E6.71654
G1 X57.437 Y119.695 E6.73434
G1 X56.811 Y119.435 E6.75872
G1 X56.362 Y119.222 E6.77663
G1 X55.735 Y118.886 E6.80221
G1 X55.333 Y118.646 E6.81908
G1 X54.732 Y118.245 E6.84509
G1 X53.971 Y117.658 E6.87968
G1 X53.462 Y117.213 E6.90404
G1 X52.954 Y116.713 E6.92967
G1 X52.322 Y115.999 E6.96401
G1 X51.767 Y115.270 E6.99701
G1 X51.243 Y114.464 E7.03158
G1 X51.009 Y114.049 E7.04876
G1 X50.699 Y113.441 E7.07331
G1 X50.415 Y112.794 E7.09875
G1 X50.112 Y111.960 E7.13069
G1 X49.872 Y111.120 E7.16216
G1 X49.686 Y110.244 E7.19438
G1 X49.596 Y109.628 E7.21679
G1 X49.523 Y108.738 E7.24895
G1 X49.507 Y108.099 E7.27197
G1 X49.561 Y106.981 E7.31225
G1 X49.615 Y106.517 E7.32905
G1 X49.720 Y105.852 E7.35329
G1 X49.872 Y105.152 E7.37908
G1 X50.130 Y104.266 E7.41230
G1 X50.364 Y103.613 E7.43729
G1 X50.652 Y102.937 E7.46374
G1 X51.080 Y102.102 E7.49753
G1 X56.788 Y92.556 E7.89791
G1 X57.389 Y91.662 E7.93670
G1 X58.188 Y90.684 E7.98214
G1 X59.085 Y89.792 E8.02768
G1 X59.820 Y89.180 E8.06212
G1 X60.316 Y88.826 E8.08406
M204 S1500
G1 X60.560 Y89.078 F7800.000
M204 S600
G1 X60.954 Y88.811 E8.10118 F2400.000
G1 X72.738 Y81.562 E8.59923
G1 X73.633 Y81.059 E8.63622
G1 X74.599 Y80.598 E8.67473
G1 X78.353 Y79.822 E8.81274
G1 X83.496 Y79.873 E8.99786
G1 X87.225 Y80.718 E9.13552 F2400.000
G1 X87.712 Y80.953 E9.15498
G1 X88.758 Y81.527 E9.19793
G1 X89.878 Y82.268 E9.24627
G1 X90.468 Y82.719 E9.27302
G1 X90.846 Y83.033 E9.29070
G1 X91.499 Y83.624 E9.32241
G1 X91.904 Y84.028 E9.34301
G1 X92.245 Y84.390 E9.36089
G1 X92.723 Y84.943 E9.38722
G1 X93.309 Y85.701 E9.42172
G1 X93.661 Y86.207 E9.44392
G1 X94.151 Y86.989 E9.47712
G1 X94.660 Y87.933 E9.51575
G1 X94.968 Y88.594 E9.54198
G1 X95.158 Y89.052 E9.55984
G1 X95.530 Y90.087 E9.59942
G1 X95.695 Y90.634 E9.61998
G1 X95.905 Y91.481 E9.65141
G1 X96.120 Y92.682 E9.69533
G1 X96.247 Y94.031 E9.74409
G1 X96.264 Y95.038 E9.78037
G1 X96.212 Y96.090 E9.81827
G1 X96.066 Y97.276 E9.86129
G1 X95.904 Y98.130 E9.89258
G1 X92.965 Y110.960 E10.36640
G1 X91.986 Y113.456 E10.46294
G1 X90.316 Y115.555 E10.55948
G1 X88.105 Y117.072 E10.65601
G1 X85.049 Y117.936 E10.77035
G1 X63.082 Y120.120 E11.56502
G1 X62.320 Y120.171 E11.59254
G1 X61.703 Y120.175 E11.61475
G1 X60.587 Y120.106 E11.65497
G1 X59.736 Y119.984 E11.68592
G1 X59.285 Y119.891 E11.70252
G1 X58.657 Y119.735 E11.72581
G1 X58.012 Y119.536 E11.75012
G1 X57.562 Y119.373 E11.76732
G1 X56.952 Y119.118 E11.79112
G1 X56.518 Y118.912 E11.80843
G1 X55.906 Y118.585 E11.83341
G1 X55.518 Y118.353 E11.84969
G1 X54.930 Y117.962 E11.87510
G1 X54.190 Y117.390 E11.90879
G1 X53.699 Y116.961 E11.93226
G1 X53.203 Y116.473 E11.95729
G1 X52.587 Y115.777 E11.99074
G1 X52.053 Y115.073 E12.02255
G1 X51.542 Y114.289 E12.05623
G1 X51.312 Y113.881 E12.07312
G1 X51.013 Y113.295 E12.09680
G1 X50.735 Y112.662 E12.12166
G1 X50.441 Y111.851 E12.15275
G1 X50.209 Y111.040 E12.18309
G1 X50.028 Y110.187 E12.21449
G1 X49.940 Y109.585 E12.23639
G1 X49.869 Y108.717 E12.26773
G1 X49.853 Y108.102 E12.28990
G1 X49.905 Y107.015 E12.32905
G1 X49.959 Y106.560 E12.34557
G1 X50.060 Y105.918 E12.36895
G1 X50.209 Y105.234 E12.39415
G1 X50.460 Y104.371 E12.42649
G1 X50.685 Y103.741 E12.45059
G1 X50.968 Y103.081 E12.47644
G1 X51.384 Y102.268 E12.50934
G1 X57.085 Y92.734 E12.90922
G1 X57.671 Y91.864 E12.94698
G1 X58.448 Y90.914 E12.99116
G1 X59.319 Y90.046 E13.03542
G1 X60.028 Y89.457 E13.06858
G1 X60.511 Y89.112 E13.08996
M204 S1500
G1 X60.755 Y89.364 F7800.000
M204 S600
G1 X61.135 Y89.106 E13.10651 F2400.000
G1 X72.919 Y81.857 E13.60457
G1 X73.795 Y81.365 E13.64074
G1 X74.740 Y80.915 E13.67839
G1 X78.350 Y80.168 E13.81111
G1 X83.492 Y80.219 E13.99624
G1 X87.079 Y81.032 E14.12862 F2400.000
G1 X87.686 Y81.327 E14.15294
G1 X88.830 Y81.977 E14.20029
G1 X89.812 Y82.651 E14.24318
G1 X90.483 Y83.179 E14.27391
G1 X90.908 Y83.549 E14.29417
G1 X91.278 Y83.891 E14.31232
G1 X91.781 Y84.399 E14.33806
G1 X92.665 Y85.422 E14.38672
G1 X93.370 Y86.395 E14.43001
G1 X93.938 Y87.315 E14.46892
G1 X94.211 Y87.814 E14.48940
G1 X94.589 Y88.598 E14.52072
G1 X94.994 Y89.594 E14.55943
G1 X95.362 Y90.729 E14.60239
G1 X95.662 Y92.019 E14.65007
G1 X95.830 Y93.171 E14.69195
G1 X95.902 Y94.072 E14.72449
G1 X95.913 Y95.202 E14.76518
G1 X95.870 Y96.032 E14.79512
G1 X95.813 Y96.581 E14.81499
G1 X95.659 Y97.593 E14.85184
G1 X92.628 Y110.882 E15.34252
G1 X91.660 Y113.327 E15.43718
G1 X90.005 Y115.371 E15.53183
G1 X87.815 Y116.826 E15.62649
G1 X85.014 Y117.592 E15.73101
G1 X63.048 Y119.775 E16.52568
G1 X62.306 Y119.825 E16.55244
G1 X61.712 Y119.829 E16.57383
G1 X60.628 Y119.762 E16.61292
G1 X59.800 Y119.643 E16.64303
G1 X59.356 Y119.552 E16.65934
G1 X58.752 Y119.402 E16.68177
G1 X58.122 Y119.207 E16.70550
G1 X57.688 Y119.050 E16.72211
G1 X57.093 Y118.802 E16.74532
G1 X56.674 Y118.603 E16.76203
G1 X56.076 Y118.283 E16.78642
G1 X55.702 Y118.059 E16.80211
G1 X55.129 Y117.678 E16.82691
G1 X54.408 Y117.121 E16.85970
G1 X53.936 Y116.708 E16.88227
G1 X53.452 Y116.232 E16.90671
G1 X52.853 Y115.554 E16.93927
G1 X52.338 Y114.877 E16.96989
G1 X51.841 Y114.114 E17.00268
G1 X51.614 Y113.712 E17.01928
G1 X51.326 Y113.148 E17.04208
G1 X51.055 Y112.531 E17.06637
G1 X50.769 Y111.741 E17.09661
G1 X50.546 Y110.961 E17.12582
G1 X50.370 Y110.130 E17.15640
G1 X50.283 Y109.542 E17.17779
G1 X50.214 Y108.697 E17.20831
G1 X50.199 Y108.082 E17.23043
G1 X50.250 Y107.050 E17.26765
G1 X50.329 Y106.406 E17.29101
G1 X50.445 Y105.763 E17.31453
G1 X50.651 Y104.922 E17.34570
G1 X50.862 Y104.259 E17.37073
G1 X51.095 Y103.655 E17.39403
G1 X51.465 Y102.849 E17.42596
G1 X51.688 Y102.433 E17.44295
G1 X57.382 Y92.911 E17.84234
G1 X57.952 Y92.065 E17.87907
G1 X58.707 Y91.143 E17.92197
G1 X59.554 Y90.301 E17.96496
G1 X60.235 Y89.735 E17.99686
G1 X60.705 Y89.398 E18.01767
M204 S1500
G1 X60.949 Y89.651 F7800.000
M204 S600
G1 X61.317 Y89.401 E18.03365 F2400.000
G1 X73.101 Y82.152 E18.53170
G1 X73.957 Y81.671 E18.56706
G1 X74.880 Y81.231 E18.60385
G1 X78.347 Y80.515 E18.73129
G1 X83.489 Y80.565 E18.91642
G1 X86.932 Y81.346 E19.04352 F2400.000
G1 X87.553 Y81.648 E19.06838
G1 X88.644 Y82.269 E19.11355
G1 X89.602 Y82.927 E19.15539
G1 X90.259 Y83.443 E19.18548
G1 X90.679 Y83.809 E19.20553
G1 X91.531 Y84.639 E19.24835
G1 X92.391 Y85.634 E19.29570
G1 X93.080 Y86.584 E19.33792
G1 X93.635 Y87.483 E19.37596
G1 X93.905 Y87.976 E19.39622
G1 X94.275 Y88.744 E19.42689
G1 X94.671 Y89.718 E19.46474
G1 X95.029 Y90.825 E19.50663
G1 X95.321 Y92.080 E19.55303
G1 X95.485 Y93.203 E19.59387
G1 X95.556 Y94.086 E19.62578
G1 X95.567 Y95.188 E19.66544
G1 X95.525 Y96.002 E19.69477
G1 X95.469 Y96.545 E19.71442
G1 X95.317 Y97.534 E19.75043
G1 X92.290 Y110.805 E20.24046
G1 X91.334 Y113.197 E20.33320
G1 X89.694 Y115.184 E20.42594
G1 X87.527 Y116.576 E20.51869
G1 X84.980 Y117.247 E20.61348
G1 X63.014 Y119.430 E21.40815
G1 X62.293 Y119.478 E21.43416
G1 X61.721 Y119.483 E21.45473
G1 X60.669 Y119.418 E21.49269
G1 X59.864 Y119.303 E21.52195
G1 X59.428 Y119.213 E21.53797
G1 X58.847 Y119.069 E21.55954
G1 X58.232 Y118.879 E21.58269
G1 X57.234 Y118.485 E21.62133
G1 X56.830 Y118.294 E21.63744
G1 X56.247 Y117.982 E21.66123
G1 X55.327 Y117.394 E21.70051
G1 X54.626 Y116.852 E21.73241
G1 X54.173 Y116.456 E21.75408
G1 X53.701 Y115.991 E21.77792
G1 X53.119 Y115.332 E21.80959
G1 X52.624 Y114.681 E21.83903
G1 X52.140 Y113.939 E21.87092
G1 X51.917 Y113.544 E21.88723
G1 X51.640 Y113.002 E21.90916
G1 X51.375 Y112.399 E21.93288
G1 X51.097 Y111.631 E21.96227
G1 X50.884 Y110.881 E21.99034
G1 X50.711 Y110.072 E22.02010
G1 X50.627 Y109.498 E22.04099
G1 X50.560 Y108.676 E22.07069
G1 X50.546 Y108.085 E22.09196
G1 X50.595 Y107.084 E22.12805
G1 X50.671 Y106.456 E22.15084
G1 X50.783 Y105.836 E22.17349
G1 X50.983 Y105.019 E22.20378
G1 X51.189 Y104.372 E22.22823
G1 X51.414 Y103.792 E22.25063
G1 X51.773 Y103.008 E22.28167
G1 X51.992 Y102.599 E22.29835
G1 X57.679 Y93.089 E22.69725
G1 X58.234 Y92.267 E22.73295
G1 X58.967 Y91.373 E22.77458
G1 X59.789 Y90.556 E22.81630
G1 X60.443 Y90.012 E22.84692
G1 X60.900 Y89.684 E22.86716
M204 S1500
G1 E19.86716 F2100.00000
G92 E0
G1 X63.152 Y109.426 F7800.000
G1 E3.00000 F2100.00000
M204 S600
G1 X62.865 Y109.655 E3.01318 F2400.000
G1 X62.546 Y109.817 E3.02607
G1 X62.215 Y109.911 E3.03846
G1 X61.891 Y109.941 E3.05019
G1 X61.547 Y109.908 E3.06262
G1 X61.207 Y109.806 E3.07540
G1 X60.886 Y109.634 E3.08848
G1 X60.605 Y109.400 E3.10168
G1 X60.376 Y109.114 E3.11485
G1 X60.214 Y108.795 E3.12775
G1 X60.120 Y108.464 E3.14013
G1 X60.090 Y108.139 E3.15186
G1 X60.124 Y107.795 E3.16429
G1 X60.225 Y107.455 E3.17708
G1 X60.397 Y107.135 E3.19016
G1 X60.631 Y106.853 E3.20335
G1 X60.917 Y106.625 E3.21653
G1 X61.239 Y106.461 E3.22951
G1 X61.618 Y106.364 E3.24360
G1 X61.892 Y106.339 E3.25351 F2400.000
G1 X62.236 Y106.372 E3.26594
G1 X62.576 Y106.474 E3.27872
G1 X62.896 Y106.645 E3.29181
G1 X63.178 Y106.880 E3.30500
G1 X63.406 Y107.166 E3.31818
G1 X63.569 Y107.485 E3.33107
G1 X63.663 Y107.816 E3.34345
G1 X63.692 Y108.140 E3.35519
G1 X63.659 Y108.484 E3.36762
G1 X63.557 Y108.824 E3.38040
G1 X63.386 Y109.145 E3.39348
G1 X63.190 Y109.380 E3.40451
M204 S1500
G1 X63.231 Y109.784 F7800.000
G1 X78.132 Y105.797 F7800.000
M204 S600
G1 X78.132 Y100.101 E3.60955 F2400.000
G1 X77.524 Y99.727 E3.63526
G1 X77.200 Y99.497 E3.64956
G1 X76.888 Y99.242 E3.66406
G1 X76.591 Y98.963 E3.67874
G1 X76.311 Y98.661 E3.69357
G1 X76.051 Y98.337 E3.70851
G1 X75.813 Y97.995 E3.72353
G1 X75.599 Y97.635 E3.73859
G1 X75.411 Y97.261 E3.75364
G1 X75.251 Y96.876 E3.76867
G1 X75.119 Y96.482 E3.78361
G1 X75.014 Y96.078 E3.79863
G1 X74.939 Y95.672 E3.81352
G1 X74.893 Y95.266 E3.82823
G1 X74.875 Y94.864 E3.84271
G1 X74.884 Y94.454 E3.85747
G1 X74.920 Y94.066 E3.87150
G1 X74.983 Y93.674 E3.88579
G1 X75.073 Y93.281 E3.90030
G1 X75.192 Y92.891 E3.91498
G1 X75.339 Y92.506 E3.92981
G1 X75.513 Y92.130 E3.94474
G1 X75.715 Y91.765 E3.95976
G1 X75.943 Y91.414 E3.97482
G1 X76.194 Y91.080 E3.98986
G1 X76.483 Y90.751 E4.00563
G1 X76.763 Y90.473 E4.01984
G1 X77.079 Y90.200 E4.03486
G1 X77.410 Y89.953 E4.04973
G1 X77.718 Y89.755 E4.06291
G1 X77.718 Y91.520 E4.12644
G1 X77.445 Y91.780 E4.14002
G1 X77.051 Y92.284 E4.16304
G1 X76.837 Y92.635 E4.17786
G1 X76.575 Y93.202 E4.20036
G1 X76.450 Y93.577 E4.21457
G1 X76.315 Y94.242 E4.23899
G1 X76.285 Y94.609 E4.25225
G1 X76.306 Y95.290 E4.27679
G1 X76.423 Y95.921 E4.29989
G1 X76.542 Y96.310 E4.31452
G1 X76.788 Y96.879 E4.33684
G1 X77.142 Y97.450 E4.36103
G1 X77.566 Y97.949 E4.38461
G1 X77.873 Y98.234 E4.39968
G1 X78.410 Y98.625 E4.42359
G1 X78.995 Y98.929 E4.44733
G1 X79.354 Y99.067 E4.46118
G1 X79.720 Y99.172 E4.47486
G1 X80.316 Y99.274 E4.49665
G1 X80.690 Y99.297 E4.51013
G1 X81.046 Y99.290 E4.52296
G1 X81.647 Y99.214 E4.54476
G1 X82.317 Y99.027 E4.56980
G1 X82.679 Y98.876 E4.58393
G1 X83.228 Y98.572 E4.60649
G1 X83.541 Y98.349 E4.62033
G1 X83.808 Y98.123 E4.63293
G1 X84.056 Y97.879 E4.64547
G1 X84.306 Y97.589 E4.65924
G1 X84.653 Y97.081 E4.68138
G1 X84.832 Y96.748 E4.69499
G1 X85.072 Y96.140 E4.71853
G1 X85.222 Y95.494 E4.74241
G1 X85.276 Y94.814 E4.76695
G1 X85.228 Y94.157 E4.79067
G1 X85.157 Y93.779 E4.80452
G1 X85.061 Y93.430 E4.81754
G1 X84.808 Y92.805 E4.84182
G1 X84.634 Y92.489 E4.85479
G1 X84.426 Y92.173 E4.86842
G1 X83.953 Y91.622 E4.89455
G1 X83.953 Y89.828 E4.95915
G1 X84.496 Y90.216 E4.98316
G1 X84.840 Y90.519 E4.99968
G1 X85.108 Y90.789 E5.01335
G1 X85.358 Y91.078 E5.02712
G1 X85.622 Y91.427 E5.04289
G1 X85.844 Y91.771 E5.05763
G1 X86.042 Y92.130 E5.07237
G1 X86.214 Y92.499 E5.08704
G1 X86.360 Y92.882 E5.10179
G1 X86.472 Y93.244 E5.11544
G1 X86.570 Y93.661 E5.13086
G1 X86.633 Y94.050 E5.14503
G1 X86.672 Y94.476 E5.16045
G1 X86.681 Y94.834 E5.17334
G1 X86.666 Y95.225 E5.18740
G1 X86.624 Y95.617 E5.20162
G1 X86.549 Y96.039 E5.21702
G1 X86.459 Y96.405 E5.23062
G1 X86.343 Y96.768 E5.24433
G1 X86.193 Y97.150 E5.25908
G1 X86.005 Y97.544 E5.27482
G1 X85.802 Y97.900 E5.28956
G1 X85.575 Y98.241 E5.30430
G1 X85.327 Y98.564 E5.31897
G1 X85.055 Y98.869 E5.33367
G1 X84.745 Y99.172 E5.34927
G1 X84.164 Y99.636 E5.37606
G1 X83.539 Y100.042 E5.40288
G1 X83.539 Y105.797 E5.61003
G1 X83.608 Y105.797 E5.61251
G1 X83.608 Y108.447 E5.70791
G1 X62.138 Y110.581 E6.48461
G1 X61.701 Y110.585 E6.50036
G1 X61.272 Y110.513 E6.51601
G1 X60.839 Y110.356 E6.53258
G1 X60.438 Y110.116 E6.54944
G1 X60.256 Y109.968 E6.55787
G1 X60.073 Y109.786 E6.56715
G1 X59.806 Y109.432 E6.58312
G1 X59.690 Y109.220 E6.59180
G1 X59.530 Y108.803 E6.60789
G1 X59.480 Y108.586 E6.61592
G1 X59.439 Y108.164 E6.63118
G1 X59.447 Y107.945 E6.63907
G1 X59.520 Y107.517 E6.65469
G1 X59.597 Y107.275 E6.66382
G1 X59.793 Y106.871 E6.68000
G1 X59.930 Y106.667 E6.68882
G1 X60.094 Y106.471 E6.69805
G1 X60.425 Y106.173 E6.71407
G1 X60.607 Y106.050 E6.72198
G1 X61.010 Y105.852 E6.73814
G1 X61.174 Y105.797 E6.74437
G1 X61.840 Y105.797 E6.76836
G1 X61.849 Y105.995 E6.77551
G1 X61.559 Y106.021 E6.78600
G1 X61.115 Y106.135 E6.80248
G1 X60.729 Y106.332 E6.81811
G1 X60.388 Y106.604 E6.83382
G1 X60.108 Y106.940 E6.84955
G1 X59.904 Y107.323 E6.86516
G1 X59.782 Y107.729 E6.88041
G1 X59.743 Y108.138 E6.89522
G1 X59.778 Y108.527 E6.90928
G1 X59.890 Y108.922 E6.92405
G1 X60.084 Y109.302 E6.93943
G1 X60.356 Y109.644 E6.95514
G1 X60.692 Y109.923 E6.97088
G1 X61.074 Y110.127 E6.98648
G1 X61.480 Y110.249 E7.00173
G1 X61.890 Y110.288 E7.01655
G1 X62.279 Y110.253 E7.03061
G1 X62.673 Y110.141 E7.04537
G1 X63.054 Y109.947 E7.06075
G1 X63.395 Y109.675 E7.07647
G1 X63.675 Y109.339 E7.09220
G1 X63.879 Y108.957 E7.10780
G1 X64.001 Y108.551 E7.12305
G1 X64.040 Y108.141 E7.13787
G1 X64.005 Y107.752 E7.15193
G1 X63.893 Y107.358 E7.16670
G1 X63.699 Y106.977 E7.18208
G1 X63.427 Y106.636 E7.19778
G1 X63.091 Y106.356 E7.21352
G1 X62.708 Y106.152 E7.22913
G1 X62.303 Y106.031 E7.24438
G1 X61.928 Y105.994 E7.25793
G1 X61.937 Y105.797 E7.26506
G1 X78.072 Y105.797 E7.84589
M204 S1500
G1 X77.786 Y105.450 F7800.000
M204 S600
G1 X77.786 Y100.295 E8.03149 F2400.000
G1 X77.333 Y100.016 E8.05064
G1 X76.990 Y99.772 E8.06578
G1 X76.660 Y99.502 E8.08113
G1 X76.345 Y99.207 E8.09667
G1 X76.048 Y98.887 E8.11237
G1 X75.773 Y98.545 E8.12818
G1 X75.521 Y98.182 E8.14408
G1 X75.295 Y97.801 E8.16002
G1 X75.096 Y97.406 E8.17597
G1 X74.927 Y96.998 E8.19187
