; generated by Slic3r 1.2.9 on 2017-04-28 at 18:18:00

; external perimeters extrusion width = 0.40mm
; perimeters extrusion width = 0.40mm
; infill extrusion width = 0.40mm
; solid infill extrusion width = 0.40mm
; top infill extrusion width = 0.40mm

M107
M190 S75 ; set bed temperature
M104 S235 ; set temperature
G28 ; home all axes
G1 Z5 F5000 ; lift nozzle

M109 S235 ; wait for temperature to be reached
G21 ; set units to millimeters
G90 ; use absolute coordinates
M82 ; use absolute distances for extrusion
G92 E0
G1 Z0.250 F7800.000
G1 E-3.00000 F2100.00000
G92 E0
G1 X58.357 Y51.614 F7800.000
G1 E3.00000 F2100.00000
M204 S600
G1 X60.433 Y49.916 E3.09654 F2400.000
G1 X62.916 Y48.903 E3.19307
G1 X65.054 Y48.646 E3.27061
G1 X69.000 Y48.646 E3.41266
G1 X71.652 Y49.044 E3.50919
G1 X74.071 Y50.202 E3.60573 F2400.000
G1 X75.392 Y51.293 E3.66741
G1 X76.911 Y52.813 E3.74475
G1 X78.870 Y55.745 E3.87171
G1 X80.444 Y59.573 E4.02070
G1 X102.217 Y120.415 E6.34698
G1 X102.496 Y121.351 E6.38212
G1 X102.716 Y122.267 E6.41603
G1 X102.937 Y123.667 E6.46708
G1 X103.011 Y124.606 E6.50097
G1 X103.039 Y125.315 E6.52652
G1 X103.039 Y142.315 E7.13850
G1 X102.641 Y144.967 E7.23503
G1 X101.483 Y147.385 E7.33157
G1 X99.666 Y149.358 E7.42811
G1 X97.350 Y150.710 E7.52464
G1 X94.000 Y151.354 E7.64746
G1 X91.000 Y151.354 E7.75545
G1 X88.348 Y150.956 E7.85199
G1 X86.073 Y149.893 E7.94238
G1 X53.547 Y128.747 E9.33899
G1 X52.603 Y128.043 E9.38138
G1 X51.887 Y127.431 E9.41529
G1 X50.884 Y126.428 E9.46635
G1 X50.273 Y125.712 E9.50024
G1 X49.439 Y124.565 E9.55130
G1 X48.947 Y123.762 E9.58520
G1 X48.303 Y122.498 E9.63625
G1 X47.943 Y121.628 E9.67015
G1 X47.504 Y120.280 E9.72119
G1 X47.285 Y119.364 E9.75510
G1 X47.063 Y117.963 E9.80616
G1 X46.989 Y117.023 E9.84010
G1 X46.961 Y116.315 E9.86561
G1 X46.961 Y78.315 E11.23356
G1 X46.989 Y77.606 E11.25911
G1 X47.063 Y76.667 E11.29301
G1 X47.285 Y75.266 E11.34407
G1 X47.504 Y74.350 E11.37798
G1 X47.943 Y73.002 E11.42901
G1 X48.471 Y71.752 E11.47786
G1 X56.871 Y53.846 E12.18986
G1 X58.324 Y51.664 E12.28423
M204 S1500
G1 X58.648 Y51.809 F7800.000
M204 S600
G1 X60.698 Y50.162 E12.37889 F2400.000
G1 X63.147 Y49.204 E12.47355
G1 X65.054 Y48.992 E12.54262
G1 X69.000 Y48.992 E12.68468
G1 X71.599 Y49.390 E12.77933
G1 X73.961 Y50.547 E12.87399 F2400.000
G1 X75.147 Y51.538 E12.92965
G1 X76.666 Y53.057 E13.00698
G1 X78.550 Y55.878 E13.12908
G1 X80.118 Y59.689 E13.27745
G1 X101.891 Y120.532 E15.60374
G1 X102.159 Y121.431 E15.63753
G1 X102.379 Y122.348 E15.67144
G1 X102.592 Y123.694 E15.72053
G1 X102.666 Y124.633 E15.75442
G1 X102.693 Y125.315 E15.77899
G1 X102.693 Y142.315 E16.39097
G1 X102.295 Y144.914 E16.48563
G1 X101.138 Y147.276 E16.58029
G1 X99.328 Y149.183 E16.67495
G1 X97.031 Y150.462 E16.76960
G1 X94.000 Y151.008 E16.88047
G1 X91.000 Y151.008 E16.98847
G1 X88.401 Y150.610 E17.08312
G1 X86.262 Y149.603 E17.16822
G1 X53.735 Y128.457 E18.56484
G1 X52.828 Y127.779 E18.60560
G1 X52.112 Y127.168 E18.63951
G1 X51.147 Y126.203 E18.68862
G1 X50.536 Y125.487 E18.72251
G1 X49.734 Y124.384 E18.77161
G1 X49.242 Y123.581 E18.80551
G1 X48.623 Y122.366 E18.85460
G1 X48.263 Y121.496 E18.88850
G1 X47.841 Y120.199 E18.93759
G1 X47.621 Y119.283 E18.97150
G1 X47.408 Y117.936 E19.02060
G1 X47.334 Y116.996 E19.05454
G1 X47.307 Y116.315 E19.07907
G1 X47.307 Y78.315 E20.44702
G1 X47.334 Y77.633 E20.47159
G1 X47.408 Y76.694 E20.50549
G1 X47.621 Y75.347 E20.55459
G1 X47.841 Y74.431 E20.58850
G1 X48.263 Y73.135 E20.63758
G1 X48.784 Y71.899 E20.68585
G1 X57.184 Y53.993 E21.39785
G1 X58.615 Y51.859 E21.49035
M204 S1500
G1 X58.939 Y52.005 F7800.000
M204 S600
G1 X60.962 Y50.410 E21.58310 F2400.000
G1 X63.376 Y49.509 E21.67584
G1 X65.054 Y49.339 E21.73657
G1 X69.000 Y49.339 E21.87862
G1 X71.545 Y49.736 E21.97136
G1 X73.848 Y50.891 E22.06410 F2400.000
G1 X74.902 Y51.783 E22.11380
G1 X76.421 Y53.302 E22.19113
G1 X78.230 Y56.010 E22.30836
G1 X79.792 Y59.806 E22.45613
G1 X101.565 Y120.649 E24.78241
G1 X101.822 Y121.512 E24.81485
G1 X102.042 Y122.428 E24.84877
G1 X102.247 Y123.722 E24.89590
G1 X102.321 Y124.660 E24.92979
G1 X102.346 Y125.315 E24.95338
G1 X102.346 Y142.315 E25.56536
G1 X101.949 Y144.860 E25.65811
G1 X100.794 Y147.163 E25.75085
G1 X98.992 Y149.004 E25.84359
G1 X96.714 Y150.208 E25.93633
G1 X94.000 Y150.661 E26.03538
G1 X91.000 Y150.661 E26.14338
G1 X88.455 Y150.264 E26.23612
G1 X86.451 Y149.313 E26.31597
G1 X53.924 Y128.167 E27.71258
G1 X53.053 Y127.516 E27.75172
G1 X52.337 Y126.904 E27.78563
G1 X51.411 Y125.978 E27.83278
G1 X50.799 Y125.262 E27.86667
G1 X50.029 Y124.203 E27.91382
G1 X49.538 Y123.400 E27.94771
G1 X48.943 Y122.233 E27.99485
G1 X48.583 Y121.363 E28.02875
G1 X48.178 Y120.118 E28.07588
G1 X47.958 Y119.202 E28.10979
G1 X47.753 Y117.908 E28.15694
G1 X47.679 Y116.969 E28.19087
G1 X47.654 Y116.315 E28.21443
G1 X47.654 Y78.315 E29.58238
G1 X47.679 Y77.660 E29.60597
G1 X47.753 Y76.722 E29.63987
G1 X47.958 Y75.428 E29.68701
G1 X48.178 Y74.512 E29.72093
G1 X48.583 Y73.267 E29.76805
G1 X49.098 Y72.046 E29.81575
G1 X57.498 Y54.140 E30.52775
G1 X58.905 Y52.055 E30.61832
M204 S1500
G1 E27.61832 F2100.00000
G92 E0
G1 X93.454 Y141.769 F7800.000
G1 E3.00000 F2100.00000
M204 S600
G1 X91.546 Y141.769 E3.06866 F2400.000
G1 X91.546 Y128.292 E3.55379
G1 X91.468 Y127.297 E3.58975
G1 X91.228 Y126.292 E3.62695
G1 X90.834 Y125.342 E3.66394
G1 X90.297 Y124.466 E3.70093
G1 X89.637 Y123.693 E3.73755
G1 X88.849 Y123.018 E3.77489
G1 X87.973 Y122.481 E3.81189
G1 X87.023 Y122.087 E3.84888
G1 X86.024 Y121.848 E3.88587
G1 X85.021 Y121.769 E3.92208
G1 X62.021 Y121.769 E4.75006
G1 X61.147 Y121.700 E4.78163
G1 X60.315 Y121.500 E4.81243
G1 X59.525 Y121.173 E4.84323
G1 X58.795 Y120.726 E4.87402
G1 X58.145 Y120.170 E4.90482
G1 X57.589 Y119.520 E4.93562
G1 X57.142 Y118.790 E4.96642
G1 X56.815 Y118.000 E4.99721
G1 X56.615 Y117.168 E5.02801
G1 X56.546 Y116.293 E5.05958
G1 X56.546 Y78.336 E6.42599
G1 X56.615 Y77.462 E6.45757
G1 X56.815 Y76.631 E6.48835
G1 X57.147 Y75.832 E6.51949
G1 X57.589 Y75.110 E6.54995
G1 X58.145 Y74.460 E6.58075
G1 X58.795 Y73.904 E6.61155
G1 X59.525 Y73.457 E6.64235
G1 X60.315 Y73.130 E6.67314
G1 X61.147 Y72.930 E6.70394
G1 X62.021 Y72.861 E6.73551
G1 X64.021 Y72.861 E6.80751
G1 X65.024 Y72.782 E6.84373
G1 X66.023 Y72.543 E6.88071
G1 X66.973 Y72.149 E6.91770
G1 X67.849 Y71.612 E6.95469
G1 X68.630 Y70.945 E6.99168
G1 X69.297 Y70.164 E7.02867
G1 X69.834 Y69.288 E7.06566
G1 X70.228 Y68.338 E7.10265
G1 X70.467 Y67.339 E7.13964
G1 X70.546 Y66.336 E7.17585
G1 X70.546 Y63.647 E7.27267
G1 X70.376 Y62.431 E7.31687
G1 X69.861 Y61.274 E7.36246
G1 X69.047 Y60.304 E7.40805
G1 X67.997 Y59.595 E7.45364
G1 X66.850 Y59.222 E7.49707
G1 X66.575 Y59.150 E7.50730
G1 X66.370 Y59.061 E7.51536
G1 X66.122 Y58.894 E7.52611
G1 X65.911 Y58.676 E7.53702
G1 X65.746 Y58.411 E7.54828
G1 X65.683 Y58.231 E7.55512
G1 X68.774 Y58.231 E7.66638
G1 X70.056 Y59.514 E7.73165
G1 X71.387 Y62.727 E7.85686
G1 X71.387 Y69.215 E8.09044
G1 X70.137 Y72.532 E8.21802
G1 X68.334 Y74.584 E8.31638
G1 X67.853 Y74.700 E8.33418
G1 X66.979 Y74.769 E8.36575
G1 X64.979 Y74.769 E8.43775
G1 X63.976 Y74.848 E8.47397
G1 X62.977 Y75.087 E8.51096
G1 X62.027 Y75.481 E8.54794
G1 X61.151 Y76.017 E8.58493
G1 X60.370 Y76.685 E8.62192
G1 X59.703 Y77.466 E8.65891
G1 X59.166 Y78.342 E8.69590
G1 X58.772 Y79.292 E8.73289
G1 X58.533 Y80.291 E8.76988
G1 X58.454 Y81.293 E8.80609
G1 X58.454 Y113.336 E9.95960
G1 X58.533 Y114.339 E9.99582
G1 X58.772 Y115.338 E10.03280
G1 X59.166 Y116.288 E10.06979
G1 X59.703 Y117.164 E10.10678
G1 X60.370 Y117.945 E10.14377
G1 X61.151 Y118.612 E10.18076
G1 X62.027 Y119.149 E10.21775
G1 X62.977 Y119.543 E10.25474
G1 X63.976 Y119.782 E10.29173
G1 X64.979 Y119.861 E10.32794
G1 X87.979 Y119.861 E11.15592
G1 X88.853 Y119.930 E11.18749
G1 X89.685 Y120.130 E11.21829
G1 X90.475 Y120.457 E11.24908
G1 X91.205 Y120.904 E11.27988
G1 X91.855 Y121.460 E11.31068
G1 X92.411 Y122.110 E11.34147
G1 X92.858 Y122.840 E11.37227
G1 X93.185 Y123.630 E11.40307
G1 X93.385 Y124.462 E11.43387
G1 X93.454 Y125.336 E11.46544
G1 X93.454 Y141.709 E12.05482
M204 S1500
G1 X93.800 Y142.115 F7800.000
M204 S600
G1 X91.200 Y142.115 E12.14842 F2400.000
G1 X91.200 Y128.306 E12.64553
G1 X91.125 Y127.351 E12.68002
G1 X90.897 Y126.399 E12.71525
G1 X90.525 Y125.500 E12.75028
G1 X90.016 Y124.670 E12.78531
G1 X89.391 Y123.938 E12.81997
G1 X88.645 Y123.299 E12.85535
G1 X87.815 Y122.790 E12.89038
G1 X86.916 Y122.418 E12.92541
G1 X85.970 Y122.191 E12.96043
G1 X85.008 Y122.115 E12.99518
G1 X62.008 Y122.115 E13.82315
G1 X61.093 Y122.043 E13.85619
G1 X60.208 Y121.830 E13.88895
G1 X59.367 Y121.482 E13.92171
G1 X58.591 Y121.007 E13.95447
G1 X57.899 Y120.416 E13.98723
G1 X57.308 Y119.724 E14.01999
G1 X56.833 Y118.948 E14.05275
G1 X56.484 Y118.107 E14.08551
G1 X56.272 Y117.222 E14.11827
G1 X56.200 Y116.307 E14.15132
G1 X56.200 Y78.323 E15.51871
G1 X56.272 Y77.408 E15.55175
G1 X56.484 Y76.523 E15.58450
G1 X56.838 Y75.674 E15.61761
G1 X57.308 Y74.906 E15.65003
G1 X57.899 Y74.214 E15.68279
G1 X58.591 Y73.623 E15.71555
G1 X59.367 Y73.148 E15.74831
G1 X60.208 Y72.799 E15.78107
G1 X61.093 Y72.587 E15.81383
G1 X62.008 Y72.515 E15.84687
G1 X64.008 Y72.515 E15.91887
G1 X64.970 Y72.439 E15.95361
G1 X65.916 Y72.212 E15.98864
G1 X66.815 Y71.840 E16.02366
G1 X67.645 Y71.331 E16.05869
G1 X68.385 Y70.699 E16.09372
G1 X69.016 Y69.960 E16.12874
G1 X69.525 Y69.130 E16.16377
G1 X69.897 Y68.231 E16.19880
G1 X70.124 Y67.285 E16.23382
G1 X70.200 Y66.323 E16.26857
G1 X70.200 Y63.671 E16.36403
G1 X70.039 Y62.527 E16.40560
G1 X69.564 Y61.459 E16.44769
G1 X68.813 Y60.563 E16.48977
G1 X67.844 Y59.909 E16.53186
G1 X66.753 Y59.554 E16.57315
G1 X66.462 Y59.479 E16.58399
G1 X66.203 Y59.366 E16.59417
G1 X65.899 Y59.161 E16.60736
G1 X65.637 Y58.891 E16.62090
G1 X65.432 Y58.561 E16.63488
G1 X65.301 Y58.187 E16.64914
G1 X65.273 Y57.885 E16.66007
G1 X68.917 Y57.885 E16.79125
G1 X70.349 Y59.317 E16.86417
G1 X71.733 Y62.658 E16.99434
G1 X71.733 Y69.279 E17.23267
G1 X70.439 Y72.713 E17.36479
G1 X68.521 Y74.896 E17.46938
G1 X67.907 Y75.043 E17.49211
G1 X66.992 Y75.115 E17.52516
G1 X64.992 Y75.115 E17.59715
G1 X64.030 Y75.191 E17.63190
G1 X63.084 Y75.418 E17.66692
G1 X62.185 Y75.790 E17.70195
G1 X61.355 Y76.299 E17.73698
G1 X60.615 Y76.930 E17.77200
G1 X59.984 Y77.670 E17.80703
G1 X59.475 Y78.500 E17.84206
G1 X59.103 Y79.399 E17.87708
G1 X58.876 Y80.345 E17.91211
G1 X58.800 Y81.307 E17.94685
G1 X58.800 Y113.323 E19.09938
G1 X58.876 Y114.285 E19.13412
G1 X59.103 Y115.231 E19.16915
G1 X59.475 Y116.130 E19.20418
G1 X59.984 Y116.960 E19.23920
G1 X60.615 Y117.699 E19.27423
G1 X61.355 Y118.331 E19.30926
G1 X62.185 Y118.840 E19.34428
G1 X63.084 Y119.212 E19.37931
G1 X64.030 Y119.439 E19.41434
G1 X64.992 Y119.515 E19.44908
G1 X87.992 Y119.515 E20.27705
G1 X88.907 Y119.587 E20.31010
G1 X89.792 Y119.799 E20.34286
G1 X90.633 Y120.148 E20.37562
G1 X91.409 Y120.623 E20.40838
G1 X92.101 Y121.214 E20.44114
G1 X92.692 Y121.906 E20.47390
G1 X93.167 Y122.682 E20.50666
G1 X93.516 Y123.523 E20.53942
G1 X93.728 Y124.408 E20.57218
G1 X93.800 Y125.323 E20.60522
G1 X93.800 Y142.055 E21.20756
M204 S1500
G1 X93.454 Y141.915 F7800.000
G1 X91.747 Y141.031 F7800.000
M204 S600
G1 X92.283 Y141.568 E21.23503 F2400.000
G1 X92.776 Y141.568 E21.25289
G1 X91.747 Y140.539 E21.30562
G1 X91.747 Y140.046 E21.32348
G1 X93.241 Y141.539 E21.40001
G1 X93.253 Y141.058 E21.41745
G1 X91.747 Y139.553 E21.49459
G1 X91.747 Y139.060 E21.51244
G1 X93.253 Y140.565 E21.58958
G1 X93.253 Y140.072 E21.60744
G1 X91.747 Y138.567 E21.68457
G1 X91.747 Y138.074 E21.70243
G1 X93.253 Y139.579 E21.77956
G1 X93.253 Y139.086 E21.79742
G1 X91.747 Y137.581 E21.87456
G1 X91.747 Y137.088 E21.89241
G1 X93.253 Y138.593 E21.96955
G1 X93.253 Y138.101 E21.98741
G1 X91.747 Y136.595 E22.06454
G1 X91.747 Y136.102 E22.08240
G1 X93.253 Y137.608 E22.15953
G1 X93.253 Y137.115 E22.17739
G1 X91.747 Y135.609 E22.25453
G1 X91.747 Y135.116 E22.27238
G1 X93.253 Y136.622 E22.34952
G1 X93.253 Y136.129 E22.36738
G1 X91.747 Y134.623 E22.44451
G1 X91.747 Y134.130 E22.46237
G1 X93.253 Y135.636 E22.53950
G1 X93.253 Y135.143 E22.55736
G1 X91.747 Y133.637 E22.63450
G1 X91.747 Y133.144 E22.65235
G1 X93.253 Y134.650 E22.72949
G1 X93.253 Y134.157 E22.74735
G1 X91.747 Y132.651 E22.82448
G1 X91.747 Y132.159 E22.84234
G1 X93.253 Y133.664 E22.91947
G1 X93.253 Y133.171 E22.93733
G1 X91.747 Y131.666 E23.01447
G1 X91.747 Y131.173 E23.03232
G1 X93.253 Y132.678 E23.10946
G1 X93.253 Y132.185 E23.12732
G1 X91.747 Y130.680 E23.20445
G1 X91.747 Y130.187 E23.22231
G1 X93.253 Y131.692 E23.29944
G1 X93.253 Y131.199 E23.31730
G1 X91.747 Y129.694 E23.39444
G1 X91.747 Y129.201 E23.41229
G1 X93.253 Y130.706 E23.48943
G1 X93.253 Y130.213 E23.50729
G1 X91.747 Y128.708 E23.58442
G1 X91.747 Y128.215 E23.60228
G1 X93.253 Y129.721 E23.67941
G1 X93.253 Y129.228 E23.69727
G1 X91.706 Y127.681 E23.77653
G1 X91.657 Y127.139 E23.79625
G1 X93.253 Y128.735 E23.87803
G1 X93.253 Y128.242 E23.89588
G1 X91.501 Y126.490 E23.98561
G1 X91.259 Y125.756 E24.01364
G1 X93.253 Y127.749 E24.11577
G1 X93.253 Y127.256 E24.13363
G1 X90.793 Y124.796 E24.25965
M204 S1500
G1 X92.828 Y123.380 F7800.000
M204 S600
G1 X89.935 Y120.487 E24.40786 F2400.000
M204 S1500
G1 X89.193 Y120.238 F7800.000
M204 S600
G1 X93.077 Y124.122 E24.60687 F2400.000
G1 X93.199 Y124.737 E24.62959
G1 X88.578 Y120.116 E24.86636
G1 X88.043 Y120.074 E24.88581
G1 X93.241 Y125.272 E25.15215
G1 X93.253 Y125.777 E25.17044
G1 X87.538 Y120.062 E25.46324
G1 X87.045 Y120.062 E25.48110
G1 X93.253 Y126.270 E25.79915
G1 X93.253 Y126.763 E25.81701
G1 X86.552 Y120.062 E26.16032
M204 S1500
G1 X88.519 Y122.522 F7800.000
M204 S600
G1 X86.059 Y120.062 E26.28634 F2400.000
G1 X85.566 Y120.062 E26.30420
G1 X87.559 Y122.055 E26.40633
G1 X86.824 Y121.813 E26.43437
G1 X85.073 Y120.062 E26.52408
G1 X84.580 Y120.062 E26.54194
G1 X86.176 Y121.657 E26.62368
G1 X85.634 Y121.609 E26.64336
G1 X84.087 Y120.062 E26.72262
G1 X83.594 Y120.062 E26.74048
G1 X85.100 Y121.568 E26.81762
G1 X84.607 Y121.568 E26.83547
G1 X83.101 Y120.062 E26.91261
G1 X82.609 Y120.062 E26.93047
G1 X84.114 Y121.568 E27.00760
G1 X83.621 Y121.568 E27.02546
G1 X82.116 Y120.062 E27.10259
G1 X81.623 Y120.062 E27.12045
G1 X83.128 Y121.568 E27.19759
G1 X82.635 Y121.568 E27.21544
G1 X81.130 Y120.062 E27.29258
G1 X80.637 Y120.062 E27.31044
G1 X82.142 Y121.568 E27.38757
G1 X81.649 Y121.568 E27.40543
G1 X80.144 Y120.062 E27.48256
G1 X79.651 Y120.062 E27.50042
G1 X81.156 Y121.568 E27.57755
G1 X80.663 Y121.568 E27.59541
G1 X79.158 Y120.062 E27.67255
G1 X78.665 Y120.062 E27.69041
G1 X80.171 Y121.568 E27.76754
G1 X79.678 Y121.568 E27.78540
G1 X78.172 Y120.062 E27.86253
G1 X77.679 Y120.062 E27.88039
G1 X79.185 Y121.568 E27.95752
G1 X78.692 Y121.568 E27.97538
G1 X77.186 Y120.062 E28.05252
G1 X76.693 Y120.062 E28.07037
G1 X78.199 Y121.568 E28.14751
G1 X77.706 Y121.568 E28.16537
G1 X76.200 Y120.062 E28.24250
G1 X75.707 Y120.062 E28.26036
G1 X77.213 Y121.568 E28.33749
G1 X76.720 Y121.568 E28.35535
G1 X75.214 Y120.062 E28.43248
G1 X74.722 Y120.062 E28.45034
G1 X76.227 Y121.568 E28.52748
G1 X75.734 Y121.568 E28.54534
G1 X74.229 Y120.062 E28.62247
G1 X73.736 Y120.062 E28.64033
G1 X75.241 Y121.568 E28.71746
G1 X74.748 Y121.568 E28.73532
G1 X73.243 Y120.062 E28.81245
G1 X72.750 Y120.062 E28.83031
G1 X74.255 Y121.568 E28.90745
G1 X73.762 Y121.568 E28.92530
G1 X72.257 Y120.062 E29.00244
G1 X71.764 Y120.062 E29.02030
G1 X73.269 Y121.568 E29.09743
G1 X72.776 Y121.568 E29.11529
G1 X71.271 Y120.062 E29.19242
G1 X70.778 Y120.062 E29.21028
G1 X72.283 Y121.568 E29.28742
G1 X71.791 Y121.568 E29.30527
G1 X70.285 Y120.062 E29.38241
G1 X69.792 Y120.062 E29.40027
G1 X71.298 Y121.568 E29.47740
G1 X70.805 Y121.568 E29.49526
G1 X69.299 Y120.062 E29.57239
G1 X68.806 Y120.062 E29.59025
G1 X70.312 Y121.568 E29.66738
G1 X69.819 Y121.568 E29.68524
G1 X68.313 Y120.062 E29.76238
G1 X67.820 Y120.062 E29.78024
G1 X69.326 Y121.568 E29.85737
G1 X68.833 Y121.568 E29.87523
G1 X67.327 Y120.062 E29.95236
G1 X66.834 Y120.062 E29.97022
G1 X68.340 Y121.568 E30.04735
G1 X67.847 Y121.568 E30.06521
G1 X66.342 Y120.062 E30.14235
G1 X65.849 Y120.062 E30.16020
