; generated by Slic3r 1.2.9 on 2017-04-28 at 17:29:36

; external perimeters extrusion width = 0.40mm
; perimeters extrusion width = 0.40mm
; infill extrusion width = 0.40mm
; solid infill extrusion width = 0.40mm
; top infill extrusion width = 0.40mm

M107
M190 S75 ; set bed temperature
M104 S235 ; set temperature
G28 ; home all axes
G1 Z5 F5000 ; lift nozzle

M109 S235 ; wait for temperature to be reached
G21 ; set units to millimeters
G90 ; use absolute coordinates
M82 ; use absolute distances for extrusion
G92 E0
G1 Z0.250 F7800.000
G1 E-3.00000 F2100.00000
G92 E0
G1 X49.408 Y76.142 F7800.000
G1 E3.00000 F2100.00000
M204 S600
G1 X50.238 Y75.665 E3.03445 F2400.000
G1 X50.863 Y75.357 E3.05955
G1 X51.911 Y74.915 E3.10049
G1 X52.585 Y74.686 E3.12613
G1 X53.200 Y74.505 E3.14921
G1 X54.079 Y74.301 E3.18168
G1 X55.200 Y74.129 E3.22252
G1 X55.849 Y74.066 E3.24600
G1 X56.741 Y74.033 E3.27810
G1 X93.128 Y73.768 E4.58803
G1 X93.634 Y73.779 E4.60625
G1 X94.773 Y73.858 E4.64735 F2400.000
G1 X95.641 Y73.984 E4.67892
G1 X96.114 Y74.076 E4.69628
G1 X96.966 Y74.286 E4.72787
G1 X97.443 Y74.428 E4.74577
G1 X98.316 Y74.737 E4.77912
G1 X98.947 Y75.005 E4.80381
G1 X100.014 Y75.537 E4.84675
G1 X100.814 Y76.017 E4.88031
G1 X101.216 Y76.287 E4.89775
G1 X101.989 Y76.866 E4.93252
G1 X102.517 Y77.316 E4.95748
G1 X103.383 Y78.151 E5.00078
G1 X104.009 Y78.858 E5.03480
G1 X104.314 Y79.239 E5.05236
G1 X104.752 Y79.846 E5.07931
G1 X105.124 Y80.409 E5.10358
G1 X105.600 Y81.239 E5.13802
G1 X105.815 Y81.661 E5.15509
G1 X106.189 Y82.498 E5.18808
G1 X106.358 Y82.934 E5.20492
G1 X106.643 Y83.783 E5.23715
G1 X106.766 Y84.223 E5.25361
G1 X106.964 Y85.076 E5.28514
G1 X107.137 Y86.202 E5.32613
G1 X107.199 Y86.849 E5.34952
G1 X107.233 Y87.807 E5.38404
G1 X107.229 Y112.049 E6.25671
G1 X107.185 Y112.954 E6.28933
G1 X107.140 Y113.410 E6.30584
G1 X107.013 Y114.276 E6.33736
G1 X106.770 Y115.369 E6.37764
G1 X106.500 Y116.271 E6.41156
G1 X106.264 Y116.929 E6.43672
G1 X105.779 Y118.019 E6.47965
G1 X105.329 Y118.857 E6.51391
G1 X104.699 Y119.849 E6.55621
G1 X104.134 Y120.603 E6.59013
G1 X103.338 Y121.506 E6.63344
G1 X102.660 Y122.169 E6.66759
G1 X102.141 Y122.624 E6.69244
G1 X101.762 Y122.927 E6.70990
G1 X100.975 Y123.491 E6.74475
G1 X100.571 Y123.750 E6.76204
G1 X99.784 Y124.202 E6.79471
G1 X99.137 Y124.522 E6.82069
G1 X98.090 Y124.964 E6.86160
G1 X97.218 Y125.256 E6.89471
G1 X96.121 Y125.534 E6.93543
G1 X95.282 Y125.686 E6.96614
G1 X94.152 Y125.812 E7.00708
G1 X93.423 Y125.843 E7.03335
G1 X81.089 Y126.128 E7.47746
G1 X68.839 Y126.232 E7.91848
G1 X56.715 Y126.110 E8.35494
G1 X55.879 Y126.076 E8.38505
G1 X55.226 Y126.021 E8.40865
G1 X54.359 Y125.895 E8.44020
G1 X53.910 Y125.808 E8.45665
G1 X53.210 Y125.639 E8.48258
G1 X52.580 Y125.459 E8.50615
G1 X51.684 Y125.142 E8.54038
G1 X50.594 Y124.657 E8.58332
G1 X49.986 Y124.342 E8.60797
G1 X49.186 Y123.861 E8.64157
G1 X48.763 Y123.576 E8.65993
G1 X48.212 Y123.167 E8.68464
G1 X47.483 Y122.563 E8.71872
G1 X47.108 Y122.216 E8.73711
G1 X46.445 Y121.539 E8.77122
G1 X45.990 Y121.020 E8.79606
G1 X45.686 Y120.639 E8.81362
G1 X45.123 Y119.853 E8.84842
G1 X44.863 Y119.449 E8.86571
G1 X44.523 Y118.862 E8.89014
G1 X44.092 Y118.015 E8.92435
G1 X43.650 Y116.967 E8.96530
G1 X43.357 Y116.095 E8.99840
G1 X43.234 Y115.655 E9.01485
G1 X43.036 Y114.802 E9.04638
G1 X42.863 Y113.677 E9.08736
G1 X42.801 Y113.029 E9.11080
G1 X42.767 Y112.072 E9.14527
G1 X42.767 Y88.072 E10.00924
G1 X42.813 Y86.951 E10.04962
G1 X42.889 Y86.256 E10.07480
G1 X43.071 Y85.175 E10.11425
G1 X43.285 Y84.300 E10.14669
G1 X43.427 Y83.822 E10.16462
G1 X43.736 Y82.950 E10.19795
G1 X44.005 Y82.319 E10.22263
G1 X44.537 Y81.250 E10.26560
G1 X44.898 Y80.643 E10.29103
G1 X45.286 Y80.050 E10.31654
G1 X45.866 Y79.276 E10.35137
G1 X46.316 Y78.749 E10.37631
G1 X47.150 Y77.882 E10.41962
G1 X47.860 Y77.255 E10.45371
G1 X48.238 Y76.952 E10.47114
G1 X48.845 Y76.513 E10.49813
G1 X49.358 Y76.175 E10.52023
M204 S1500
G1 X49.588 Y76.438 F7800.000
M204 S600
G1 X50.403 Y75.970 E10.55405 F2400.000
G1 X51.005 Y75.673 E10.57823
G1 X52.029 Y75.241 E10.61824
G1 X52.695 Y75.015 E10.64357
G1 X53.286 Y74.840 E10.66576
G1 X54.149 Y74.640 E10.69764
G1 X55.246 Y74.472 E10.73759
G1 X55.871 Y74.412 E10.76020
G1 X56.743 Y74.379 E10.79162
G1 X93.130 Y74.114 E12.10154
G1 X93.617 Y74.125 E12.11906
G1 X94.731 Y74.202 E12.15926 F2400.000
G1 X95.582 Y74.325 E12.19024
G1 X96.040 Y74.414 E12.20700
G1 X96.875 Y74.620 E12.23799
G1 X97.335 Y74.757 E12.25527
G1 X98.192 Y75.060 E12.28800
G1 X98.799 Y75.319 E12.31174
G1 X99.843 Y75.839 E12.35373
G1 X100.628 Y76.310 E12.38667
G1 X101.016 Y76.570 E12.40348
G1 X101.775 Y77.138 E12.43761
G1 X102.282 Y77.571 E12.46161
G1 X103.129 Y78.387 E12.50397
G1 X103.744 Y79.081 E12.53734
G1 X104.038 Y79.448 E12.55427
G1 X104.471 Y80.048 E12.58088
G1 X104.828 Y80.589 E12.60423
G1 X105.295 Y81.403 E12.63804
G1 X105.502 Y81.811 E12.65449
G1 X105.869 Y82.632 E12.68686
G1 X106.033 Y83.052 E12.70309
G1 X106.312 Y83.885 E12.73472
G1 X106.431 Y84.309 E12.75058
G1 X106.624 Y85.147 E12.78152
G1 X106.793 Y86.247 E12.82161
G1 X106.853 Y86.870 E12.84414
G1 X106.886 Y87.807 E12.87788
G1 X106.884 Y112.016 E13.74938
G1 X106.839 Y112.928 E13.78226
G1 X106.796 Y113.368 E13.79817
G1 X106.675 Y114.195 E13.82824
G1 X106.433 Y115.286 E13.86848
G1 X106.243 Y115.950 E13.89335
G1 X105.940 Y116.806 E13.92602
G1 X105.466 Y117.871 E13.96800
G1 X105.032 Y118.679 E14.00099
G1 X104.431 Y119.628 E14.04145
G1 X103.862 Y120.389 E14.07565
G1 X103.083 Y121.271 E14.11800
G1 X102.430 Y121.909 E14.15088
G1 X101.918 Y122.359 E14.17541
G1 X101.553 Y122.650 E14.19223
G1 X100.781 Y123.204 E14.22645
G1 X100.391 Y123.454 E14.24312
G1 X99.619 Y123.897 E14.27516
G1 X98.995 Y124.206 E14.30021
G1 X97.972 Y124.638 E14.34020
G1 X97.116 Y124.925 E14.37271
G1 X96.044 Y125.196 E14.41252
G1 X95.236 Y125.343 E14.44206
G1 X94.130 Y125.467 E14.48212
G1 X93.415 Y125.497 E14.50790
G1 X81.082 Y125.781 E14.95199
G1 X68.836 Y125.885 E15.39285
G1 X56.718 Y125.764 E15.82908
G1 X55.896 Y125.730 E15.85871
G1 X55.268 Y125.677 E15.88141
G1 X54.417 Y125.553 E15.91236
G1 X53.961 Y125.464 E15.92909
G1 X53.293 Y125.302 E15.95382
G1 X52.688 Y125.129 E15.97649
G1 X52.034 Y124.902 E16.00142
G1 X51.201 Y124.560 E16.03382
G1 X50.157 Y124.040 E16.07580
G1 X49.372 Y123.569 E16.10877
G1 X48.984 Y123.309 E16.12558
G1 X48.225 Y122.740 E16.15971
G1 X47.718 Y122.308 E16.18370
G1 X46.853 Y121.473 E16.22698
G1 X46.239 Y120.778 E16.26037
G1 X45.947 Y120.410 E16.27729
G1 X45.423 Y119.680 E16.30963
G1 X45.048 Y119.081 E16.33505
G1 X44.716 Y118.497 E16.35923
G1 X44.498 Y118.068 E16.37658
G1 X44.140 Y117.270 E16.40805
G1 X43.975 Y116.849 E16.42433
G1 X43.688 Y115.993 E16.45683
G1 X43.569 Y115.569 E16.47269
G1 X43.375 Y114.732 E16.50363
G1 X43.207 Y113.631 E16.54370
G1 X43.147 Y113.007 E16.56627
G1 X43.114 Y112.072 E16.59997
G1 X43.114 Y88.072 E17.46394
G1 X43.146 Y87.186 E17.49585
G1 X43.201 Y86.534 E17.51939
G1 X43.329 Y85.660 E17.55121
G1 X43.567 Y84.593 E17.59056
G1 X43.749 Y83.953 E17.61450
G1 X44.060 Y83.073 E17.64810
G1 X44.318 Y82.467 E17.67183
G1 X44.534 Y82.008 E17.69010
G1 X44.962 Y81.210 E17.72267
G1 X45.569 Y80.251 E17.76354
G1 X45.988 Y79.685 E17.78888
G1 X46.570 Y78.983 E17.82171
G1 X46.917 Y78.608 E17.84010
G1 X47.386 Y78.136 E17.86407
G1 X48.102 Y77.504 E17.89844
G1 X48.655 Y77.075 E17.92362
G1 X49.538 Y76.471 E17.96214
M204 S1500
G1 X49.768 Y76.734 F7800.000
M204 S600
G1 X50.567 Y76.275 E17.99533 F2400.000
G1 X51.146 Y75.989 E18.01858
G1 X52.147 Y75.566 E18.05767
G1 X52.805 Y75.343 E18.08269
G1 X53.373 Y75.176 E18.10400
G1 X54.219 Y74.980 E18.13528
G1 X55.292 Y74.815 E18.17433
G1 X56.064 Y74.749 E18.20224
G1 X56.746 Y74.726 E18.22680
G1 X93.133 Y74.461 E19.53673
G1 X93.600 Y74.470 E19.55355
G1 X94.689 Y74.545 E19.59285 F2400.000
G1 X95.524 Y74.667 E19.62324
G1 X95.965 Y74.753 E19.63940
G1 X96.785 Y74.954 E19.66978
G1 X97.228 Y75.086 E19.68644
G1 X98.069 Y75.384 E19.71855
G1 X98.651 Y75.632 E19.74134
G1 X99.672 Y76.140 E19.78239
G1 X100.442 Y76.602 E19.81470
G1 X100.815 Y76.852 E19.83088
G1 X101.560 Y77.410 E19.86438
G1 X102.047 Y77.825 E19.88742
G1 X102.876 Y78.623 E19.92882
G1 X103.479 Y79.304 E19.96157
G1 X103.761 Y79.657 E19.97785
G1 X104.189 Y80.249 E20.00414
G1 X104.532 Y80.769 E20.02655
G1 X104.991 Y81.568 E20.05974
G1 X105.190 Y81.960 E20.07556
G1 X105.550 Y82.766 E20.10732
G1 X105.707 Y83.170 E20.12294
G1 X105.981 Y83.987 E20.15397
G1 X106.095 Y84.395 E20.16923
G1 X106.285 Y85.217 E20.19958
G1 X106.450 Y86.293 E20.23877
G1 X106.508 Y86.892 E20.26043
G1 X106.540 Y87.807 E20.29339
G1 X106.537 Y112.008 E21.16459
G1 X106.494 Y112.903 E21.19687
G1 X106.452 Y113.326 E21.21218
G1 X106.334 Y114.137 E21.24166
G1 X106.097 Y115.203 E21.28099
G1 X105.914 Y115.843 E21.30494
G1 X105.616 Y116.682 E21.33699
G1 X105.152 Y117.723 E21.37803
G1 X104.736 Y118.500 E21.40974
G1 X104.149 Y119.428 E21.44927
G1 X103.590 Y120.174 E21.48283
G1 X102.829 Y121.036 E21.52423
G1 X102.201 Y121.650 E21.55584
G1 X101.344 Y122.374 E21.59623
G1 X100.586 Y122.918 E21.62981
G1 X100.211 Y123.158 E21.64585
G1 X99.454 Y123.592 E21.67726
G1 X98.853 Y123.890 E21.70139
G1 X97.854 Y124.312 E21.74046
G1 X97.013 Y124.594 E21.77236
G1 X95.966 Y124.859 E21.81127
G1 X95.191 Y124.999 E21.83963
G1 X94.109 Y125.121 E21.87882
G1 X93.407 Y125.151 E21.90412
G1 X81.075 Y125.435 E22.34817
G1 X68.833 Y125.539 E22.78888
G1 X56.722 Y125.418 E23.22488
G1 X55.913 Y125.384 E23.25403
G1 X55.310 Y125.333 E23.27582
G1 X54.475 Y125.212 E23.30619
G1 X53.376 Y124.966 E23.34672
G1 X52.795 Y124.800 E23.36848
G1 X52.149 Y124.575 E23.39310
G1 X51.348 Y124.247 E23.42425
G1 X50.328 Y123.739 E23.46528
G1 X49.558 Y123.277 E23.49762
G1 X49.184 Y123.026 E23.51380
G1 X48.440 Y122.469 E23.54730
G1 X47.953 Y122.053 E23.57033
G1 X47.107 Y121.237 E23.61266
G1 X46.504 Y120.555 E23.64541
G1 X46.223 Y120.201 E23.66169
G1 X45.710 Y119.485 E23.69340
G1 X45.349 Y118.909 E23.71788
G1 X45.021 Y118.333 E23.74174
G1 X44.810 Y117.919 E23.75847
G1 X44.460 Y117.136 E23.78933
G1 X44.301 Y116.731 E23.80500
G1 X44.019 Y115.891 E23.83689
G1 X43.905 Y115.483 E23.85215
G1 X43.715 Y114.661 E23.88250
G1 X43.550 Y113.586 E23.92168
G1 X43.492 Y112.986 E23.94338
G1 X43.460 Y112.072 E23.97630
G1 X43.460 Y88.072 E24.84027
G1 X43.492 Y87.203 E24.87157
G1 X43.545 Y86.576 E24.89422
G1 X43.670 Y85.718 E24.92545
G1 X43.903 Y84.675 E24.96389
G1 X44.078 Y84.060 E24.98692
G1 X44.384 Y83.197 E25.01989
G1 X44.631 Y82.614 E25.04268
G1 X44.848 Y82.155 E25.06094
G1 X45.258 Y81.389 E25.09225
G1 X45.851 Y80.451 E25.13218
G1 X46.265 Y79.893 E25.15720
G1 X46.825 Y79.218 E25.18876
G1 X47.171 Y78.843 E25.20715
G1 X47.622 Y78.389 E25.23017
G1 X48.324 Y77.769 E25.26390
G1 X48.856 Y77.357 E25.28811
G1 X49.717 Y76.767 E25.32570
M204 S1500
G1 E22.32570 F2100.00000
G92 E0
G1 X70.742 Y115.137 F7800.000
G1 E3.00000 F2100.00000
M204 S600
G1 X70.435 Y115.321 E3.01287 F2400.000
G1 X70.110 Y115.474 E3.02581
G1 X69.776 Y115.592 E3.03856
G1 X69.440 Y115.675 E3.05101
G1 X69.107 Y115.723 E3.06312
G1 X68.751 Y115.741 E3.07597
G1 X68.137 Y115.685 E3.09817
G1 X67.799 Y115.607 E3.11066
G1 X67.473 Y115.497 E3.12303
G1 X67.153 Y115.354 E3.13565
G1 X66.844 Y115.177 E3.14847
G1 X66.552 Y114.967 E3.16143
G1 X66.278 Y114.726 E3.17455
G1 X66.015 Y114.434 E3.18868
G1 X65.819 Y114.172 E3.20047
G1 X65.635 Y113.866 E3.21334
G1 X65.481 Y113.541 E3.22628
G1 X65.363 Y113.207 E3.23903
G1 X65.281 Y112.871 E3.25148
G1 X65.232 Y112.538 E3.26359
G1 X65.215 Y112.182 E3.27644
G1 X65.270 Y111.567 E3.29864
G1 X65.349 Y111.229 E3.31114
G1 X65.458 Y110.904 E3.32350
G1 X65.601 Y110.584 E3.33612
G1 X65.779 Y110.275 E3.34894
G1 X65.988 Y109.982 E3.36189
G1 X66.230 Y109.709 E3.37502
G1 X66.521 Y109.446 E3.38915
G1 X66.783 Y109.250 E3.40094
G1 X67.089 Y109.065 E3.41381
G1 X67.415 Y108.912 E3.42675
G1 X67.749 Y108.794 E3.43951
G1 X68.096 Y108.709 E3.45238
G1 X68.683 Y108.649 E3.47362 F2400.000
G1 X69.055 Y108.658 E3.48701
G1 X69.399 Y108.704 E3.49951
G1 X69.726 Y108.780 E3.51160
G1 X70.052 Y108.889 E3.52396
G1 X70.372 Y109.032 E3.53658
G1 X70.680 Y109.209 E3.54940
G1 X70.973 Y109.419 E3.56236
G1 X71.246 Y109.661 E3.57548
G1 X71.510 Y109.952 E3.58962
G1 X71.706 Y110.214 E3.60141
G1 X71.890 Y110.520 E3.61427
G1 X72.043 Y110.845 E3.62722
G1 X72.161 Y111.179 E3.63997
G1 X72.244 Y111.515 E3.65241
G1 X72.292 Y111.848 E3.66453
G1 X72.310 Y112.204 E3.67737
G1 X72.254 Y112.819 E3.69957
G1 X72.176 Y113.157 E3.71207
G1 X72.067 Y113.482 E3.72443
G1 X71.923 Y113.802 E3.73705
G1 X71.746 Y114.111 E3.74987
G1 X71.536 Y114.404 E3.76283
G1 X71.295 Y114.677 E3.77595
G1 X71.004 Y114.940 E3.79009
G1 X70.790 Y115.101 E3.79972
M204 S1500
G1 X70.548 Y114.849 F7800.000
M204 S600
G1 X70.272 Y115.015 E3.81132 F2400.000
G1 X69.978 Y115.153 E3.82300
G1 X69.677 Y115.260 E3.83451
G1 X69.374 Y115.334 E3.84574
G1 X69.074 Y115.378 E3.85666
G1 X68.758 Y115.393 E3.86803
G1 X68.192 Y115.342 E3.88851
G1 X67.893 Y115.273 E3.89955
G1 X67.599 Y115.174 E3.91071
G1 X67.310 Y115.045 E3.92209
G1 X67.032 Y114.885 E3.93366
G1 X66.768 Y114.696 E3.94535
G1 X66.522 Y114.479 E3.95715
G1 X66.283 Y114.214 E3.97000
G1 X66.107 Y113.979 E3.98059
G1 X65.940 Y113.703 E3.99219
G1 X65.802 Y113.409 E4.00387
G1 X65.696 Y113.108 E4.01538
G1 X65.621 Y112.805 E4.02661
G1 X65.577 Y112.505 E4.03752
G1 X65.562 Y112.189 E4.04890
G1 X65.613 Y111.622 E4.06938
G1 X65.682 Y111.324 E4.08042
G1 X65.781 Y111.030 E4.09157
G1 X65.910 Y110.741 E4.10296
G1 X66.070 Y110.463 E4.11453
G1 X66.260 Y110.199 E4.12622
G1 X66.477 Y109.953 E4.13801
G1 X66.741 Y109.713 E4.15087
G1 X66.977 Y109.537 E4.16145
G1 X67.253 Y109.371 E4.17305
G1 X67.546 Y109.233 E4.18474
G1 X67.848 Y109.126 E4.19625
G1 X68.155 Y109.051 E4.20763
G1 X68.696 Y108.996 E4.22721 F2400.000
G1 X69.028 Y109.004 E4.23915
G1 X69.337 Y109.045 E4.25039
G1 X69.632 Y109.113 E4.26128
G1 X69.925 Y109.212 E4.27243
G1 X70.214 Y109.341 E4.28382
G1 X70.493 Y109.501 E4.29539
G1 X70.757 Y109.690 E4.30708
G1 X71.002 Y109.907 E4.31887
G1 X71.242 Y110.172 E4.33173
G1 X71.418 Y110.407 E4.34231
G1 X71.584 Y110.684 E4.35391
G1 X71.723 Y110.977 E4.36560
G1 X71.829 Y111.279 E4.37711
G1 X71.904 Y111.581 E4.38833
G1 X71.947 Y111.882 E4.39925
G1 X71.963 Y112.197 E4.41063
G1 X71.911 Y112.764 E4.43110
G1 X71.842 Y113.063 E4.44215
G1 X71.744 Y113.356 E4.45330
G1 X71.614 Y113.645 E4.46468
G1 X71.454 Y113.924 E4.47625
G1 X71.265 Y114.188 E4.48795
G1 X71.048 Y114.433 E4.49974
G1 X70.783 Y114.673 E4.51260
G1 X70.596 Y114.813 E4.52102
M204 S1500
G1 X70.565 Y115.171 F7800.000
G1 E1.52102 F2100.00000
G92 E0
G1 X69.107 Y91.723 F7800.000
G1 E3.00000 F2100.00000
M204 S600
G1 X68.751 Y91.741 E3.01285 F2400.000
G1 X68.137 Y91.685 E3.03505
G1 X67.799 Y91.607 E3.04754
G1 X67.473 Y91.497 E3.05991
G1 X67.153 Y91.354 E3.07253
G1 X66.844 Y91.177 E3.08535
G1 X66.552 Y90.967 E3.09830
G1 X66.280 Y90.727 E3.11134
G1 X66.057 Y90.485 E3.12318
G1 X65.820 Y90.174 E3.13726
G1 X65.635 Y89.866 E3.15022
G1 X65.481 Y89.541 E3.16316
G1 X65.363 Y89.207 E3.17591
G1 X65.281 Y88.871 E3.18836
G1 X65.232 Y88.538 E3.20047
G1 X65.215 Y88.182 E3.21332
G1 X65.270 Y87.567 E3.23552
G1 X65.349 Y87.229 E3.24802
G1 X65.458 Y86.904 E3.26038
G1 X65.601 Y86.584 E3.27300
G1 X65.779 Y86.275 E3.28582
G1 X65.988 Y85.982 E3.29877
G1 X66.230 Y85.709 E3.31190
G1 X66.521 Y85.446 E3.32603
G1 X66.783 Y85.250 E3.33782
G1 X67.089 Y85.065 E3.35069
G1 X67.415 Y84.912 E3.36363
G1 X67.749 Y84.794 E3.37639
G1 X68.096 Y84.709 E3.38926
G1 X68.683 Y84.649 E3.41050 F2400.000
G1 X69.055 Y84.658 E3.42389
G1 X69.399 Y84.704 E3.43639
G1 X69.726 Y84.780 E3.44848
G1 X70.052 Y84.889 E3.46084
G1 X70.372 Y85.032 E3.47346
G1 X70.680 Y85.209 E3.48628
G1 X70.973 Y85.419 E3.49924
G1 X71.246 Y85.661 E3.51236
G1 X71.510 Y85.952 E3.52650
G1 X71.706 Y86.214 E3.53828
G1 X71.890 Y86.520 E3.55115
G1 X72.043 Y86.845 E3.56409
G1 X72.161 Y87.179 E3.57685
G1 X72.244 Y87.515 E3.58929
G1 X72.292 Y87.848 E3.60141
G1 X72.310 Y88.204 E3.61425
G1 X72.254 Y88.819 E3.63645
G1 X72.176 Y89.157 E3.64895
G1 X72.067 Y89.482 E3.66131
G1 X71.923 Y89.802 E3.67393
G1 X71.746 Y90.111 E3.68675
G1 X71.536 Y90.404 E3.69971
G1 X71.295 Y90.677 E3.71283
