; generated by Slic3r 1.2.9 on 2017-04-28 at 17:31:57

; external perimeters extrusion width = 0.40mm
; perimeters extrusion width = 0.40mm
; infill extrusion width = 0.40mm
; solid infill extrusion width = 0.40mm
; top infill extrusion width = 0.40mm

M107
M190 S75 ; set bed temperature
M104 S235 ; set temperature
G28 ; home all axes
G1 Z5 F5000 ; lift nozzle

M109 S235 ; wait for temperature to be reached
G21 ; set units to millimeters
G90 ; use absolute coordinates
M82 ; use absolute distances for extrusion
G92 E0
G1 Z0.250 F7800.000
G1 E-3.00000 F2100.00000
G92 E0
G1 X43.591 Y67.404 F7800.000
G1 E3.00000 F2100.00000
M204 S600
G1 X45.907 Y66.052 E3.09654 F2400.000
G1 X49.257 Y65.408 E3.21935
G1 X85.257 Y65.408 E4.51531
G1 X87.909 Y65.806 E4.61184
G1 X90.328 Y66.964 E4.70838 F2400.000
G1 X92.300 Y68.781 E4.80492
G1 X93.653 Y71.097 E4.90145
G1 X94.296 Y74.380 E5.02190
G1 X94.527 Y105.555 E6.14419
G1 X94.527 Y117.622 E6.57858
G1 X94.129 Y120.274 E6.67512
G1 X92.971 Y122.692 E6.77166
G1 X91.154 Y124.665 E6.86819
G1 X88.838 Y126.017 E6.96473
G1 X85.488 Y126.661 E7.08754
G1 X49.488 Y126.661 E8.38350
G1 X46.836 Y126.263 E8.48004
G1 X44.417 Y125.105 E8.57657
G1 X42.445 Y123.288 E8.67311
G1 X41.092 Y120.972 E8.76965
G1 X40.449 Y117.689 E8.89010
G1 X40.218 Y86.514 E10.01238
G1 X40.218 Y74.447 E10.44678
G1 X40.616 Y71.795 E10.54331
G1 X41.774 Y69.376 E10.63985
G1 X43.551 Y67.448 E10.73422
M204 S1500
G1 X43.856 Y67.655 F7800.000
M204 S600
G1 X43.929 Y67.579 E10.73803 F2400.000
G1 X46.226 Y66.300 E10.83268
G1 X49.257 Y65.754 E10.94355
G1 X85.257 Y65.754 E12.23951
G1 X87.857 Y66.152 E12.33417
G1 X90.218 Y67.309 E12.42882 F2400.000
G1 X92.125 Y69.119 E12.52348
G1 X93.404 Y71.416 E12.61814
G1 X93.950 Y74.383 E12.72673
G1 X94.180 Y105.558 E13.84902
G1 X94.180 Y117.622 E14.28332
G1 X93.783 Y120.221 E14.37797
G1 X92.626 Y122.582 E14.47263
G1 X90.816 Y124.490 E14.56729
G1 X88.519 Y125.769 E14.66195
G1 X85.488 Y126.314 E14.77281
G1 X49.488 Y126.314 E16.06877
G1 X46.888 Y125.917 E16.16343
G1 X44.527 Y124.760 E16.25809
G1 X42.620 Y122.950 E16.35275
G1 X41.341 Y120.653 E16.44740
G1 X40.795 Y117.686 E16.55599
G1 X40.565 Y86.511 E17.67828
G1 X40.565 Y74.447 E18.11258
G1 X40.962 Y71.848 E18.20724
G1 X42.119 Y69.486 E18.30190
G1 X43.815 Y67.699 E18.39059
M204 S1500
G1 X44.116 Y67.910 F7800.000
M204 S600
G1 X44.266 Y67.758 E18.39827 F2400.000
G1 X46.543 Y66.554 E18.49102
G1 X49.257 Y66.101 E18.59006
G1 X85.257 Y66.101 E19.88602
G1 X87.803 Y66.498 E19.97877
G1 X90.106 Y67.653 E20.07151 F2400.000
G1 X91.947 Y69.455 E20.16425
G1 X93.150 Y71.733 E20.25699
G1 X93.603 Y74.385 E20.35385
G1 X93.834 Y105.560 E21.47614
G1 X93.834 Y117.622 E21.91034
G1 X93.436 Y120.167 E22.00309
G1 X92.282 Y122.470 E22.09583
G1 X90.479 Y124.311 E22.18857
G1 X88.202 Y125.515 E22.28131
G1 X85.488 Y125.968 E22.38036
G1 X49.488 Y125.968 E23.67632
G1 X46.942 Y125.571 E23.76906
G1 X44.639 Y124.416 E23.86180
G1 X42.799 Y122.613 E23.95455
G1 X41.595 Y120.336 E24.04729
G1 X41.142 Y117.683 E24.14415
G1 X40.911 Y86.509 E25.26643
G1 X40.911 Y74.447 E25.70064
G1 X41.309 Y71.902 E25.79338
G1 X42.463 Y69.599 E25.88612
G1 X44.074 Y67.953 E25.96903
M204 S1500
G1 E22.96903 F2100.00000
G92 E0
G1 X58.856 Y82.178 F7800.000
G1 E3.00000 F2100.00000
M204 S600
G1 X58.391 Y82.397 E3.01850 F2400.000
G1 X57.886 Y82.494 E3.03701
G1 X57.373 Y82.461 E3.05551
G1 X56.884 Y82.302 E3.07402
G1 X56.450 Y82.027 E3.09252
G1 X56.098 Y81.652 E3.11103
G1 X55.851 Y81.202 E3.12953
G1 X55.723 Y80.704 E3.14804
G1 X55.723 Y80.190 E3.16654
G1 X55.851 Y79.692 E3.18505
G1 X56.098 Y79.242 E3.20355
G1 X56.450 Y78.867 E3.22206
G1 X56.889 Y78.589 E3.24075
G1 X57.410 Y78.430 E3.26036
G1 X57.886 Y78.400 E3.27754 F2400.000
G1 X58.391 Y78.497 E3.29605
G1 X58.856 Y78.716 E3.31455
G1 X59.252 Y79.043 E3.33306
G1 X59.554 Y79.459 E3.35156
G1 X59.744 Y79.937 E3.37007
G1 X59.808 Y80.447 E3.38857
G1 X59.744 Y80.957 E3.40707
G1 X59.554 Y81.435 E3.42558
G1 X59.252 Y81.851 E3.44408
G1 X58.902 Y82.140 E3.46043
M204 S1500
G1 X58.669 Y81.884 F7800.000
M204 S600
G1 X58.283 Y82.065 E3.47578 F2400.000
G1 X57.864 Y82.145 E3.49114
G1 X57.438 Y82.118 E3.50649
G1 X57.033 Y81.987 E3.52185
G1 X56.673 Y81.758 E3.53720
G1 X56.381 Y81.447 E3.55256
G1 X56.175 Y81.073 E3.56791
G1 X56.069 Y80.660 E3.58327
G1 X56.069 Y80.234 E3.59862
G1 X56.175 Y79.821 E3.61398
G1 X56.381 Y79.447 E3.62933
G1 X56.673 Y79.136 E3.64469
G1 X57.034 Y78.906 E3.66011
G1 X57.472 Y78.773 E3.67656
G1 X57.864 Y78.749 E3.69072 F2400.000
G1 X58.283 Y78.829 E3.70607
G1 X58.669 Y79.010 E3.72143
G1 X58.998 Y79.282 E3.73678
G1 X59.248 Y79.627 E3.75214
G1 X59.405 Y80.024 E3.76749
G1 X59.459 Y80.447 E3.78284
G1 X59.405 Y80.870 E3.79820
G1 X59.248 Y81.267 E3.81355
G1 X58.998 Y81.612 E3.82891
G1 X58.715 Y81.845 E3.84210
M204 S1500
G1 X58.669 Y82.284 F7800.000
G1 X73.470 Y80.707 F7800.000
M204 S600
G1 X73.470 Y80.187 E3.86080 F2400.000
G1 X73.574 Y79.785 E3.87575
G1 X73.772 Y79.425 E3.89056
G1 X74.121 Y79.041 E3.90925
G1 X74.485 Y78.810 E3.92474
G1 X74.984 Y78.669 E3.94341
G1 X75.388 Y78.643 E3.95798 F2400.000
G1 X75.802 Y78.722 E3.97317
G1 X76.267 Y78.954 E3.99185
G1 X76.582 Y79.215 E4.00658
G1 X76.826 Y79.551 E4.02154
G1 X76.979 Y79.937 E4.03650
G1 X77.015 Y80.220 E4.04676
G1 X77.097 Y80.447 E4.05545
G1 X77.015 Y80.674 E4.06414
G1 X76.979 Y80.957 E4.07441
G1 X76.826 Y81.343 E4.08936
G1 X76.582 Y81.679 E4.10432
G1 X76.279 Y81.929 E4.11844
G1 X75.796 Y82.173 E4.13794
G1 X75.379 Y82.252 E4.15320
G1 X74.863 Y82.204 E4.17188
G1 X74.476 Y82.078 E4.18653
G1 X74.121 Y81.853 E4.20164
G1 X73.772 Y81.469 E4.22033
G1 X73.574 Y81.109 E4.23513
G1 X73.485 Y80.765 E4.24793
M204 S1500
G1 X73.817 Y80.663 F7800.000
M204 S600
G1 X73.817 Y80.231 E4.26347 F2400.000
G1 X73.898 Y79.913 E4.27528
G1 X74.055 Y79.627 E4.28703
G1 X74.346 Y79.308 E4.30257
G1 X74.628 Y79.130 E4.31457
G1 X75.042 Y79.012 E4.33009
G1 X75.366 Y78.992 E4.34176 F2400.000
G1 X75.690 Y79.054 E4.35365
G1 X76.076 Y79.246 E4.36918
G1 X76.327 Y79.454 E4.38090
G1 X76.520 Y79.719 E4.39271
G1 X76.641 Y80.024 E4.40452
G1 X76.676 Y80.302 E4.41460
G1 X76.729 Y80.447 E4.42016
G1 X76.676 Y80.592 E4.42571
G1 X76.641 Y80.870 E4.43580
G1 X76.520 Y81.175 E4.44760
G1 X76.327 Y81.440 E4.45941
G1 X76.081 Y81.644 E4.47091
G1 X75.688 Y81.841 E4.48674
G1 X75.363 Y81.903 E4.49866
G1 X74.933 Y81.863 E4.51418
G1 X74.624 Y81.762 E4.52588
G1 X74.346 Y81.586 E4.53774
G1 X74.055 Y81.267 E4.55328
G1 X73.898 Y80.981 E4.56503
G1 X73.832 Y80.721 E4.57468
M204 S1500
G1 X73.455 Y80.493 F7800.000
G1 E1.57468 F2100.00000
G92 E0
G1 X84.711 Y85.901 F7800.000
G1 E3.00000 F2100.00000
M204 S600
G1 X49.804 Y85.901 E4.25662 F2400.000
G1 X49.804 Y74.993 E4.64927
G1 X84.711 Y74.993 E5.90590
G1 X84.711 Y85.841 E6.29639
M204 S1500
G1 X85.057 Y86.247 F7800.000
M204 S600
G1 X49.457 Y86.247 E7.57795 F2400.000
G1 X49.457 Y74.647 E7.99553
G1 X85.057 Y74.647 E9.27709
G1 X85.057 Y86.187 E9.69252
M204 S1500
G1 X84.711 Y86.047 F7800.000
G1 X84.510 Y75.381 F7800.000
M204 S600
G1 X84.323 Y75.194 E9.70205 F2400.000
G1 X83.833 Y75.194 E9.71973
G1 X84.510 Y75.872 E9.75427
G1 X84.510 Y76.362 E9.77196
G1 X83.342 Y75.194 E9.83150
G1 X82.852 Y75.194 E9.84919
G1 X84.510 Y76.853 E9.93374
G1 X84.510 Y77.343 E9.95143
G1 X82.361 Y75.194 E10.06099
G1 X81.871 Y75.194 E10.07867
G1 X84.510 Y77.834 E10.21325
G1 X84.510 Y78.324 E10.23093
G1 X81.380 Y75.194 E10.39051
G1 X80.889 Y75.194 E10.40819
G1 X84.510 Y78.815 E10.59278
G1 X84.510 Y79.305 E10.61047
G1 X80.399 Y75.194 E10.82006
G1 X79.908 Y75.194 E10.83775
G1 X84.510 Y79.796 E11.07235
G1 X84.510 Y80.286 E11.09004
G1 X79.418 Y75.194 E11.34965
G1 X78.927 Y75.194 E11.36734
G1 X84.510 Y80.777 E11.65196
G1 X84.510 Y81.267 E11.66964
G1 X78.437 Y75.194 E11.97927
G1 X77.946 Y75.194 E11.99696
G1 X84.510 Y81.758 E12.33159
G1 X84.510 Y82.248 E12.34928
G1 X77.456 Y75.194 E12.70893
G1 X76.965 Y75.194 E12.72661
G1 X84.510 Y82.739 E13.11126
G1 X84.510 Y83.229 E13.12895
G1 X76.475 Y75.194 E13.53861
G1 X75.984 Y75.194 E13.55630
G1 X84.510 Y83.720 E13.99097
G1 X84.510 Y84.210 E14.00865
G1 X75.494 Y75.194 E14.46833
G1 X75.003 Y75.194 E14.48602
G1 X84.510 Y84.701 E14.97070
G1 X84.510 Y85.192 E14.98839
G1 X74.513 Y75.194 E15.49809
G1 X74.022 Y75.194 E15.51577
G1 X84.499 Y85.671 E16.04990
G1 X84.037 Y85.700 E16.06658
G1 X73.532 Y75.194 E16.60219
G1 X73.041 Y75.194 E16.61987
G1 X83.547 Y85.700 E17.15548
G1 X83.056 Y85.700 E17.17316
G1 X77.176 Y79.820 E17.47293
G1 X77.295 Y80.429 E17.49531
G1 X82.566 Y85.700 E17.76400
G1 X82.075 Y85.700 E17.78169
G1 X77.191 Y80.815 E18.03072
G1 X77.078 Y81.193 E18.04493
G1 X81.585 Y85.700 E18.27470
G1 X81.094 Y85.700 E18.29238
G1 X76.912 Y81.517 E18.50561
G1 X76.704 Y81.800 E18.51826
G1 X80.604 Y85.700 E18.71708
G1 X80.113 Y85.700 E18.73477
G1 X76.435 Y82.022 E18.92227
G1 X76.132 Y82.210 E18.93511
G1 X79.623 Y85.700 E19.11305
G1 X79.132 Y85.700 E19.13073
G1 X75.797 Y82.364 E19.30078
G1 X75.385 Y82.443 E19.31590
G1 X78.641 Y85.700 E19.48193
G1 X78.151 Y85.700 E19.49962
G1 X74.864 Y82.413 E19.66718
M204 S1500
G1 X74.096 Y82.135 F7800.000
M204 S600
G1 X77.660 Y85.700 E19.84891 F2400.000
G1 X77.170 Y85.700 E19.86659
G1 X66.664 Y75.194 E20.40220
G1 X67.155 Y75.194 E20.41988
G1 X73.567 Y81.606 E20.74678
M204 S1500
G1 X73.271 Y80.819 F7800.000
M204 S600
G1 X67.645 Y75.194 E21.03356 F2400.000
G1 X68.136 Y75.194 E21.05125
G1 X73.269 Y80.328 E21.31296
G1 X73.349 Y79.917 E21.32805
G1 X68.627 Y75.194 E21.56882
G1 X69.117 Y75.194 E21.58650
G1 X73.493 Y79.570 E21.80958
G1 X73.682 Y79.269 E21.82240
G1 X69.608 Y75.194 E22.03015
G1 X70.098 Y75.194 E22.04784
G1 X73.916 Y79.012 E22.24250
G1 X74.188 Y78.794 E22.25508
G1 X70.589 Y75.194 E22.43859
G1 X71.079 Y75.194 E22.45627
G1 X74.500 Y78.615 E22.63067
G1 X74.882 Y78.507 E22.64499
G1 X71.570 Y75.194 E22.81387
G1 X72.060 Y75.194 E22.83155
G1 X75.317 Y78.451 E22.99759
G1 X75.872 Y78.516 E23.01775
G1 X72.551 Y75.194 E23.18710
M204 S1500
G1 X66.174 Y75.194 F7800.000
M204 S600
G1 X76.679 Y85.700 E23.72271 F2400.000
G1 X76.189 Y85.700 E23.74039
G1 X65.683 Y75.194 E24.27600
G1 X65.193 Y75.194 E24.29368
G1 X75.698 Y85.700 E24.82929
G1 X75.208 Y85.700 E24.84697
G1 X64.702 Y75.194 E25.38258
G1 X64.212 Y75.194 E25.40026
G1 X74.717 Y85.700 E25.93587
G1 X74.227 Y85.700 E25.95355
G1 X63.721 Y75.194 E26.48915
G1 X63.231 Y75.194 E26.50684
G1 X73.736 Y85.700 E27.04244
G1 X73.246 Y85.700 E27.06013
G1 X62.740 Y75.194 E27.59573
G1 X62.250 Y75.194 E27.61342
G1 X72.755 Y85.700 E28.14902
G1 X72.265 Y85.700 E28.16671
G1 X61.759 Y75.194 E28.70231
G1 X61.269 Y75.194 E28.72000
G1 X71.774 Y85.700 E29.25560
G1 X71.284 Y85.700 E29.27329
G1 X60.778 Y75.194 E29.80889
G1 X60.288 Y75.194 E29.82658
G1 X70.793 Y85.700 E30.36218
G1 X70.303 Y85.700 E30.37987
G1 X59.797 Y75.194 E30.91547
G1 X59.307 Y75.194 E30.93316
G1 X69.812 Y85.700 E31.46876
G1 X69.322 Y85.700 E31.48644
G1 X58.816 Y75.194 E32.02205
G1 X58.326 Y75.194 E32.03973
G1 X68.831 Y85.700 E32.57534
G1 X68.341 Y85.700 E32.59302
G1 X57.835 Y75.194 E33.12863
G1 X57.345 Y75.194 E33.14631
G1 X67.850 Y85.700 E33.68192
G1 X67.360 Y85.700 E33.69960
G1 X56.854 Y75.194 E34.23521
G1 X56.364 Y75.194 E34.25289
G1 X66.869 Y85.700 E34.78850
G1 X66.379 Y85.700 E34.80618
G1 X55.873 Y75.194 E35.34179
G1 X55.383 Y75.194 E35.35947
G1 X58.483 Y78.294 E35.51752
G1 X57.900 Y78.203 E35.53877
G1 X54.892 Y75.194 E35.69215
G1 X54.401 Y75.194 E35.70983
G1 X57.439 Y78.232 E35.86469
G1 X57.062 Y78.345 E35.87888
G1 X53.911 Y75.194 E36.03952
G1 X53.420 Y75.194 E36.05720
G1 X56.718 Y78.492 E36.22533
G1 X56.418 Y78.682 E36.23815
G1 X52.930 Y75.194 E36.41598
G1 X52.439 Y75.194 E36.43367
G1 X56.166 Y78.921 E36.62365
G1 X55.934 Y79.179 E36.63617
G1 X51.949 Y75.194 E36.83932
G1 X51.458 Y75.194 E36.85700
G1 X55.760 Y79.495 E37.07629
G1 X55.620 Y79.846 E37.08991
G1 X50.968 Y75.194 E37.32709
G1 X50.477 Y75.194 E37.34478
G1 X55.522 Y80.239 E37.60196
G1 X55.522 Y80.729 E37.61965
G1 X50.016 Y75.223 E37.90037
G1 X50.005 Y75.702 E37.91766
G1 X55.663 Y81.361 E38.20613
M204 S1500
G1 X56.824 Y82.522 F7800.000
M204 S600
G1 X60.002 Y85.700 E38.36815 F2400.000
G1 X60.492 Y85.700 E38.38584
G1 X57.466 Y82.673 E38.54014
G1 X57.955 Y82.672 E38.55778
G1 X60.983 Y85.700 E38.71213
G1 X61.473 Y85.700 E38.72982
G1 X58.367 Y82.594 E38.88818
G1 X58.708 Y82.443 E38.90159
G1 X61.964 Y85.700 E39.06760
G1 X62.454 Y85.700 E39.08528
G1 X59.020 Y82.265 E39.26040
G1 X59.288 Y82.043 E39.27296
G1 X62.945 Y85.700 E39.45939
G1 X63.435 Y85.700 E39.47708
G1 X59.516 Y81.780 E39.67691
G1 X59.722 Y81.496 E39.68957
G1 X63.926 Y85.700 E39.90389
G1 X64.416 Y85.700 E39.92158
G1 X59.862 Y81.145 E40.15379
G1 X59.963 Y80.756 E40.16830
G1 X64.907 Y85.700 E40.42037
G1 X65.397 Y85.700 E40.43805
G1 X60.002 Y80.305 E40.71311
G1 X59.908 Y79.720 E40.73446
G1 X65.888 Y85.700 E41.03932
M204 S1500
G1 X59.511 Y85.700 F7800.000
M204 S600
G1 X50.005 Y76.193 E41.52400 F2400.000
G1 X50.005 Y76.684 E41.54168
G1 X59.021 Y85.700 E42.00136
G1 X58.530 Y85.700 E42.01905
G1 X50.005 Y77.174 E42.45371
G1 X50.005 Y77.665 E42.47140
G1 X58.040 Y85.700 E42.88106
G1 X57.549 Y85.700 E42.89874
G1 X50.005 Y78.155 E43.28339
G1 X50.005 Y78.646 E43.30108
G1 X57.059 Y85.700 E43.66072
G1 X56.568 Y85.700 E43.67840
G1 X50.005 Y79.136 E44.01304
G1 X50.005 Y79.627 E44.03072
G1 X56.078 Y85.700 E44.34035
G1 X55.587 Y85.700 E44.35803
G1 X50.005 Y80.117 E44.64265
G1 X50.005 Y80.608 E44.66034
G1 X55.097 Y85.700 E44.91995
G1 X54.606 Y85.700 E44.93763
G1 X50.005 Y81.098 E45.17223
G1 X50.005 Y81.589 E45.18992
G1 X54.116 Y85.700 E45.39951
G1 X53.625 Y85.700 E45.41719
G1 X50.005 Y82.079 E45.60178
G1 X50.005 Y82.570 E45.61946
G1 X53.135 Y85.700 E45.77904
G1 X52.644 Y85.700 E45.79672
G1 X50.005 Y83.060 E45.93129
G1 X50.005 Y83.551 E45.94898
G1 X52.153 Y85.700 E46.05854
G1 X51.663 Y85.700 E46.07622
G1 X50.005 Y84.041 E46.16077
G1 X50.005 Y84.532 E46.17846
G1 X51.172 Y85.700 E46.23800
G1 X50.682 Y85.700 E46.25568
G1 X50.005 Y85.022 E46.29022
G1 X50.005 Y85.513 E46.30790
G1 X50.191 Y85.700 E46.31743
M204 S1500
G1 E43.31743 F2100.00000
G92 E0
G1 X59.974 Y112.132 F7800.000
G1 E3.00000 F2100.00000
M204 S600
G1 X59.785 Y112.610 E3.01850 F2400.000
G1 X59.483 Y113.026 E3.03701
G1 X59.087 Y113.353 E3.05551
G1 X58.621 Y113.572 E3.07402
G1 X58.116 Y113.668 E3.09252
G1 X57.603 Y113.636 E3.11103
G1 X57.115 Y113.477 E3.12953
G1 X56.681 Y113.202 E3.14804
G1 X56.329 Y112.827 E3.16654
G1 X56.081 Y112.377 E3.18505
G1 X55.953 Y111.879 E3.20355
G1 X55.953 Y111.365 E3.22206
G1 X56.081 Y110.867 E3.24056
G1 X56.329 Y110.416 E3.25907
G1 X56.681 Y110.042 E3.27757
G1 X57.119 Y109.763 E3.29627
G1 X57.640 Y109.605 E3.31587
G1 X58.116 Y109.575 E3.33306 F2400.000
G1 X58.621 Y109.671 E3.35156
G1 X59.087 Y109.890 E3.37007
G1 X59.483 Y110.218 E3.38857
G1 X59.785 Y110.634 E3.40707
G1 X59.974 Y111.112 E3.42558
G1 X60.038 Y111.622 E3.44408
G1 X59.982 Y112.072 E3.46043
M204 S1500
G1 X59.636 Y112.045 F7800.000
M204 S600
G1 X59.479 Y112.442 E3.47578 F2400.000
G1 X59.228 Y112.787 E3.49114
G1 X58.899 Y113.058 E3.50649
G1 X58.514 Y113.240 E3.52185
G1 X58.095 Y113.320 E3.53720
G1 X57.669 Y113.293 E3.55256
G1 X57.263 Y113.161 E3.56791
G1 X56.903 Y112.933 E3.58327
G1 X56.611 Y112.622 E3.59862
G1 X56.406 Y112.248 E3.61398
G1 X56.300 Y111.835 E3.62933
G1 X56.300 Y111.409 E3.64468
G1 X56.406 Y110.995 E3.66004
G1 X56.611 Y110.622 E3.67539
G1 X56.903 Y110.311 E3.69075
G1 X57.265 Y110.081 E3.70617
G1 X57.702 Y109.948 E3.72262
G1 X58.095 Y109.924 E3.73678 F2400.000
G1 X58.514 Y110.003 E3.75214
G1 X58.899 Y110.185 E3.76749
G1 X59.228 Y110.457 E3.78284
G1 X59.479 Y110.802 E3.79820
G1 X59.636 Y111.199 E3.81355
G1 X59.689 Y111.622 E3.82891
G1 X59.643 Y111.985 E3.84210
M204 S1500
G1 X59.910 Y112.337 F7800.000
G1 X73.701 Y111.881 F7800.000
M204 S600
G1 X73.701 Y111.362 E3.86080 F2400.000
G1 X73.804 Y110.960 E3.87575
G1 X74.002 Y110.599 E3.89056
G1 X74.352 Y110.215 E3.90925
G1 X74.715 Y109.985 E3.92474
G1 X75.214 Y109.844 E3.94341
G1 X75.618 Y109.818 E3.95798 F2400.000
G1 X76.032 Y109.897 E3.97317
G1 X76.497 Y110.129 E3.99185
G1 X76.812 Y110.390 E4.00658
G1 X77.056 Y110.726 E4.02154
G1 X77.209 Y111.112 E4.03650
G1 X77.245 Y111.395 E4.04676
G1 X77.328 Y111.622 E4.05545
