; generated by Slic3r 1.2.9 on 2017-04-28 at 17:30:01

; external perimeters extrusion width = 0.40mm
; perimeters extrusion width = 0.40mm
; infill extrusion width = 0.40mm
; solid infill extrusion width = 0.40mm
; top infill extrusion width = 0.40mm

M107
M190 S75 ; set bed temperature
M104 S235 ; set temperature
G28 ; home all axes
G1 Z5 F5000 ; lift nozzle

M109 S235 ; wait for temperature to be reached
G21 ; set units to millimeters
G90 ; use absolute coordinates
M82 ; use absolute distances for extrusion
G92 E0
G1 Z0.250 F7800.000
G1 E-3.00000 F2100.00000
G92 E0
G1 X63.640 Y76.335 F7800.000
G1 E3.00000 F2100.00000
M204 S600
G1 X65.739 Y74.667 E3.09654 F2400.000
G1 X68.236 Y73.688 E3.19307
G1 X70.250 Y73.461 E3.26603
G1 X79.750 Y73.461 E3.60803
G1 X82.402 Y73.859 E3.70456 F2400.000
G1 X84.821 Y75.017 E3.80110
G1 X86.793 Y76.834 E3.89764
G1 X88.145 Y79.150 E3.99417
G1 X88.681 Y81.105 E4.06714
G1 X91.181 Y97.105 E4.65011
G1 X91.289 Y98.500 E4.70049
G1 X91.289 Y115.000 E5.29447
G1 X91.270 Y115.588 E5.31566
G1 X91.212 Y116.183 E5.33717
G1 X91.036 Y117.382 E5.38081
G1 X90.527 Y119.079 E5.44458
G1 X90.266 Y119.709 E5.46913
G1 X89.085 Y121.755 E5.55417
G1 X88.686 Y122.274 E5.57771
G1 X87.020 Y123.940 E5.66255
G1 X86.508 Y124.333 E5.68578
G1 X85.772 Y124.841 E5.71797
G1 X84.455 Y125.518 E5.77128
G1 X83.860 Y125.765 E5.79448
G1 X82.056 Y126.300 E5.86219
G1 X80.930 Y126.462 E5.90316
G1 X79.750 Y126.539 E5.94573
G1 X70.250 Y126.539 E6.28772
G1 X69.359 Y126.495 E6.31983
G1 X68.425 Y126.377 E6.35372
G1 X66.969 Y126.061 E6.40735
G1 X66.140 Y125.765 E6.43905
G1 X65.545 Y125.518 E6.46225
G1 X64.448 Y124.974 E6.50630
G1 X63.494 Y124.334 E6.54768
G1 X62.982 Y123.941 E6.57090
G1 X62.205 Y123.271 E6.60784
G1 X61.310 Y122.269 E6.65622
G1 X60.562 Y121.260 E6.70143
G1 X59.733 Y119.708 E6.76476
G1 X59.380 Y118.842 E6.79842
G1 X58.873 Y116.826 E6.87325
G1 X58.779 Y116.105 E6.89944
G1 X58.711 Y115.000 E6.93929
G1 X58.711 Y98.500 E7.53328
G1 X58.819 Y97.105 E7.58366
G1 X61.319 Y81.105 E8.16663
G1 X62.122 Y78.546 E8.26317
G1 X63.606 Y76.385 E8.35754
M204 S1500
G1 X63.933 Y76.540 F7800.000
M204 S600
G1 X63.963 Y76.497 E8.35945 F2400.000
G1 X66.046 Y74.892 E8.45411
G1 X68.513 Y73.983 E8.54876
G1 X70.250 Y73.807 E8.61160
G1 X79.750 Y73.807 E8.95360
G1 X82.349 Y74.205 E9.04826 F2400.000
G1 X84.711 Y75.362 E9.14291
G1 X86.618 Y77.172 E9.23757
G1 X87.897 Y79.469 E9.33223
G1 X88.338 Y81.158 E9.39507
G1 X90.838 Y97.158 E9.97805
G1 X90.943 Y98.500 E10.02650
G1 X90.943 Y115.000 E10.62048
G1 X90.924 Y115.566 E10.64085
G1 X90.868 Y116.138 E10.66154
G1 X90.696 Y117.316 E10.70440
G1 X90.207 Y118.948 E10.76573
G1 X89.946 Y119.577 E10.79024
G1 X88.810 Y121.544 E10.87203
G1 X88.412 Y122.063 E10.89557
G1 X86.809 Y123.665 E10.97716
G1 X86.297 Y124.058 E11.00039
G1 X85.589 Y124.547 E11.03136
G1 X84.322 Y125.198 E11.08262
G1 X83.727 Y125.445 E11.10583
G1 X81.992 Y125.959 E11.17096
G1 X80.885 Y126.118 E11.21125
G1 X79.750 Y126.193 E11.25218
G1 X70.250 Y126.193 E11.59417
G1 X69.393 Y126.150 E11.62506
G1 X68.470 Y126.034 E11.65854
G1 X67.070 Y125.730 E11.71013
G1 X66.273 Y125.445 E11.74061
G1 X65.677 Y125.198 E11.76381
G1 X64.623 Y124.675 E11.80618
G1 X63.705 Y124.059 E11.84598
G1 X63.193 Y123.666 E11.86920
G1 X62.445 Y123.022 E11.90472
G1 X61.584 Y122.058 E11.95126
G1 X60.850 Y121.068 E11.99564
G1 X60.053 Y119.576 E12.05653
G1 X59.704 Y118.720 E12.08981
G1 X59.217 Y116.781 E12.16177
G1 X59.122 Y116.063 E12.18786
G1 X59.057 Y115.000 E12.22618
G1 X59.057 Y98.500 E12.82016
G1 X59.162 Y97.158 E12.86862
G1 X61.662 Y81.158 E13.45159
G1 X62.456 Y78.651 E13.54625
G1 X63.898 Y76.589 E13.63684
M204 S1500
G1 X64.224 Y76.748 F7800.000
M204 S600
G1 X64.286 Y76.661 E13.64069 F2400.000
G1 X66.351 Y75.120 E13.73343
G1 X68.787 Y74.283 E13.82617
G1 X70.250 Y74.154 E13.87903
G1 X79.750 Y74.154 E14.22103
G1 X82.295 Y74.551 E14.31377 F2400.000
G1 X84.598 Y75.706 E14.40651
G1 X86.439 Y77.508 E14.49925
G1 X87.643 Y79.786 E14.59199
G1 X87.996 Y81.212 E14.64486
G1 X90.496 Y97.212 E15.22783
G1 X90.596 Y98.500 E15.27435
G1 X90.596 Y115.000 E15.86833
G1 X90.579 Y115.543 E15.88789
G1 X90.525 Y116.092 E15.90777
G1 X90.356 Y117.249 E15.94985
G1 X89.886 Y118.816 E16.00874
G1 X89.626 Y119.444 E16.03320
G1 X88.535 Y121.333 E16.11173
G1 X88.137 Y121.852 E16.13527
G1 X86.598 Y123.390 E16.21361
G1 X86.086 Y123.783 E16.23684
G1 X85.406 Y124.253 E16.26659
G1 X84.190 Y124.878 E16.31581
G1 X83.595 Y125.125 E16.33901
G1 X81.928 Y125.619 E16.40157
G1 X80.840 Y125.775 E16.44118
G1 X79.750 Y125.846 E16.48048
G1 X70.250 Y125.846 E16.82247
G1 X69.427 Y125.806 E16.85213
G1 X68.516 Y125.690 E16.88520
G1 X67.171 Y125.399 E16.93475
G1 X66.405 Y125.125 E16.96402
G1 X65.810 Y124.878 E16.98722
G1 X64.797 Y124.376 E17.02791
G1 X63.916 Y123.784 E17.06612
G1 X63.404 Y123.392 E17.08935
G1 X62.686 Y122.773 E17.12345
G1 X61.859 Y121.847 E17.16814
G1 X61.138 Y120.876 E17.21168
G1 X60.373 Y119.443 E17.27016
G1 X60.028 Y118.597 E17.30304
G1 X59.560 Y116.736 E17.37214
G1 X59.466 Y116.020 E17.39812
G1 X59.404 Y115.000 E17.43492
G1 X59.404 Y98.500 E18.02890
G1 X59.504 Y97.212 E18.07542
G1 X62.004 Y81.212 E18.65839
G1 X62.789 Y78.758 E18.75113
G1 X64.189 Y76.797 E18.83787
M204 S1500
G1 E15.83787 F2100.00000
G92 E0
G1 X78.750 Y95.900 F7800.000
G1 E3.00000 F2100.00000
M204 S600
G1 X71.250 Y95.900 E3.26999 F2400.000
G1 X71.250 Y92.250 E3.40139
G1 X78.750 Y92.250 E3.67138
G1 X78.750 Y95.840 E3.80061
M204 S1500
G1 X78.750 Y96.300 F7800.000
G1 X79.204 Y91.904 F7800.000
M204 S600
G1 X70.796 Y91.904 E4.10327 F2400.000
G1 X70.796 Y83.046 E4.42212
G1 X79.204 Y83.046 E4.72477
G1 X79.204 Y91.844 E5.04147
M204 S1500
G1 X79.204 Y99.046 F7800.000
M204 S600
G1 X81.704 Y99.046 E5.13146 F2400.000
G1 X81.703 Y114.967 E5.70460
G1 X81.633 Y115.504 E5.72409
G1 X81.438 Y115.974 E5.74241
G1 X81.128 Y116.379 E5.76076
G1 X80.721 Y116.690 E5.77919
G1 X80.258 Y116.881 E5.79724
G1 X79.796 Y116.943 E5.81399
G1 X79.796 Y101.954 E6.35358
G1 X70.204 Y101.954 E6.69890
G1 X70.204 Y116.943 E7.23850
G1 X69.748 Y116.883 E7.25505
G1 X69.273 Y116.686 E7.27357
G1 X68.870 Y116.377 E7.29183
G1 X68.565 Y115.978 E7.30992
G1 X68.367 Y115.504 E7.32841
G1 X68.296 Y114.964 E7.34800
G1 X68.296 Y99.046 E7.92102
G1 X70.796 Y99.046 E8.01102
G1 X70.796 Y96.246 E8.11182
G1 X79.204 Y96.246 E8.41447
G1 X79.204 Y98.986 E8.51311
M204 S1500
G1 X79.550 Y98.700 F7800.000
M204 S600
G1 X82.050 Y98.700 E8.60311 F2400.000
G1 X82.050 Y114.990 E9.18953
G1 X81.970 Y115.595 E9.21148
G1 X81.740 Y116.149 E9.23309
G1 X81.374 Y116.626 E9.25472
G1 X80.895 Y116.992 E9.27643
G1 X80.348 Y117.219 E9.29775
G1 X79.737 Y117.300 E9.31996
G1 X79.450 Y117.300 E9.33028
G1 X79.450 Y102.300 E9.87026
G1 X70.550 Y102.300 E10.19065
G1 X70.550 Y117.300 E10.73063
G1 X70.263 Y117.300 E10.74096
G1 X69.657 Y117.220 E10.76296
G1 X69.098 Y116.988 E10.78477
G1 X68.623 Y116.623 E10.80631
G1 X68.262 Y116.153 E10.82766
G1 X68.030 Y115.594 E10.84944
G1 X67.950 Y114.987 E10.87150
G1 X67.950 Y98.700 E11.45780
G1 X70.450 Y98.700 E11.54780
G1 X70.450 Y82.700 E12.12378
G1 X79.550 Y82.700 E12.45137
G1 X79.550 Y98.640 E13.02519
M204 S1500
G1 X79.550 Y99.100 F7800.000
G1 X79.003 Y96.634 F7800.000
M204 S600
G1 X78.816 Y96.447 E13.03473 F2400.000
G1 X78.325 Y96.447 E13.05245
G1 X79.003 Y97.125 E13.08703
G1 X79.003 Y97.616 E13.10475
G1 X77.834 Y96.447 E13.16438
G1 X77.343 Y96.447 E13.18209
G1 X79.003 Y98.107 E13.26678
G1 X79.003 Y98.598 E13.28449
G1 X76.852 Y96.447 E13.39422
G1 X76.361 Y96.447 E13.41194
G1 X81.503 Y101.589 E13.67428
G1 X81.503 Y101.098 E13.69199
G1 X79.652 Y99.247 E13.78641
G1 X80.143 Y99.247 E13.80413
G1 X81.503 Y100.607 E13.87350
G1 X81.503 Y100.116 E13.89121
G1 X80.634 Y99.247 E13.93554
G1 X81.125 Y99.247 E13.95325
G1 X81.503 Y99.625 E13.97253
M204 S1500
G1 X81.503 Y102.080 F7800.000
M204 S600
G1 X75.870 Y96.447 E14.25992 F2400.000
G1 X75.379 Y96.447 E14.27763
G1 X81.503 Y102.571 E14.59007
G1 X81.503 Y103.061 E14.60778
G1 X74.888 Y96.447 E14.94527
G1 X74.398 Y96.447 E14.96298
G1 X79.703 Y101.753 E15.23369
M204 S1500
G1 X79.997 Y102.047 F7800.000
M204 S600
G1 X81.503 Y103.552 E15.31051 F2400.000
G1 X81.503 Y104.043 E15.32822
G1 X79.997 Y102.538 E15.40503
G1 X79.997 Y103.029 E15.42274
G1 X81.503 Y104.534 E15.49956
G1 X81.503 Y105.025 E15.51727
G1 X79.997 Y103.520 E15.59408
G1 X79.997 Y104.011 E15.61179
G1 X81.503 Y105.516 E15.68861
G1 X81.503 Y106.007 E15.70632
G1 X79.997 Y104.502 E15.78313
G1 X79.997 Y104.992 E15.80084
G1 X81.503 Y106.498 E15.87765
G1 X81.503 Y106.989 E15.89537
G1 X79.997 Y105.483 E15.97218
G1 X79.997 Y105.974 E15.98989
G1 X81.503 Y107.480 E16.06670
G1 X81.503 Y107.971 E16.08441
G1 X79.997 Y106.465 E16.16122
G1 X79.997 Y106.956 E16.17894
G1 X81.503 Y108.461 E16.25575
G1 X81.503 Y108.952 E16.27346
G1 X79.997 Y107.447 E16.35027
G1 X79.997 Y107.938 E16.36798
G1 X81.503 Y109.443 E16.44479
G1 X81.503 Y109.934 E16.46250
G1 X79.997 Y108.429 E16.53931
G1 X79.997 Y108.920 E16.55702
G1 X81.503 Y110.425 E16.63383
G1 X81.503 Y110.916 E16.65155
G1 X79.997 Y109.411 E16.72836
G1 X79.997 Y109.902 E16.74607
G1 X81.503 Y111.407 E16.82288
G1 X81.503 Y111.898 E16.84059
G1 X79.997 Y110.392 E16.91740
G1 X79.997 Y110.883 E16.93511
G1 X81.503 Y112.389 E17.01192
G1 X81.503 Y112.880 E17.02963
G1 X79.997 Y111.374 E17.10644
G1 X79.997 Y111.865 E17.12415
G1 X81.503 Y113.371 E17.20096
G1 X81.503 Y113.861 E17.21867
G1 X79.997 Y112.356 E17.29547
G1 X79.997 Y112.847 E17.31319
G1 X81.503 Y114.352 E17.38999
G1 X81.503 Y114.843 E17.40771
G1 X79.997 Y113.338 E17.48451
G1 X79.997 Y113.829 E17.50222
G1 X81.466 Y115.298 E17.57718
G1 X81.364 Y115.687 E17.59168
G1 X79.997 Y114.320 E17.66142
G1 X79.997 Y114.811 E17.67913
G1 X81.195 Y116.009 E17.74026
G1 X80.964 Y116.269 E17.75281
G1 X79.997 Y115.302 E17.80216
G1 X79.997 Y115.793 E17.81987
G1 X80.697 Y116.492 E17.85557
G1 X80.360 Y116.646 E17.86894
G1 X79.997 Y116.283 E17.88744
M204 S1500
G1 E14.88744 F2100.00000
G92 E0
G1 X70.003 Y116.107 F7800.000
G1 E3.00000 F2100.00000
M204 S600
G1 X68.497 Y114.602 E3.07682 F2400.000
G1 X68.497 Y114.111 E3.09453
G1 X70.003 Y115.616 E3.17135
G1 X70.003 Y115.125 E3.18906
G1 X68.497 Y113.620 E3.26587
G1 X68.497 Y113.129 E3.28359
G1 X70.003 Y114.634 E3.36040
G1 X70.003 Y114.144 E3.37812
G1 X68.497 Y112.638 E3.45493
G1 X68.497 Y112.147 E3.47264
G1 X70.003 Y113.653 E3.54946
G1 X70.003 Y113.162 E3.56717
G1 X68.497 Y111.656 E3.64399
G1 X68.497 Y111.165 E3.66170
G1 X70.003 Y112.671 E3.73852
G1 X70.003 Y112.180 E3.75623
G1 X68.497 Y110.674 E3.83305
G1 X68.497 Y110.183 E3.85076
G1 X70.003 Y111.689 E3.92758
G1 X70.003 Y111.198 E3.94529
G1 X68.497 Y109.693 E4.02211
G1 X68.497 Y109.202 E4.03982
G1 X70.003 Y110.707 E4.11664
G1 X70.003 Y110.216 E4.13435
G1 X68.497 Y108.711 E4.21116
G1 X68.497 Y108.220 E4.22888
G1 X70.003 Y109.725 E4.30569
G1 X70.003 Y109.234 E4.32341
G1 X68.497 Y107.729 E4.40022
G1 X68.497 Y107.238 E4.41793
G1 X70.003 Y108.743 E4.49475
G1 X70.003 Y108.253 E4.51246
G1 X68.497 Y106.747 E4.58928
G1 X68.497 Y106.256 E4.60699
G1 X70.003 Y107.762 E4.68381
G1 X70.003 Y107.271 E4.70152
G1 X68.497 Y105.765 E4.77834
G1 X68.497 Y105.274 E4.79605
G1 X70.003 Y106.780 E4.87287
G1 X70.003 Y106.289 E4.89058
G1 X68.497 Y104.783 E4.96740
G1 X68.497 Y104.293 E4.98511
G1 X70.003 Y105.798 E5.06193
G1 X70.003 Y105.307 E5.07964
G1 X68.497 Y103.802 E5.15645
G1 X68.497 Y103.311 E5.17417
G1 X70.003 Y104.816 E5.25098
G1 X70.003 Y104.325 E5.26870
G1 X68.497 Y102.820 E5.34551
G1 X68.497 Y102.329 E5.36322
G1 X70.003 Y103.834 E5.44004
G1 X70.003 Y103.343 E5.45775
G1 X68.497 Y101.838 E5.53457
G1 X68.497 Y101.347 E5.55228
G1 X70.003 Y102.853 E5.62910
G1 X70.003 Y102.362 E5.64681
G1 X68.497 Y100.856 E5.72363
G1 X68.497 Y100.365 E5.74134
G1 X70.003 Y101.871 E5.81816
M204 S1500
G1 X70.376 Y101.753 F7800.000
M204 S600
G1 X68.497 Y99.874 E5.91400 F2400.000
G1 X68.497 Y99.383 E5.93172
G1 X70.867 Y101.753 E6.05261
G1 X71.358 Y101.753 E6.07033
G1 X68.852 Y99.247 E6.19817
G1 X69.343 Y99.247 E6.21588
G1 X71.848 Y101.753 E6.34372
G1 X72.339 Y101.753 E6.36143
G1 X69.834 Y99.247 E6.48927
G1 X70.325 Y99.247 E6.50699
G1 X72.830 Y101.753 E6.63483
G1 X73.321 Y101.753 E6.65254
G1 X70.816 Y99.247 E6.78038
M204 S1500
G1 X70.997 Y98.938 F7800.000
M204 S600
G1 X73.812 Y101.753 E6.92401 F2400.000
G1 X74.303 Y101.753 E6.94172
G1 X70.997 Y98.447 E7.11039
G1 X70.997 Y97.956 E7.12811
G1 X74.794 Y101.753 E7.32183
G1 X75.285 Y101.753 E7.33954
G1 X70.997 Y97.465 E7.55831
G1 X70.997 Y96.974 E7.57603
G1 X75.776 Y101.753 E7.81985
G1 X76.267 Y101.753 E7.83756
G1 X70.999 Y96.485 E8.10633
G1 X71.452 Y96.447 E8.12273
G1 X76.758 Y101.753 E8.39344
G1 X77.249 Y101.753 E8.41115
G1 X71.943 Y96.447 E8.68186
G1 X72.434 Y96.447 E8.69957
G1 X77.739 Y101.753 E8.97028
G1 X78.230 Y101.753 E8.98799
G1 X72.925 Y96.447 E9.25870
G1 X73.416 Y96.447 E9.27642
G1 X78.721 Y101.753 E9.54713
G1 X79.212 Y101.753 E9.56484
G1 X73.907 Y96.447 E9.83555
M204 S1500
G1 E6.83555 F2100.00000
G92 E0
G1 X68.531 Y115.126 F7800.000
G1 E3.00000 F2100.00000
M204 S600
G1 X70.003 Y116.598 E3.07512 F2400.000
M204 S1500
G1 X69.263 Y116.349 F7800.000
M204 S600
G1 X68.899 Y115.985 E3.09370 F2400.000
M204 S1500
G1 X70.850 Y96.073 F7800.000
M204 S600
G1 X70.850 Y92.077 E3.40371 F2400.000
M204 S1500
G1 X70.997 Y91.516 F7800.000
M204 S600
G1 X71.184 Y91.703 E3.41348 F2400.000
G1 X71.687 Y91.703 E3.43205
G1 X70.997 Y91.013 E3.46809
G1 X70.997 Y90.510 E3.48666
G1 X72.190 Y91.703 E3.54896
G1 X72.692 Y91.703 E3.56754
G1 X70.997 Y90.008 E3.65611
G1 X70.997 Y89.505 E3.67468
G1 X73.195 Y91.703 E3.78952
G1 X73.698 Y91.703 E3.80810
G1 X70.997 Y89.002 E3.94921
G1 X70.997 Y88.499 E3.96778
G1 X74.201 Y91.703 E4.13516
G1 X74.703 Y91.703 E4.15373
G1 X70.997 Y87.997 E4.34738
G1 X70.997 Y87.494 E4.36595
G1 X75.206 Y91.703 E4.58586
G1 X75.709 Y91.703 E4.60444
G1 X70.997 Y86.991 E4.85062
G1 X70.997 Y86.489 E4.86919
G1 X76.211 Y91.703 E5.14164
G1 X76.714 Y91.703 E5.16022
G1 X70.997 Y85.986 E5.45893
G1 X70.997 Y85.483 E5.47751
G1 X77.217 Y91.703 E5.80249
G1 X77.720 Y91.703 E5.82107
G1 X70.997 Y84.980 E6.17232
G1 X70.997 Y84.478 E6.19090
G1 X78.222 Y91.703 E6.56842
G1 X78.725 Y91.703 E6.58699
G1 X70.997 Y83.975 E6.99078
G1 X70.997 Y83.472 E7.00936
G1 X79.003 Y91.478 E7.42766
G1 X79.003 Y90.975 E7.44623
G1 X71.275 Y83.247 E7.85002
G1 X71.778 Y83.247 E7.86860
G1 X79.003 Y90.472 E8.24612
G1 X79.003 Y89.970 E8.26469
G1 X72.280 Y83.247 E8.61595
G1 X72.783 Y83.247 E8.63452
G1 X79.003 Y89.467 E8.95951
G1 X79.003 Y88.964 E8.97809
G1 X73.286 Y83.247 E9.27680
G1 X73.789 Y83.247 E9.29538
G1 X79.003 Y88.461 E9.56783
G1 X79.003 Y87.959 E9.58640
G1 X74.291 Y83.247 E9.83258
G1 X74.794 Y83.247 E9.85116
G1 X79.003 Y87.456 E10.07107
G1 X79.003 Y86.953 E10.08965
G1 X75.297 Y83.247 E10.28329
G1 X75.799 Y83.247 E10.30187
G1 X79.003 Y86.451 E10.46924
G1 X79.003 Y85.948 E10.48782
G1 X76.302 Y83.247 E10.62893
G1 X76.805 Y83.247 E10.64750
G1 X79.003 Y85.445 E10.76234
G1 X79.003 Y84.942 E10.78092
G1 X77.308 Y83.247 E10.86949
G1 X77.810 Y83.247 E10.88806
G1 X79.003 Y84.440 E10.95037
G1 X79.003 Y83.937 E10.96894
G1 X78.313 Y83.247 E11.00498
G1 X78.816 Y83.247 E11.02355
G1 X79.003 Y83.434 E11.03332
M204 S1500
G1 X79.150 Y92.077 F7800.000
M204 S600
G1 X79.150 Y96.073 E11.34333 F2400.000
M204 S1500
M106 S201.45
M104 S230 ; set temperature
G1 Z0.500 F7800.000
G1 X78.750 Y95.900 F7800.000
M204 S800
G1 X71.250 Y95.900 E11.61333 F1800.000
G1 X71.250 Y92.250 E11.74472
G1 X78.750 Y92.250 E12.01471
G1 X78.750 Y95.840 E12.14395
M204 S1500
G1 X78.750 Y96.300 F7800.000
G1 X79.204 Y91.904 F7800.000
M204 S800
G1 X70.796 Y91.904 E12.44660 F1800.000
G1 X70.796 Y83.046 E12.76545
G1 X79.204 Y83.046 E13.06811
G1 X79.204 Y91.844 E13.38480
M204 S1500
G1 X79.204 Y99.046 F7800.000
M204 S800
G1 X81.704 Y99.046 E13.47480 F2700.000
G1 X81.703 Y114.973 E14.04815
G1 X81.633 Y115.504 E14.06741
G1 X81.438 Y115.974 E14.08574
G1 X81.126 Y116.380 E14.10415
G1 X80.714 Y116.693 E14.12280
G1 X80.264 Y116.879 E14.14032
G1 X79.796 Y116.942 E14.15731
G1 X79.796 Y101.954 E14.69689
G1 X70.204 Y101.954 E15.04222
G1 X70.204 Y116.943 E15.58182
G1 X69.752 Y116.884 E15.59821
G1 X69.267 Y116.682 E15.61714
G1 X68.868 Y116.373 E15.63529
