; generated by Slic3r 1.2.9 on 2017-04-28 at 17:30:37

; external perimeters extrusion width = 0.40mm
; perimeters extrusion width = 0.40mm
; infill extrusion width = 0.40mm
; solid infill extrusion width = 0.40mm
; top infill extrusion width = 0.40mm

M107
M190 S75 ; set bed temperature
M104 S235 ; set temperature
G28 ; home all axes
G1 Z5 F5000 ; lift nozzle

M109 S235 ; wait for temperature to be reached
G21 ; set units to millimeters
G90 ; use absolute coordinates
M82 ; use absolute distances for extrusion
G92 E0
G1 Z0.250 F7800.000
G1 E-3.00000 F2100.00000
G92 E0
G1 X46.643 Y76.314 F7800.000
G1 E3.00000 F2100.00000
M204 S600
G1 X47.656 Y75.819 E3.04057 F2400.000
G1 X48.362 Y75.511 E3.06830
G1 X78.093 Y64.011 E4.21585
G1 X81.345 Y63.402 E4.33495
G1 X99.339 Y63.391 E4.98271
G1 X101.991 Y63.789 E5.07925 F2400.000
G1 X103.598 Y64.459 E5.14194
G1 X103.901 Y64.621 E5.15429
G1 X105.763 Y65.944 E5.23654
G1 X107.772 Y68.644 E5.35769
G1 X108.544 Y71.008 E5.44723
G1 X109.791 Y78.021 E5.70363
G1 X110.090 Y80.218 E5.78344
G1 X110.225 Y81.778 E5.83982
G1 X110.328 Y83.232 E5.89228
G1 X110.351 Y83.869 E5.91525
G1 X110.351 Y89.593 E6.12130
G1 X109.953 Y92.245 E6.21783
G1 X108.795 Y94.664 E6.31437
G1 X106.978 Y96.636 E6.41091
G1 X103.581 Y98.343 E6.54775
G1 X103.014 Y98.490 E6.56883
G1 X102.467 Y98.614 E6.58903
G1 X50.622 Y108.674 E8.49019
G1 X47.943 Y108.789 E8.58672
G1 X45.348 Y108.112 E8.68326
G1 X43.066 Y106.704 E8.77980
G1 X41.297 Y104.689 E8.87633
G1 X40.198 Y102.243 E8.97287
G1 X39.863 Y99.968 E9.05562
G1 X39.649 Y88.468 E9.46970
G1 X39.669 Y87.674 E9.49827
G1 X39.747 Y86.550 E9.53884
G1 X40.216 Y84.238 E9.62378
G1 X40.583 Y83.172 E9.66435
G1 X41.634 Y81.060 E9.74929
G1 X42.264 Y80.125 E9.78986
G1 X43.826 Y78.357 E9.87481
G1 X44.676 Y77.617 E9.91537
G1 X46.593 Y76.347 E9.99816
M204 S1500
G1 X46.795 Y76.625 F7800.000
M204 S600
G1 X47.808 Y76.130 E10.03872 F2400.000
G1 X48.487 Y75.834 E10.06540
G1 X78.218 Y64.334 E11.21295
G1 X81.345 Y63.748 E11.32748
G1 X99.339 Y63.737 E11.97523
G1 X101.938 Y64.136 E12.06988 F2400.000
G1 X103.435 Y64.764 E12.12834
G1 X103.737 Y64.926 E12.14069
G1 X105.529 Y66.199 E12.21979
G1 X107.461 Y68.795 E12.33630
G1 X108.203 Y71.070 E12.42242
G1 X109.450 Y78.080 E12.67874
G1 X109.745 Y80.248 E12.75752
G1 X109.880 Y81.802 E12.81368
G1 X109.983 Y83.256 E12.86614
G1 X110.004 Y83.869 E12.88824
G1 X110.004 Y89.593 E13.09428
G1 X109.607 Y92.192 E13.18894
G1 X108.450 Y94.554 E13.28360
G1 X106.640 Y96.461 E13.37826
G1 X103.494 Y98.007 E13.50445
G1 X102.927 Y98.154 E13.52553
G1 X102.401 Y98.274 E13.54495
G1 X50.556 Y108.334 E15.44611
G1 X47.929 Y108.439 E15.54077
G1 X45.390 Y107.753 E15.63543
G1 X43.173 Y106.340 E15.73009
G1 X41.480 Y104.328 E15.82474
G1 X40.466 Y101.902 E15.91940
G1 X40.209 Y99.962 E15.98984
G1 X39.995 Y88.461 E16.40392
G1 X40.015 Y87.698 E16.43140
G1 X40.093 Y86.574 E16.47197
G1 X40.544 Y84.350 E16.55366
G1 X40.910 Y83.285 E16.59422
G1 X41.922 Y81.253 E16.67591
G1 X42.551 Y80.319 E16.71648
G1 X44.054 Y78.618 E16.79817
G1 X44.904 Y77.878 E16.83873
G1 X46.745 Y76.658 E16.91826
M204 S1500
G1 X46.947 Y76.936 F7800.000
M204 S600
G1 X47.960 Y76.442 E16.95883 F2400.000
G1 X48.612 Y76.157 E16.98444
G1 X78.343 Y64.657 E18.13199
G1 X81.346 Y64.095 E18.24196
G1 X99.339 Y64.084 E18.88969
G1 X101.884 Y64.482 E18.98243 F2400.000
G1 X103.272 Y65.070 E19.03669
G1 X103.574 Y65.231 E19.04904
G1 X105.294 Y66.454 E19.12500
G1 X107.149 Y68.947 E19.23687
G1 X107.862 Y71.131 E19.31957
G1 X109.109 Y78.138 E19.57580
G1 X109.400 Y80.278 E19.65354
G1 X109.534 Y81.827 E19.70950
G1 X109.637 Y83.280 E19.76196
G1 X109.658 Y83.869 E19.78317
G1 X109.658 Y89.593 E19.98922
G1 X109.260 Y92.138 E20.08196
G1 X108.105 Y94.441 E20.17470
G1 X106.303 Y96.282 E20.26744
G1 X103.407 Y97.672 E20.38309
G1 X102.840 Y97.819 E20.40416
G1 X102.335 Y97.934 E20.42281
G1 X50.490 Y107.994 E22.32397
G1 X47.916 Y108.088 E22.41672
G1 X45.435 Y107.393 E22.50946
G1 X43.285 Y105.975 E22.60220
G1 X41.669 Y103.968 E22.69494
G1 X40.743 Y101.564 E22.78769
G1 X40.556 Y99.956 E22.84598
G1 X40.342 Y88.455 E23.26006
G1 X40.360 Y87.722 E23.28644
G1 X40.438 Y86.598 E23.32701
G1 X40.871 Y84.463 E23.40545
G1 X41.238 Y83.397 E23.44601
G1 X42.209 Y81.447 E23.52445
G1 X42.838 Y80.512 E23.56501
G1 X44.281 Y78.879 E23.64345
G1 X45.131 Y78.140 E23.68401
G1 X46.897 Y76.969 E23.76029
M204 S1500
G1 E20.76029 F2100.00000
G92 E0
G1 X54.685 Y90.076 F7800.000
G1 E3.00000 F2100.00000
M204 S600
G1 X54.124 Y90.432 E3.02392 F2400.000
G1 X53.492 Y90.638 E3.04784
G1 X52.829 Y90.679 E3.07176
G1 X52.176 Y90.555 E3.09568
G1 X51.575 Y90.272 E3.11960
G1 X51.063 Y89.848 E3.14351
G1 X50.672 Y89.311 E3.16743
G1 X50.428 Y88.693 E3.19135
G1 X50.344 Y88.034 E3.21527
G1 X50.421 Y87.423 E3.23742
G1 X50.669 Y86.761 E3.26287
G1 X51.063 Y86.219 E3.28698
G1 X51.575 Y85.796 E3.31090
G1 X52.176 Y85.513 E3.33482
G1 X52.780 Y85.398 E3.35697 F2400.000
G1 X53.487 Y85.428 E3.38242
G1 X54.124 Y85.635 E3.40653
G1 X54.685 Y85.991 E3.43045
G1 X55.139 Y86.476 E3.45437
G1 X55.460 Y87.058 E3.47829
G1 X55.625 Y87.702 E3.50221
G1 X55.625 Y88.366 E3.52613
G1 X55.460 Y89.010 E3.55005
G1 X55.139 Y89.592 E3.57397
G1 X54.726 Y90.033 E3.59573
M204 S1500
G1 X54.462 Y89.807 F7800.000
M204 S600
G1 X53.975 Y90.116 E3.61650 F2400.000
G1 X53.426 Y90.295 E3.63726
G1 X52.850 Y90.331 E3.65803
G1 X52.284 Y90.223 E3.67880
G1 X51.762 Y89.977 E3.69957
G1 X51.317 Y89.609 E3.72034
G1 X50.978 Y89.143 E3.74111
G1 X50.766 Y88.606 E3.76188
G1 X50.693 Y88.034 E3.78265
G1 X50.760 Y87.507 E3.80177
G1 X50.977 Y86.927 E3.82407
G1 X51.317 Y86.458 E3.84491
G1 X51.762 Y86.091 E3.86568
G1 X52.284 Y85.845 E3.88645
G1 X52.805 Y85.745 E3.90557 F2400.000
G1 X53.424 Y85.772 E3.92787
G1 X53.975 Y85.951 E3.94871
G1 X54.462 Y86.260 E3.96948
G1 X54.857 Y86.681 E3.99024
G1 X55.135 Y87.187 E4.01101
G1 X55.278 Y87.745 E4.03178
G1 X55.278 Y88.322 E4.05255
G1 X55.135 Y88.881 E4.07332
G1 X54.857 Y89.387 E4.09409
G1 X54.503 Y89.764 E4.11270
M204 S1500
G1 X54.512 Y90.204 F7800.000
G1 X49.740 Y99.081 F7800.000
M204 S600
G1 X50.052 Y98.268 E4.14404 F2400.000
G1 X50.667 Y96.900 E4.19805
G1 X51.394 Y95.540 E4.25356
G1 X51.753 Y94.639 E4.28848
G1 X51.861 Y93.630 E4.32499
G1 X51.693 Y92.630 E4.36151
G1 X51.261 Y91.709 E4.39814
G1 X49.855 Y90.113 E4.47471
G1 X49.425 Y89.231 E4.51003
G1 X49.237 Y88.266 E4.54542
G1 X49.305 Y87.285 E4.58081
G1 X49.624 Y86.356 E4.61619
G1 X50.173 Y85.540 E4.65158
G1 X50.915 Y84.895 E4.68697
G1 X51.798 Y84.464 E4.72236
G1 X52.763 Y84.275 E4.75774
G1 X53.744 Y84.344 E4.79313
G1 X54.673 Y84.663 E4.82852
G1 X55.519 Y85.232 E4.86520
G1 X56.332 Y85.951 E4.90428
G1 X57.265 Y86.548 E4.94414
G1 X58.376 Y86.844 E4.98554
G1 X59.524 Y86.788 E5.02693
G1 X60.553 Y86.403 E5.06645
G1 X62.079 Y85.613 E5.12834
G1 X63.609 Y84.949 E5.18838
G1 X65.181 Y84.392 E5.24841
G1 X66.788 Y83.945 E5.30844
G1 X68.421 Y83.608 E5.36848
G1 X70.074 Y83.385 E5.42851
G1 X70.911 Y83.330 E5.45873
G1 X71.738 Y83.276 E5.48854
G1 X73.405 Y83.281 E5.54858
G1 X75.069 Y83.401 E5.60861
G1 X76.768 Y83.641 E5.67041
G1 X77.512 Y83.663 E5.69718
G1 X78.278 Y83.458 E5.72573
G1 X78.953 Y83.042 E5.75428
G1 X79.480 Y82.450 E5.78283
G1 X79.816 Y81.731 E5.81139
G1 X79.914 Y81.060 E5.83581
G1 X81.239 Y76.308 E6.01338
G1 X81.247 Y75.321 E6.04891
G1 X81.549 Y72.987 E6.13363
G1 X99.145 Y72.976 E6.76707
G1 X99.460 Y75.324 E6.85235
G1 X99.475 Y76.299 E6.88745
G1 X99.634 Y76.854 E6.90822
G1 X100.110 Y78.279 E6.96232
G1 X100.343 Y79.638 E7.01194
G1 X100.542 Y81.067 E7.06387
G1 X100.765 Y83.891 E7.16586
G1 X100.765 Y89.163 E7.35563
G1 X100.613 Y89.209 E7.36137
G1 X83.070 Y92.613 E8.00466
G1 X82.026 Y91.916 E8.04987
G1 X80.712 Y91.186 E8.10398
G1 X79.342 Y90.567 E8.15809
G1 X77.926 Y90.062 E8.21220
G1 X76.474 Y89.675 E8.26632
G1 X74.995 Y89.409 E8.32043
G1 X73.498 Y89.265 E8.37454
G1 X72.119 Y89.246 E8.42421
G1 X70.497 Y89.346 E8.48269
G1 X69.010 Y89.572 E8.53686
G1 X67.547 Y89.919 E8.59097
G1 X66.118 Y90.384 E8.64508
G1 X64.732 Y90.966 E8.69919
G1 X63.398 Y91.659 E8.75330
G1 X62.124 Y92.460 E8.80748
G1 X60.831 Y93.443 E8.86595
G1 X59.799 Y94.359 E8.91562
G1 X58.760 Y95.446 E8.96974
G1 X57.814 Y96.614 E9.02385
G1 X57.107 Y97.651 E9.06906
G1 X49.799 Y99.070 E9.33705
M204 S1500
G1 X49.208 Y99.537 F7800.000
M204 S600
G1 X49.733 Y98.133 E9.39102 F2400.000
G1 X50.356 Y96.747 E9.44571
G1 X51.080 Y95.394 E9.50095
G1 X51.414 Y94.555 E9.53347
G1 X51.511 Y93.641 E9.56656
G1 X51.359 Y92.734 E9.59966
G1 X50.969 Y91.900 E9.63280
G1 X49.565 Y90.306 E9.70927
G1 X49.094 Y89.342 E9.74791
G1 X48.888 Y88.287 E9.78658
G1 X48.962 Y87.216 E9.82525
G1 X49.311 Y86.200 E9.86392
G1 X49.912 Y85.309 E9.90259
G1 X50.722 Y84.604 E9.94126
G1 X51.687 Y84.132 E9.97993
G1 X52.741 Y83.927 E10.01860
G1 X53.813 Y84.001 E10.05727
G1 X54.829 Y84.350 E10.09594
G1 X55.731 Y84.958 E10.13509
G1 X56.541 Y85.674 E10.17402
G1 X57.406 Y86.227 E10.21097
G1 X58.413 Y86.495 E10.24848
G1 X59.454 Y86.445 E10.28600
G1 X60.412 Y86.086 E10.32282
G1 X61.930 Y85.300 E10.38439
G1 X63.482 Y84.627 E10.44528
G1 X65.077 Y84.062 E10.50617
G1 X66.706 Y83.608 E10.56706
G1 X68.363 Y83.267 E10.62796
G1 X70.039 Y83.040 E10.68885
G1 X70.888 Y82.984 E10.71949
G1 X71.727 Y82.929 E10.74974
G1 X73.418 Y82.935 E10.81063
G1 X75.105 Y83.056 E10.87152
G1 X76.798 Y83.296 E10.93306
G1 X77.471 Y83.316 E10.95730
G1 X78.139 Y83.137 E10.98220
G1 X78.728 Y82.774 E11.00710
G1 X79.188 Y82.257 E11.03200
G1 X79.480 Y81.630 E11.05689
G1 X79.574 Y80.988 E11.08028
G1 X80.893 Y76.260 E11.25698
G1 X80.901 Y75.298 E11.29162
G1 X81.233 Y72.735 E11.38465
G1 X81.405 Y72.641 E11.39169
G1 X99.284 Y72.630 E12.03531
G1 X99.462 Y72.730 E12.04267
G1 X99.806 Y75.299 E12.13597
G1 X99.821 Y76.248 E12.17015
G1 X99.964 Y76.751 E12.18899
G1 X100.446 Y78.195 E12.24377
G1 X100.686 Y79.585 E12.29455
G1 X100.886 Y81.029 E12.34705
G1 X101.112 Y83.877 E12.44990
G1 X101.112 Y89.419 E12.64939
G1 X100.697 Y89.546 E12.66501
G1 X82.996 Y92.980 E13.31408
G1 X81.845 Y92.211 E13.36391
G1 X80.556 Y91.496 E13.41700
G1 X79.213 Y90.888 E13.47008
G1 X77.824 Y90.393 E13.52317
G1 X76.399 Y90.013 E13.57626
G1 X74.947 Y89.752 E13.62934
G1 X73.479 Y89.611 E13.68243
G1 X72.127 Y89.592 E13.73112
G1 X70.534 Y89.691 E13.78856
G1 X69.076 Y89.912 E13.84167
G1 X67.641 Y90.253 E13.89476
G1 X66.239 Y90.709 E13.94785
G1 X64.879 Y91.280 E14.00093
G1 X63.570 Y91.960 E14.05402
G1 X62.321 Y92.745 E14.10713
G1 X61.051 Y93.711 E14.16457
G1 X60.039 Y94.609 E14.21326
G1 X59.020 Y95.675 E14.26635
G1 X58.092 Y96.821 E14.31943
G1 X57.313 Y97.964 E14.36926
G1 X49.267 Y99.526 E14.66431
M204 S1500
G1 X49.465 Y99.231 F7800.000
G1 X50.295 Y98.781 F7800.000
M204 S600
G1 X50.116 Y98.602 E14.67346 F2400.000
G1 X50.255 Y98.250 E14.68711
G1 X50.706 Y98.702 E14.71016
G1 X51.117 Y98.622 E14.72526
G1 X50.407 Y97.911 E14.76151
G1 X50.559 Y97.573 E14.77489
G1 X51.528 Y98.542 E14.82434
G1 X51.939 Y98.462 E14.83944
G1 X50.711 Y97.234 E14.90208
G1 X50.866 Y96.899 E14.91542
G1 X52.350 Y98.383 E14.99112
G1 X52.761 Y98.303 E15.00622
G1 X51.037 Y96.579 E15.09416
G1 X51.208 Y96.259 E15.10723
G1 X53.172 Y98.223 E15.20742
G1 X53.583 Y98.143 E15.22252
G1 X51.379 Y95.939 E15.33494
G1 X51.550 Y95.619 E15.34802
G1 X53.994 Y98.064 E15.47269
G1 X54.405 Y97.984 E15.48779
G1 X51.694 Y95.272 E15.62611
G1 X51.833 Y94.921 E15.63974
G1 X54.816 Y97.904 E15.79190
G1 X55.227 Y97.824 E15.80700
G1 X51.957 Y94.554 E15.97382
G1 X52.004 Y94.110 E15.98990
G1 X55.638 Y97.745 E16.17527
G1 X56.049 Y97.665 E16.19037
G1 X52.052 Y93.667 E16.39429
G1 X51.992 Y93.117 E16.41426
G1 X56.460 Y97.585 E16.64219
G1 X56.871 Y97.505 E16.65729
G1 X51.893 Y92.527 E16.91122
M204 S1500
G1 X51.490 Y91.633 F7800.000
M204 S600
G1 X57.145 Y97.289 E17.19969 F2400.000
M204 S1500
G1 X61.727 Y92.546 F7800.000
M204 S600
G1 X53.778 Y84.597 E17.60515 F2400.000
M204 S1500
G1 X54.069 Y85.379 F7800.000
M204 S600
G1 X53.203 Y84.513 E17.64933 F2400.000
G1 X52.682 Y84.483 E17.66813
G1 X53.421 Y85.221 E17.70579
G1 X52.908 Y85.199 E17.72432
G1 X52.272 Y84.563 E17.75675
G1 X51.861 Y84.643 E17.77184
G1 X52.481 Y85.263 E17.80346
G1 X52.087 Y85.360 E17.81809
G1 X51.522 Y84.795 E17.84691
G1 X51.192 Y84.956 E17.86015
G1 X51.753 Y85.517 E17.88876
G1 X51.435 Y85.689 E17.90182
G1 X50.889 Y85.144 E17.92966
G1 X50.627 Y85.372 E17.94220
G1 X51.167 Y85.912 E17.96973
G1 X50.906 Y86.142 E17.98227
G1 X50.375 Y85.611 E18.00937
G1 X50.153 Y85.879 E18.02195
G1 X50.700 Y86.426 E18.04985
G1 X50.495 Y86.713 E18.06254
G1 X49.955 Y86.173 E18.09008
G1 X49.773 Y86.481 E18.10300
G1 X50.362 Y87.070 E18.13305
G1 X50.228 Y87.427 E18.14680
G1 X49.647 Y86.846 E18.17644
G1 X49.522 Y87.211 E18.19037
G1 X50.172 Y87.862 E18.22356
G1 X50.172 Y88.352 E18.24126
G1 X49.475 Y87.656 E18.27680
G1 X49.444 Y88.115 E18.29339
G1 X50.278 Y88.949 E18.33597
M204 S1500
G1 X49.802 Y89.454 F7800.000
M204 S600
G1 X57.344 Y96.997 E18.72071 F2400.000
G1 X57.543 Y96.705 E18.73345
G1 X49.542 Y88.704 E19.14156
M204 S1500
G1 X52.087 Y90.758 F7800.000
M204 S600
G1 X57.750 Y96.421 E19.43044 F2400.000
G1 X57.970 Y96.150 E19.44302
G1 X52.693 Y90.873 E19.71217
G1 X53.165 Y90.855 E19.72922
G1 X58.189 Y95.879 E19.98547
G1 X58.409 Y95.608 E19.99806
G1 X53.596 Y90.795 E20.24354
G1 X53.966 Y90.675 E20.25759
G1 X58.629 Y95.337 E20.49539
G1 X58.868 Y95.086 E20.50791
G1 X54.305 Y90.522 E20.74068
G1 X54.605 Y90.332 E20.75350
G1 X59.108 Y94.835 E20.98319
G1 X59.348 Y94.584 E20.99571
G1 X54.881 Y90.117 E21.22358
G1 X55.118 Y89.863 E21.23610
G1 X59.588 Y94.333 E21.46407
G1 X59.840 Y94.094 E21.47659
G1 X55.338 Y89.593 E21.70621
G1 X55.512 Y89.276 E21.71924
G1 X60.100 Y93.863 E21.95324
G1 X60.360 Y93.633 E21.96578
G1 X55.668 Y88.941 E22.20510
G1 X55.768 Y88.550 E22.21964
G1 X60.620 Y93.402 E22.46711
G1 X60.891 Y93.182 E22.47969
G1 X55.826 Y88.117 E22.73805
G1 X55.826 Y87.626 E22.75575
G1 X61.170 Y92.970 E23.02833
G1 X61.448 Y92.758 E23.04097
G1 X55.667 Y86.977 E23.33584
M204 S1500
G1 X56.557 Y86.395 F7800.000
M204 S600
G1 X62.305 Y92.142 E23.62900 F2400.000
G1 X62.006 Y92.334 E23.64181
G1 X54.576 Y84.904 E24.02079
M204 S1500
G1 X57.492 Y86.839 F7800.000
M204 S600
G1 X62.606 Y91.953 E24.28165 F2400.000
G1 X62.907 Y91.763 E24.29448
G1 X58.161 Y87.017 E24.53659
G1 X58.662 Y87.028 E24.55469
G1 X63.208 Y91.574 E24.78657
G1 X63.522 Y91.397 E24.79956
G1 X59.130 Y87.005 E25.02359
G1 X59.577 Y86.960 E25.03977
G1 X63.845 Y91.229 E25.25750
G1 X64.168 Y91.061 E25.27062
G1 X59.934 Y86.827 E25.48660
G1 X60.291 Y86.693 E25.50036
G1 X64.491 Y90.893 E25.71459
G1 X64.823 Y90.734 E25.72786
G1 X60.643 Y86.554 E25.94108
G1 X60.966 Y86.387 E25.95421
G1 X65.168 Y90.589 E26.16857
G1 X65.514 Y90.444 E26.18209
G1 X61.289 Y86.219 E26.39760
G1 X61.613 Y86.052 E26.41073
G1 X65.860 Y90.299 E26.62738
G1 X66.214 Y90.162 E26.64106
G1 X61.936 Y85.884 E26.85925
G1 X62.267 Y85.725 E26.87251
G1 X66.584 Y90.041 E27.09269
G1 X66.954 Y89.921 E27.10673
G1 X62.609 Y85.576 E27.32833
G1 X62.952 Y85.428 E27.34179
G1 X67.324 Y89.800 E27.56481
G1 X67.705 Y89.690 E27.57910
G1 X63.294 Y85.280 E27.80409
G1 X63.636 Y85.131 E27.81754
G1 X68.101 Y89.596 E28.04530
G1 X68.498 Y89.502 E28.06001
G1 X63.999 Y85.003 E28.28951
G1 X64.361 Y84.874 E28.30338
G1 X68.895 Y89.408 E28.53464
G1 X69.311 Y89.333 E28.54989
G1 X64.723 Y84.746 E28.78389
G1 X65.086 Y84.618 E28.79775
G1 X69.737 Y89.269 E29.03500
G1 X70.163 Y89.204 E29.05054
G1 X65.463 Y84.504 E29.29027
G1 X65.847 Y84.397 E29.30464
G1 X70.593 Y89.144 E29.54672
G1 X71.055 Y89.115 E29.56342
G1 X66.231 Y84.291 E29.80949
G1 X66.615 Y84.184 E29.82386
G1 X71.517 Y89.086 E30.07392
G1 X71.979 Y89.057 E30.09062
G1 X67.012 Y84.090 E30.34400
G1 X67.419 Y84.006 E30.35898
G1 X72.461 Y89.048 E30.61617
G1 X72.959 Y89.055 E30.63412
G1 X67.826 Y83.922 E30.89593
G1 X68.233 Y83.839 E30.91092
G1 X73.456 Y89.062 E31.17736
G1 X73.987 Y89.102 E31.19657
G1 X68.655 Y83.770 E31.46855
G1 X69.087 Y83.712 E31.48429
G1 X74.530 Y89.155 E31.76192
G1 X75.073 Y89.207 E31.78159
G1 X69.520 Y83.653 E32.06487
G1 X69.952 Y83.595 E32.08060
G1 X75.669 Y89.311 E32.37219
G1 X76.267 Y89.419 E32.39412
G1 X70.408 Y83.560 E32.69299
G1 X70.868 Y83.530 E32.70964
G1 X76.896 Y89.557 E33.01710
G1 X77.565 Y89.735 E33.04207
G1 X71.329 Y83.499 E33.36016
